( pcb2gcode 2.4.0 )
( Software-independent Gcode )

G94 ( Millimeters per minute feed rate. )
G21 ( Units == Millimeters. )

G90 ( Absolute coordinates. )
G00 S10000 ( RPM spindle speed. )
G01 F180.00000 ( Feedrate. )


G00 Z5.00000 (Retract to tool change height)
T0
M5      (Spindle stop.)
G04 P1.00000 (Wait for spindle to stop)
(MSG, Change tool bit to mill diameter 0.00000mm)
M6      (Tool change.)
M0      (Temporary machine stop.)
M3 ( Spindle on clockwise. )
G04 P1.00000 (Wait for spindle to get up to speed)
G04 P0 ( dwell for no time -- G64 should not smooth over this point )
G00 Z5.00000 ( retract )

G00 X-2.29870 Y8.30052 ( rapid move to begin. )
G01 F90.00000
( Mill infeed pass 1/1 )
G01 Z-0.10000
G04 P0 ( dwell for no time -- G64 should not smooth over this point )
G01 F180.00000
G01 X-2.29870 Y8.30052
G01 X-2.20330 Y8.56092
G01 X-2.15897 Y8.89000
G01 X-2.15897 Y53.34003
G01 X-2.20330 Y53.66913
G01 X-2.30342 Y53.94094
G01 X-2.39248 Y54.10548
G01 X-2.64516 Y54.45006
G01 X-4.10395 Y55.92003
G01 X-11.69914 Y55.92003
G01 X-11.99975 Y55.83804
G01 X-12.62215 Y55.71599
G01 X-13.03058 Y55.67294
G01 X-13.42499 Y55.65752
G01 X-14.53403 Y55.65752
G01 X-14.81183 Y55.77840
G01 X-14.99700 Y55.86672
G01 X-15.48953 Y56.14563
G01 X-15.76245 Y56.33298
G01 X-16.02897 Y56.54182
G01 X-16.02897 Y58.56585
G01 X-15.80584 Y58.81550
G01 X-15.60462 Y59.15457
G01 X-15.45745 Y59.33450
G01 X-15.29494 Y59.47052
G01 X-15.12684 Y59.56612
G01 X-14.85351 Y59.65899
G01 X-14.62298 Y59.67900
G01 X-13.42499 Y59.67900
G01 X-13.19444 Y59.65899
G01 X-12.97300 Y59.59127
G01 X-12.76906 Y59.48164
G01 X-12.58865 Y59.33290
G01 X-12.43675 Y59.17816
G01 X-12.25624 Y59.15403
G01 X-3.26923 Y59.15503
G01 X-3.11097 Y59.17771
G01 X-2.95928 Y59.33290
G01 X-2.77884 Y59.48164
G01 X-2.57495 Y59.59127
G01 X-2.34211 Y59.66028
G01 X-2.12298 Y59.67900
G01 X-0.86713 Y59.67669
G01 X-0.69332 Y59.65886
G01 X-0.32494 Y59.55220
G01 X0.00003 Y59.52584
G01 X0.00000 Y0.00000
G01 X-68.83400 Y0.00000
G01 X-68.83400 Y67.31000
G01 X0.00000 Y67.31000
G01 X0.00003 Y64.52586
G01 X-0.32492 Y64.55222
G01 X-0.69334 Y64.65885
G01 X-0.86718 Y64.67671
G01 X-2.12298 Y64.67904
G01 X-2.35349 Y64.65900
G01 X-2.57495 Y64.59126
G01 X-2.77886 Y64.48163
G01 X-2.95928 Y64.33292
G01 X-3.11117 Y64.17815
G01 X-3.29166 Y64.15402
G01 X-12.25631 Y64.15402
G01 X-12.43678 Y64.17818
G01 X-12.71067 Y64.43782
G01 X-12.96927 Y64.58966
G01 X-13.19444 Y64.65898
G01 X-13.42499 Y64.67904
G01 X-14.62298 Y64.67904
G01 X-14.85349 Y64.65900
G01 X-15.07495 Y64.59126
G01 X-15.27581 Y64.48334
G01 X-15.48130 Y64.30876
G01 X-15.61023 Y64.17627
G01 X-15.74376 Y64.15799
G01 X-16.26245 Y64.15405
G01 X-16.44675 Y64.17815
G01 X-16.59865 Y64.33292
G01 X-16.77906 Y64.48163
G01 X-16.98297 Y64.59123
G01 X-17.20444 Y64.65898
G01 X-17.43499 Y64.67904
G01 X-18.63298 Y64.67904
G01 X-18.86349 Y64.65900
G01 X-19.08868 Y64.58966
G01 X-19.34728 Y64.43782
G01 X-19.62120 Y64.17815
G01 X-19.80164 Y64.15402
G01 X-28.76629 Y64.15402
G01 X-28.94675 Y64.17815
G01 X-29.09865 Y64.33289
G01 X-29.27906 Y64.48163
G01 X-29.47927 Y64.58966
G01 X-29.66362 Y64.64800
G01 X-29.90835 Y64.67833
G01 X-30.63024 Y64.67904
G01 X-30.78109 Y64.69583
G01 X-30.88140 Y64.77411
G01 X-32.61037 Y66.50360
G01 X-32.71098 Y66.58331
G01 X-32.82363 Y66.64437
G01 X-32.94614 Y66.68262
G01 X-33.08667 Y66.69377
G01 X-58.73382 Y66.68912
G01 X-58.92424 Y66.64424
G01 X-59.03694 Y66.58331
G01 X-59.14685 Y66.49514
G01 X-65.47907 Y60.16292
G01 X-65.62964 Y59.94093
G01 X-65.68016 Y59.67745
G01 X-65.66695 Y39.24214
G01 X-65.60602 Y39.07495
G01 X-65.47896 Y38.89703
G01 X-62.24842 Y35.66272
G01 X-62.18240 Y35.58189
G01 X-62.12766 Y35.28377
G01 X-62.05601 Y35.11027
G01 X-61.88507 Y34.85982
G01 X-61.86800 Y34.70633
G01 X-61.86922 Y33.84751
G01 X-61.88525 Y33.72030
G01 X-62.00237 Y33.55972
G01 X-62.09551 Y33.38337
G01 X-62.14110 Y33.24431
G01 X-62.16726 Y33.04667
G01 X-62.15184 Y32.84784
G01 X-62.09553 Y32.65668
G01 X-62.00079 Y32.48124
G01 X-61.88367 Y32.32036
G01 X-61.86800 Y32.16633
G01 X-61.86922 Y31.30751
G01 X-61.88525 Y31.18030
G01 X-62.05416 Y30.93357
G01 X-62.12733 Y30.75714
G01 X-62.16376 Y30.57360
G01 X-62.15184 Y30.30784
G01 X-62.12733 Y30.20296
G01 X-62.05588 Y30.03001
G01 X-61.95210 Y29.87426
G01 X-61.81992 Y29.74162
G01 X-61.66442 Y29.63723
G01 X-61.49152 Y29.56514
G01 X-61.30770 Y29.52836
G01 X-61.12022 Y29.52836
G01 X-60.93640 Y29.56514
G01 X-60.76351 Y29.63725
G01 X-60.55634 Y29.78945
G01 X-60.45772 Y29.89758
G01 X-60.35347 Y30.06768
G01 X-60.30059 Y30.20301
G01 X-60.26417 Y30.38653
G01 X-60.26417 Y30.57355
G01 X-60.30059 Y30.75706
G01 X-60.37191 Y30.92981
G01 X-60.54288 Y31.18023
G01 X-60.55995 Y31.33347
G01 X-60.55916 Y32.18757
G01 X-60.54199 Y32.31947
G01 X-60.35347 Y32.60768
G01 X-60.30059 Y32.74301
G01 X-60.26417 Y32.92653
G01 X-60.26417 Y33.11355
G01 X-60.30059 Y33.29709
G01 X-60.37194 Y33.46983
G01 X-60.54288 Y33.72023
G01 X-60.55995 Y33.87347
G01 X-60.55916 Y34.72757
G01 X-60.54199 Y34.85947
G01 X-60.37410 Y35.10582
G01 X-60.28682 Y35.33574
G01 X-60.26066 Y35.58667
G01 X-60.30059 Y35.83709
G01 X-60.35347 Y35.97237
G01 X-60.42724 Y36.09876
G01 X-60.60801 Y36.29843
G01 X-60.76351 Y36.40282
G01 X-60.93617 Y36.47483
G01 X-61.22744 Y36.52459
G01 X-61.35467 Y36.62563
G01 X-64.25839 Y39.52933
G01 X-64.35247 Y39.64816
G01 X-64.36919 Y39.77886
G01 X-64.36995 Y59.26132
G01 X-64.35024 Y59.41096
G01 X-64.25822 Y59.53087
G01 X-58.48457 Y65.30012
G01 X-58.39671 Y65.37066
G01 X-58.24504 Y65.38603
G01 X-46.96015 Y65.38120
G01 X-46.77512 Y65.34805
G01 X-46.69478 Y65.31925
G01 X-46.64448 Y65.15405
G01 X-46.62800 Y65.00470
G01 X-46.62896 Y63.45916
G01 X-46.64182 Y63.34501
G01 X-46.66590 Y63.28275
G01 X-46.82660 Y63.13297
G01 X-46.96676 Y62.96563
G01 X-47.09061 Y62.74006
G01 X-47.16201 Y62.49375
G01 X-47.18014 Y62.20054
G01 X-47.15995 Y61.94664
G01 X-47.09061 Y61.71999
G01 X-46.97847 Y61.51136
G01 X-46.76102 Y61.26858
G01 X-46.60034 Y61.15096
G01 X-46.37207 Y61.04362
G01 X-46.20943 Y60.99889
G01 X-45.97395 Y60.97575
G01 X-45.82145 Y60.98601
G01 X-45.62671 Y61.02767
G01 X-45.34759 Y61.15093
G01 X-45.14642 Y61.30341
G01 X-44.88947 Y61.59543
G01 X-44.70397 Y61.75337
G01 X-44.70397 Y62.70681
G01 X-44.86633 Y62.84526
G01 X-45.12041 Y63.13206
G01 X-45.29554 Y63.29967
G01 X-45.31187 Y63.39111
G01 X-45.31436 Y65.08036
G01 X-45.25317 Y65.31925
G01 X-45.11858 Y65.36131
G01 X-44.96374 Y65.38481
G01 X-33.48281 Y65.38524
G01 X-33.35208 Y65.36855
G01 X-33.23219 Y65.27335
G01 X-32.28574 Y64.32113
G01 X-32.18729 Y64.18397
G01 X-32.16857 Y64.14714
G01 X-32.28952 Y63.73096
G01 X-32.30753 Y63.59672
G01 X-32.30212 Y63.35037
G01 X-32.22909 Y62.98308
G01 X-32.26077 Y62.92718
G01 X-32.34687 Y62.81346
G01 X-34.99912 Y60.16287
G01 X-35.14964 Y59.94093
G01 X-35.20016 Y59.67753
G01 X-35.19800 Y54.37525
G01 X-35.21451 Y54.22600
G01 X-35.26478 Y54.06083
G01 X-35.39934 Y54.01876
G01 X-35.56241 Y53.99535
G01 X-35.74524 Y53.99829
G01 X-35.90734 Y54.02633
G01 X-35.97524 Y54.04876
G01 X-36.07227 Y54.28153
G01 X-36.10392 Y54.32006
G01 X-36.23544 Y54.38818
G01 X-36.28395 Y54.39067
G01 X-37.93360 Y54.38976
G01 X-38.06269 Y54.31876
G01 X-38.12332 Y54.22552
G01 X-38.13947 Y54.12199
G01 X-38.13211 Y52.49149
G01 X-38.07239 Y52.36944
G01 X-37.93358 Y52.29029
G01 X-36.23541 Y52.29189
G01 X-36.14354 Y52.32987
G01 X-36.06310 Y52.41310
G01 X-35.97666 Y52.63271
G01 X-35.69167 Y52.68600
G01 X-33.03900 Y52.68600
G01 X-32.88995 Y52.66952
G01 X-32.72437 Y52.61963
G01 X-32.67448 Y52.45405
G01 X-32.65800 Y52.30492
G01 X-32.65922 Y45.46018
G01 X-32.71218 Y45.20824
G01 X-32.72478 Y45.17083
G01 X-32.88988 Y45.12056
G01 X-33.03938 Y45.10405
G01 X-35.80160 Y45.10623
G01 X-35.97753 Y45.08256
G01 X-36.07204 Y45.04987
G01 X-36.27752 Y44.91360
G01 X-37.24270 Y43.94622
G01 X-37.36304 Y43.85376
G01 X-37.41161 Y43.84408
G01 X-38.65489 Y43.83527
G01 X-38.78214 Y43.85127
G01 X-39.06086 Y44.09732
G01 X-39.31064 Y44.42889
G01 X-39.70762 Y44.44782
G01 X-39.93805 Y44.42882
G01 X-40.10642 Y44.18919
G01 X-40.43881 Y43.85003
G01 X-40.55407 Y43.67718
G01 X-40.63302 Y43.48612
G01 X-40.65966 Y43.37299
G01 X-40.67327 Y43.07670
G01 X-40.64894 Y42.93494
G01 X-40.59690 Y42.77601
G01 X-40.55407 Y42.68290
G01 X-40.43942 Y42.51081
G01 X-40.29273 Y42.36372
G01 X-39.98587 Y42.16154
G01 X-39.70543 Y41.91003
G01 X-39.93406 Y41.69669
G01 X-40.29276 Y41.45633
G01 X-40.46116 Y41.28130
G01 X-40.55407 Y41.13718
G01 X-40.63302 Y40.94612
G01 X-40.67327 Y40.74338
G01 X-40.67729 Y40.61336
G01 X-40.64894 Y40.39494
G01 X-40.59690 Y40.23601
G01 X-40.55407 Y40.14290
G01 X-40.43942 Y39.97081
G01 X-40.29273 Y39.82372
G01 X-39.98587 Y39.62154
G01 X-39.70543 Y39.37003
G01 X-39.93406 Y39.15669
G01 X-40.29276 Y38.91633
G01 X-40.46116 Y38.74130
G01 X-40.55407 Y38.59718
G01 X-40.63302 Y38.40612
G01 X-40.67327 Y38.20338
G01 X-40.67729 Y38.07336
G01 X-40.64894 Y37.85494
G01 X-40.59690 Y37.69601
G01 X-40.55407 Y37.60290
G01 X-40.43942 Y37.43081
G01 X-40.29273 Y37.28372
G01 X-39.98587 Y37.08154
G01 X-39.70543 Y36.83003
G01 X-35.00567 Y36.83003
G01 X-34.54240 Y36.86962
G01 X-34.49716 Y36.89002
G01 X-32.89008 Y36.89002
G01 X-32.66511 Y37.12423
G01 X-32.36717 Y37.35903
G01 X-32.23039 Y37.52626
G01 X-32.10756 Y37.77364
G01 X-32.04901 Y38.05116
G01 X-32.06582 Y38.35547
G01 X-32.10756 Y38.50640
G01 X-32.18028 Y38.66855
G01 X-32.31126 Y38.85847
G01 X-32.55957 Y39.12065
G01 X-32.70936 Y39.34963
G01 X-32.55957 Y39.12065
G01 X-32.31126 Y38.85847
G01 X-32.18028 Y38.66855
G01 X-32.10756 Y38.50640
G01 X-32.06582 Y38.35547
G01 X-32.04901 Y38.05116
G01 X-32.10756 Y37.77364
G01 X-32.23039 Y37.52626
G01 X-32.36717 Y37.35903
G01 X-32.66511 Y37.12423
G01 X-32.89008 Y36.89002
G01 X-32.66511 Y36.65583
G01 X-32.36719 Y36.42106
G01 X-32.20621 Y36.21514
G01 X-32.12854 Y36.06269
G01 X-32.06582 Y35.85548
G01 X-32.04464 Y35.64001
G01 X-32.06582 Y35.42457
G01 X-32.12851 Y35.21738
G01 X-32.20621 Y35.06490
G01 X-32.31126 Y34.92160
G01 X-32.47921 Y34.76341
G01 X-32.66498 Y34.62404
G01 X-32.89076 Y34.39003
G01 X-34.45680 Y34.39003
G01 X-34.53567 Y34.35243
G01 X-34.89424 Y34.32719
G01 X-35.11238 Y34.29003
G01 X-39.70543 Y34.29003
G01 X-39.93406 Y34.07669
G01 X-40.29276 Y33.83633
G01 X-40.46116 Y33.66130
G01 X-40.55407 Y33.51718
G01 X-40.63302 Y33.32612
G01 X-40.67327 Y33.12338
G01 X-40.67729 Y32.99336
G01 X-40.64894 Y32.77494
G01 X-40.59690 Y32.61601
G01 X-40.55407 Y32.52290
G01 X-40.43942 Y32.35081
G01 X-40.29357 Y32.20441
G01 X-39.98438 Y32.00491
G01 X-39.69205 Y31.75003
G01 X-39.55501 Y31.75003
G01 X-39.31481 Y31.96770
G01 X-38.95298 Y32.20537
G01 X-38.79200 Y32.34698
G01 X-38.64925 Y32.36524
G01 X-34.70676 Y32.36384
G01 X-34.56099 Y32.38332
G01 X-34.31177 Y32.44454
G01 X-34.01403 Y32.22132
G01 X-33.82221 Y32.11817
G01 X-33.61484 Y32.05477
G01 X-33.42564 Y32.03674
G01 X-33.14898 Y32.03603
G01 X-32.93311 Y32.05480
G01 X-32.72381 Y32.11901
G01 X-32.52112 Y32.23029
G01 X-32.31126 Y32.42160
G01 X-32.20621 Y32.56491
G01 X-32.12851 Y32.71738
G01 X-32.06582 Y32.92460
G01 X-32.04464 Y33.14004
G01 X-32.05439 Y33.28187
G01 X-32.09160 Y33.45564
G01 X-32.18030 Y33.66854
G01 X-32.31126 Y33.85848
G01 X-32.47918 Y34.01667
G01 X-32.66498 Y34.15604
G01 X-32.89076 Y34.39003
G01 X-34.45680 Y34.39003
G01 X-34.53567 Y34.35243
G01 X-34.89424 Y34.32719
G01 X-35.11238 Y34.29003
G01 X-39.70543 Y34.29003
G01 X-39.98587 Y34.54154
G01 X-40.29273 Y34.74372
G01 X-40.43942 Y34.89081
G01 X-40.55407 Y35.06290
G01 X-40.64894 Y35.31494
G01 X-40.67729 Y35.53336
G01 X-40.65966 Y35.75299
G01 X-40.59690 Y35.96404
G01 X-40.49164 Y36.15756
G01 X-40.30983 Y36.36175
G01 X-39.93406 Y36.61669
G01 X-39.70543 Y36.83003
G01 X-39.98587 Y37.08154
G01 X-40.29273 Y37.28372
G01 X-40.46116 Y37.45878
G01 X-40.55407 Y37.60290
G01 X-40.63302 Y37.79396
G01 X-40.67327 Y37.99670
G01 X-40.67729 Y38.12667
G01 X-40.64894 Y38.34511
G01 X-40.59690 Y38.50404
G01 X-40.55407 Y38.59718
G01 X-40.43942 Y38.76926
G01 X-40.29276 Y38.91633
G01 X-39.93406 Y39.15669
G01 X-39.70543 Y39.37003
G01 X-34.89244 Y39.37003
G01 X-34.48591 Y39.23782
G01 X-33.61875 Y39.38133
G01 X-33.10697 Y39.38981
G01 X-32.70936 Y39.34963
G01 X-32.18645 Y39.68961
G01 X-32.07758 Y39.87035
G01 X-32.05406 Y39.94158
G01 X-32.04571 Y40.05887
G01 X-32.04347 Y41.22130
G01 X-32.08663 Y41.43154
G01 X-32.12940 Y41.52039
G01 X-32.19384 Y41.59514
G01 X-32.26864 Y41.65961
G01 X-32.35676 Y41.70401
G01 X-32.45048 Y41.73494
G01 X-32.56788 Y41.74327
G01 X-33.98017 Y41.74553
G01 X-34.09696 Y41.73258
G01 X-34.19208 Y41.70624
G01 X-34.34824 Y41.59763
G01 X-34.53237 Y41.33134
G01 X-34.74583 Y41.29507
G01 X-38.64940 Y41.29481
G01 X-38.79195 Y41.31307
G01 X-38.95380 Y41.45537
G01 X-39.26208 Y41.65851
G01 X-39.54249 Y41.91003
G01 X-39.70543 Y41.91003
G01 X-39.54249 Y41.91003
G01 X-39.31389 Y42.12333
G01 X-38.95380 Y42.36469
G01 X-38.79185 Y42.50670
G01 X-38.62885 Y42.52603
G01 X-37.09619 Y42.52384
G01 X-36.95652 Y42.53921
G01 X-36.83368 Y42.57581
G01 X-36.62042 Y42.71648
G01 X-35.65522 Y43.68386
G01 X-35.53490 Y43.77629
G01 X-35.48629 Y43.78597
G01 X-25.35352 Y43.79478
G01 X-25.21575 Y43.77748
G01 X-25.05565 Y43.63585
G01 X-24.65626 Y43.36885
G01 X-24.45291 Y43.18003
G01 X-24.31588 Y43.18003
G01 X-24.02357 Y43.43491
G01 X-23.83417 Y43.55104
G01 X-23.65936 Y43.68505
G01 X-23.54679 Y43.80875
G01 X-23.45388 Y43.95287
G01 X-23.37493 Y44.14396
G01 X-23.33468 Y44.34670
G01 X-23.34829 Y44.64299
G01 X-23.41105 Y44.85404
G01 X-23.51629 Y45.04756
G01 X-23.69812 Y45.25175
G01 X-23.87956 Y45.37738
G01 X-24.07732 Y45.46077
G01 X-24.28042 Y45.50146
G01 X-24.48751 Y45.50146
G01 X-24.69060 Y45.46077
G01 X-24.93386 Y45.34911
G01 X-25.05550 Y45.26432
G01 X-25.21580 Y45.12274
G01 X-25.37838 Y45.10402
G01 X-30.96900 Y45.10402
G01 X-31.14545 Y45.12727
G01 X-31.28452 Y45.16979
G01 X-31.32066 Y45.27885
G01 X-31.34639 Y45.44149
G01 X-31.36097 Y53.46791
G01 X-31.39829 Y53.59093
G01 X-31.54040 Y53.80358
G01 X-31.63976 Y53.88513
G01 X-31.87606 Y53.98303
G01 X-33.50824 Y53.99296
G01 X-33.68566 Y54.01648
G01 X-33.82401 Y54.05890
G01 X-33.86049 Y54.16898
G01 X-33.88614 Y54.33121
G01 X-33.88995 Y59.26094
G01 X-33.87026 Y59.41096
G01 X-33.77829 Y59.53082
G01 X-31.08498 Y62.22301
G01 X-30.98084 Y62.30356
G01 X-30.91066 Y62.31466
G01 X-29.93497 Y62.32103
G01 X-29.70444 Y62.34107
G01 X-29.48297 Y62.40882
G01 X-29.27906 Y62.51842
G01 X-29.09865 Y62.66716
G01 X-28.94678 Y62.82190
G01 X-28.76629 Y62.84600
G01 X-19.80164 Y62.84600
G01 X-19.62117 Y62.82190
G01 X-19.34726 Y62.56223
G01 X-19.08868 Y62.41039
G01 X-18.86349 Y62.34107
G01 X-18.63298 Y62.32103
G01 X-17.43499 Y62.32103
G01 X-17.20444 Y62.34107
G01 X-16.98297 Y62.40882
G01 X-16.78208 Y62.51674
G01 X-16.57665 Y62.69129
G01 X-16.44774 Y62.82378
G01 X-16.31414 Y62.84206
G01 X-15.79550 Y62.84600
G01 X-15.61114 Y62.82190
G01 X-15.45930 Y62.66716
G01 X-15.27886 Y62.51842
G01 X-15.07495 Y62.40882
G01 X-14.85349 Y62.34107
G01 X-14.62298 Y62.32103
G01 X-13.42499 Y62.32103
G01 X-13.19446 Y62.34107
G01 X-12.96927 Y62.41039
G01 X-12.71067 Y62.56223
G01 X-12.43678 Y62.82190
G01 X-12.25631 Y62.84600
G01 X-3.29166 Y62.84600
G01 X-3.11117 Y62.82190
G01 X-2.95930 Y62.66716
G01 X-2.77886 Y62.51842
G01 X-2.57495 Y62.40882
G01 X-2.35349 Y62.34107
G01 X-2.12298 Y62.32103
G01 X-0.86721 Y62.32334
G01 X-0.69337 Y62.34120
G01 X-0.27239 Y62.45550
G01 X0.00003 Y62.47686
G01 X0.00003 Y64.52586
G01 X0.00003 Y57.47550
G01 X-0.34587 Y57.44243
G01 X-0.62174 Y57.36100
G01 X-0.81846 Y57.27906
G01 X-0.85573 Y57.14055
G01 X-0.86995 Y57.00207
G01 X-0.86777 Y5.91282
G01 X-0.91829 Y5.64934
G01 X-1.06040 Y5.43667
G01 X-1.63614 Y4.87007
G01 X-1.80259 Y4.76712
G01 X-1.92537 Y4.73052
G01 X-2.06545 Y4.71515
G01 X-19.78985 Y4.72067
G01 X-19.99084 Y4.76567
G01 X-20.21279 Y4.91617
G01 X-23.29876 Y8.00390
G01 X-23.38611 Y8.07408
G01 X-23.54346 Y8.16226
G01 X-23.88514 Y7.95945
G01 X-24.07735 Y7.87928
G01 X-24.28042 Y7.83859
G01 X-24.48751 Y7.83859
G01 X-24.69058 Y7.87928
G01 X-24.88839 Y7.96270
G01 X-25.06983 Y8.08830
G01 X-25.25164 Y8.29249
G01 X-25.33584 Y8.43699
G01 X-25.39299 Y8.58393
G01 X-25.43327 Y8.78672
G01 X-25.43327 Y8.99333
G01 X-25.40892 Y9.13511
G01 X-25.35690 Y9.29404
G01 X-25.25164 Y9.48756
G01 X-25.10859 Y9.65500
G01 X-24.93419 Y9.78957
G01 X-24.74587 Y9.90851
G01 X-24.46543 Y10.16003
G01 X-24.67196 Y10.35482
G01 X-25.06983 Y10.62830
G01 X-25.19942 Y10.76081
G01 X-25.31407 Y10.93287
G01 X-25.39299 Y11.12393
G01 X-25.43327 Y11.32675
G01 X-25.43327 Y11.53335
G01 X-25.39299 Y11.73615
G01 X-25.33584 Y11.88306
G01 X-25.25164 Y12.02756
G01 X-25.06983 Y12.23175
G01 X-24.74587 Y12.44851
G01 X-24.46543 Y12.70003
G01 X-24.30249 Y12.70003
G01 X-24.07389 Y12.91333
G01 X-23.71519 Y13.15372
G01 X-23.56851 Y13.30081
G01 X-23.45388 Y13.47287
G01 X-23.41105 Y13.56601
G01 X-23.35901 Y13.72494
G01 X-23.33066 Y13.94336
G01 X-23.33468 Y14.07338
G01 X-23.37493 Y14.27612
G01 X-23.45388 Y14.46720
G01 X-23.56851 Y14.63926
G01 X-23.71517 Y14.78633
G01 X-24.02208 Y14.98851
G01 X-24.30249 Y15.24003
G01 X-24.46543 Y15.24003
G01 X-24.67193 Y15.43479
G01 X-25.10856 Y15.74508
G01 X-25.22116 Y15.86878
G01 X-25.33584 Y16.05699
G01 X-25.40892 Y16.26494
G01 X-25.43729 Y16.48336
G01 X-25.43327 Y16.61338
G01 X-25.39299 Y16.81617
G01 X-25.31405 Y17.00720
G01 X-25.19939 Y17.17932
G01 X-25.05276 Y17.32633
G01 X-24.74587 Y17.52851
G01 X-24.46543 Y17.78003
G01 X-24.30249 Y17.78003
G01 X-24.07389 Y17.99339
G01 X-23.65936 Y18.28508
G01 X-23.54679 Y18.40878
G01 X-23.43211 Y18.59702
G01 X-23.35901 Y18.80494
G01 X-23.33066 Y19.02336
G01 X-23.33468 Y19.15338
G01 X-23.37493 Y19.35612
G01 X-23.45388 Y19.54720
G01 X-23.56853 Y19.71926
G01 X-23.71519 Y19.86638
G01 X-24.02208 Y20.06851
G01 X-24.30249 Y20.32003
G01 X-24.46543 Y20.32003
G01 X-24.67196 Y20.51482
G01 X-25.10856 Y20.82508
G01 X-25.22116 Y20.94878
G01 X-25.33584 Y21.13699
G01 X-25.40892 Y21.34494
G01 X-25.43729 Y21.56336
G01 X-25.43327 Y21.69333
G01 X-25.39299 Y21.89615
G01 X-25.31405 Y22.08720
G01 X-25.19942 Y22.25926
G01 X-25.05273 Y22.40636
G01 X-24.67204 Y22.66518
G01 X-24.46934 Y22.86003
G01 X-24.30249 Y22.86003
G01 X-24.07389 Y23.07333
G01 X-23.69812 Y23.32830
G01 X-23.56851 Y23.46081
G01 X-23.45388 Y23.63287
G01 X-23.37493 Y23.82396
G01 X-23.33468 Y24.02670
G01 X-23.33468 Y24.23338
G01 X-23.37493 Y24.43612
G01 X-23.45388 Y24.62720
G01 X-23.56851 Y24.79926
G01 X-23.71517 Y24.94633
G01 X-24.02208 Y25.14851
G01 X-24.30249 Y25.40003
G01 X-24.46543 Y25.40003
G01 X-24.69413 Y25.61306
G01 X-25.06983 Y25.86830
G01 X-25.19942 Y26.00081
G01 X-25.31407 Y26.17287
G01 X-25.39299 Y26.36393
G01 X-25.43327 Y26.56672
G01 X-25.43327 Y26.77335
G01 X-25.39299 Y26.97615
G01 X-25.31405 Y27.16720
G01 X-25.19942 Y27.33926
G01 X-25.05273 Y27.48636
G01 X-24.74587 Y27.68851
G01 X-24.46543 Y27.94003
G01 X-24.30249 Y27.94003
G01 X-24.07389 Y28.15333
G01 X-23.69812 Y28.40830
G01 X-23.56851 Y28.54081
G01 X-23.45388 Y28.71287
G01 X-23.37493 Y28.90396
G01 X-23.33468 Y29.10670
G01 X-23.33468 Y29.31338
G01 X-23.37493 Y29.51612
G01 X-23.45388 Y29.70720
G01 X-23.56851 Y29.87926
G01 X-23.71517 Y30.02633
G01 X-24.02208 Y30.22851
G01 X-24.30249 Y30.48003
G01 X-24.46543 Y30.48003
G01 X-24.67196 Y30.67482
G01 X-25.06983 Y30.94830
G01 X-25.19942 Y31.08081
G01 X-25.31407 Y31.25287
G01 X-25.39299 Y31.44393
G01 X-25.43327 Y31.64672
G01 X-25.43327 Y31.85335
G01 X-25.39299 Y32.05615
G01 X-25.31405 Y32.24720
G01 X-25.19942 Y32.41926
G01 X-25.05273 Y32.56636
G01 X-24.74587 Y32.76851
G01 X-24.46543 Y33.02003
G01 X-24.30249 Y33.02003
G01 X-24.07389 Y33.23333
G01 X-23.69812 Y33.48830
G01 X-23.56851 Y33.62081
G01 X-23.45388 Y33.79287
G01 X-23.37493 Y33.98396
G01 X-23.33468 Y34.18670
G01 X-23.33468 Y34.39338
G01 X-23.37493 Y34.59612
G01 X-23.45388 Y34.78720
G01 X-23.56851 Y34.95926
G01 X-23.71517 Y35.10633
G01 X-24.02208 Y35.30851
G01 X-24.30249 Y35.56003
G01 X-24.46543 Y35.56003
G01 X-24.67196 Y35.75482
G01 X-25.06983 Y36.02830
G01 X-25.19942 Y36.16081
G01 X-25.31407 Y36.33287
G01 X-25.39299 Y36.52393
G01 X-25.41966 Y36.63706
G01 X-25.43729 Y36.85667
G01 X-25.40892 Y37.07511
G01 X-25.31405 Y37.32720
G01 X-25.19942 Y37.49926
G01 X-25.05273 Y37.64636
G01 X-24.74587 Y37.84851
G01 X-24.46543 Y38.10003
G01 X-24.30249 Y38.10003
G01 X-24.07389 Y38.31333
G01 X-23.69812 Y38.56830
G01 X-23.51631 Y38.77249
G01 X-23.43211 Y38.91699
G01 X-23.37493 Y39.06396
G01 X-23.33468 Y39.26670
G01 X-23.33468 Y39.47338
G01 X-23.37493 Y39.67612
G01 X-23.45388 Y39.86720
G01 X-23.56851 Y40.03926
G01 X-23.69812 Y40.17175
G01 X-24.02357 Y40.38516
G01 X-24.31588 Y40.64003
G01 X-24.45291 Y40.64003
G01 X-24.65626 Y40.45123
G01 X-25.05354 Y40.18564
G01 X-25.22116 Y40.01130
G01 X-25.33584 Y39.82306
G01 X-25.40892 Y39.61511
G01 X-25.43729 Y39.39667
G01 X-25.40892 Y39.12494
G01 X-25.31407 Y38.87287
G01 X-25.19942 Y38.70081
G01 X-25.06983 Y38.56830
G01 X-24.67196 Y38.29482
G01 X-24.46543 Y38.10003
G01 X-24.30249 Y38.10003
G01 X-24.02208 Y37.84851
G01 X-23.71517 Y37.64633
G01 X-23.56851 Y37.49926
G01 X-23.45388 Y37.32720
G01 X-23.35901 Y37.07511
G01 X-23.33066 Y36.85667
G01 X-23.34829 Y36.63706
G01 X-23.37493 Y36.52396
G01 X-23.45388 Y36.33287
G01 X-23.56851 Y36.16081
G01 X-23.69812 Y36.02830
G01 X-24.07389 Y35.77333
G01 X-24.30249 Y35.56003
G01 X-24.46543 Y35.56003
G01 X-24.74587 Y35.30851
G01 X-25.05273 Y35.10636
G01 X-25.19942 Y34.95926
G01 X-25.31405 Y34.78720
G01 X-25.39299 Y34.59615
G01 X-25.43327 Y34.39333
G01 X-25.43327 Y34.18672
G01 X-25.39299 Y33.98393
G01 X-25.31407 Y33.79287
G01 X-25.19942 Y33.62081
G01 X-25.06983 Y33.48830
G01 X-24.67196 Y33.21482
G01 X-24.46543 Y33.02003
G01 X-24.30249 Y33.02003
G01 X-24.02208 Y32.76851
G01 X-23.71517 Y32.56633
G01 X-23.56851 Y32.41926
G01 X-23.45388 Y32.24720
G01 X-23.37493 Y32.05612
G01 X-23.33468 Y31.85338
G01 X-23.33468 Y31.64670
G01 X-23.37493 Y31.44396
G01 X-23.45388 Y31.25287
G01 X-23.56851 Y31.08081
G01 X-23.69812 Y30.94830
G01 X-24.07389 Y30.69333
G01 X-24.30249 Y30.48003
G01 X-24.46543 Y30.48003
G01 X-24.74587 Y30.22851
G01 X-25.05273 Y30.02636
G01 X-25.19942 Y29.87926
G01 X-25.31405 Y29.70720
G01 X-25.39299 Y29.51615
G01 X-25.43327 Y29.31335
G01 X-25.43327 Y29.10672
G01 X-25.39299 Y28.90393
G01 X-25.33584 Y28.75699
G01 X-25.22116 Y28.56878
G01 X-25.10856 Y28.44508
G01 X-24.67196 Y28.13482
G01 X-24.46543 Y27.94003
G01 X-24.30249 Y27.94003
G01 X-24.02208 Y27.68851
G01 X-23.69812 Y27.47175
G01 X-23.56851 Y27.33926
G01 X-23.45388 Y27.16720
G01 X-23.37493 Y26.97612
G01 X-23.34829 Y26.86299
G01 X-23.33468 Y26.56670
G01 X-23.35901 Y26.42494
G01 X-23.41105 Y26.26601
G01 X-23.54679 Y26.02875
G01 X-23.71519 Y25.85372
G01 X-24.07389 Y25.61333
G01 X-24.30249 Y25.40003
G01 X-24.46543 Y25.40003
G01 X-24.69413 Y25.18700
G01 X-25.05227 Y24.94694
G01 X-25.21626 Y24.80328
G01 X-25.37864 Y24.78387
G01 X-29.45140 Y24.78380
G01 X-29.59176 Y24.77265
G01 X-29.71427 Y24.73437
G01 X-29.82694 Y24.67328
G01 X-29.93680 Y24.58519
G01 X-31.86064 Y22.67430
G01 X-31.88853 Y22.65566
G01 X-32.10499 Y22.64179
G01 X-32.35500 Y22.58408
G01 X-32.55386 Y22.48911
G01 X-32.69056 Y22.39277
G01 X-32.83527 Y22.26153
G01 X-32.94931 Y22.24888
G01 X-35.94583 Y22.24623
G01 X-36.20892 Y22.19424
G01 X-36.32164 Y22.13328
G01 X-36.43152 Y22.04517
G01 X-41.14686 Y17.33893
G01 X-41.32341 Y17.23997
G01 X-41.65935 Y17.43786
G01 X-41.85735 Y17.52077
G01 X-42.06039 Y17.56148
G01 X-42.24759 Y17.56184
G01 X-42.51500 Y17.50408
G01 X-42.66839 Y17.43738
G01 X-42.84983 Y17.31175
G01 X-43.03164 Y17.10756
G01 X-43.11584 Y16.96306
G01 X-43.17301 Y16.81615
G01 X-43.21729 Y16.53667
G01 X-43.21327 Y16.40670
G01 X-43.17301 Y16.20398
G01 X-43.11584 Y16.05699
G01 X-43.03164 Y15.91252
G01 X-42.83342 Y15.69430
G01 X-42.66837 Y15.58270
G01 X-42.51500 Y15.51597
G01 X-42.26750 Y15.45859
G01 X-42.06042 Y15.45859
G01 X-41.85735 Y15.49931
G01 X-41.61409 Y15.61094
G01 X-41.47739 Y15.70728
G01 X-41.33047 Y15.84013
G01 X-40.90647 Y15.86814
G01 X-40.67442 Y15.96497
G01 X-35.68167 Y20.92091
G01 X-32.92307 Y20.93044
G01 X-32.83582 Y20.91733
G01 X-32.67553 Y20.77578
G01 X-32.55386 Y20.69097
G01 X-32.31058 Y20.57928
G01 X-32.08762 Y20.53821
G01 X-31.90042 Y20.53859
G01 X-31.69735 Y20.57928
G01 X-31.50631 Y20.65896
G01 X-31.33448 Y20.77433
G01 X-31.13631 Y20.99249
G01 X-31.05211 Y21.13699
G01 X-30.99493 Y21.28393
G01 X-30.95429 Y21.48924
G01 X-30.94325 Y21.69813
G01 X-30.85473 Y21.81266
G01 X-29.27439 Y23.39030
G01 X-29.18671 Y23.46066
G01 X-29.03484 Y23.47603
G01 X-25.33868 Y23.47293
G01 X-25.21549 Y23.45807
G01 X-25.06200 Y23.32022
G01 X-24.67196 Y23.05482
G01 X-24.46934 Y22.86003
G01 X-24.30249 Y22.86003
G01 X-24.02208 Y22.60851
G01 X-23.69812 Y22.39175
G01 X-23.56851 Y22.25926
G01 X-23.45388 Y22.08720
G01 X-23.37493 Y21.89612
G01 X-23.33468 Y21.69338
G01 X-23.33468 Y21.48670
G01 X-23.37493 Y21.28396
G01 X-23.45388 Y21.09287
G01 X-23.56851 Y20.92081
G01 X-23.71519 Y20.77372
G01 X-24.07389 Y20.53333
G01 X-24.30249 Y20.32003
G01 X-24.46543 Y20.32003
G01 X-24.74587 Y20.06851
G01 X-25.06983 Y19.85175
G01 X-25.19942 Y19.71926
G01 X-25.31405 Y19.54720
G01 X-25.39299 Y19.35615
G01 X-25.43327 Y19.15335
G01 X-25.43327 Y18.94675
G01 X-25.39299 Y18.74393
G01 X-25.31407 Y18.55290
G01 X-25.19942 Y18.38084
G01 X-25.05276 Y18.23375
G01 X-24.67204 Y17.97489
G01 X-24.46543 Y17.78003
G01 X-24.30249 Y17.78003
G01 X-24.02208 Y17.52851
G01 X-23.69812 Y17.31180
G01 X-23.56856 Y17.17932
G01 X-23.45388 Y17.00720
G01 X-23.37493 Y16.81615
G01 X-23.33468 Y16.61343
G01 X-23.33468 Y16.40670
G01 X-23.37491 Y16.20398
G01 X-23.45388 Y16.01290
G01 X-23.56851 Y15.84084
G01 X-23.71519 Y15.69372
G01 X-24.07389 Y15.45333
G01 X-24.30249 Y15.24003
G01 X-24.46543 Y15.24003
G01 X-24.74587 Y14.98851
G01 X-25.06983 Y14.77175
G01 X-25.19942 Y14.63926
G01 X-25.31405 Y14.46720
G01 X-25.39299 Y14.27615
G01 X-25.41966 Y14.16299
G01 X-25.43729 Y13.94336
G01 X-25.40892 Y13.72494
G01 X-25.31407 Y13.47287
G01 X-25.19942 Y13.30081
G01 X-25.05273 Y13.15372
G01 X-24.69406 Y12.91336
G01 X-24.46543 Y12.70003
G01 X-24.30249 Y12.70003
G01 X-24.02208 Y12.44851
G01 X-23.69812 Y12.23175
G01 X-23.56851 Y12.09926
G01 X-23.45388 Y11.92720
G01 X-23.35901 Y11.67511
G01 X-23.33066 Y11.45667
G01 X-23.35901 Y11.18494
G01 X-23.43211 Y10.97699
G01 X-23.54679 Y10.78875
G01 X-23.71705 Y10.61215
G01 X-24.07382 Y10.37306
G01 X-24.30249 Y10.16003
G01 X-24.46543 Y10.16003
G01 X-24.30249 Y10.16003
G01 X-24.07389 Y9.94669
G01 X-23.70757 Y9.70092
G01 X-23.55047 Y9.55992
G01 X-23.12647 Y9.53193
G01 X-22.93864 Y9.45876
G01 X-22.85599 Y9.40361
G01 X-19.52348 Y6.08747
G01 X-19.46234 Y6.04220
G01 X-19.33608 Y6.02658
G01 X-2.55902 Y6.02534
G01 X-2.33799 Y6.05973
G01 X-2.21237 Y6.18536
G01 X-2.17797 Y6.40631
G01 X-2.17797 Y7.87971
G01 X-2.19288 Y8.02135
G01 X-2.25443 Y8.21251
G01 X-2.29870 Y8.30052
G01 X-2.80563 Y8.23384
G01 X-8.14936 Y8.23600
G01 X-8.31187 Y8.21667
G01 X-8.59409 Y7.99094
G01 X-8.83735 Y7.87928
G01 X-9.04042 Y7.83859
G01 X-9.24750 Y7.83859
G01 X-9.49500 Y7.89597
G01 X-9.64839 Y7.96270
G01 X-9.81344 Y8.07430
G01 X-9.98116 Y8.24878
G01 X-10.11690 Y8.48601
G01 X-10.16894 Y8.64494
G01 X-10.19327 Y8.78670
G01 X-10.19327 Y8.99338
G01 X-10.16894 Y9.13511
G01 X-10.11690 Y9.29404
G01 X-9.98116 Y9.53130
G01 X-9.81273 Y9.70636
G01 X-9.45406 Y9.94669
G01 X-9.22543 Y10.16003
G01 X-9.06249 Y10.16003
G01 X-8.83389 Y10.37333
G01 X-8.41936 Y10.66505
G01 X-8.30679 Y10.78875
G01 X-8.19211 Y10.97699
G01 X-8.13493 Y11.12393
G01 X-8.09468 Y11.32670
G01 X-8.09468 Y11.53338
G01 X-8.13493 Y11.73615
G01 X-8.21385 Y11.92718
G01 X-8.30677 Y12.07130
G01 X-8.47519 Y12.24636
G01 X-8.85589 Y12.50518
G01 X-9.06249 Y12.70003
G01 X-8.78208 Y12.95154
G01 X-8.47519 Y13.15372
G01 X-8.32851 Y13.30081
G01 X-8.21385 Y13.47290
G01 X-8.17105 Y13.56601
G01 X-8.11901 Y13.72494
G01 X-8.09468 Y13.86670
G01 X-8.09468 Y14.07338
G01 X-8.13493 Y14.27615
G01 X-8.21385 Y14.46718
G01 X-8.30677 Y14.61130
G01 X-8.47519 Y14.78636
G01 X-8.85589 Y15.04518
G01 X-9.06249 Y15.24003
G01 X-8.78208 Y15.49156
G01 X-8.47517 Y15.69375
G01 X-8.32851 Y15.84084
G01 X-8.21385 Y16.01290
G01 X-8.17105 Y16.10601
G01 X-8.11901 Y16.26494
G01 X-8.09468 Y16.40670
G01 X-8.09468 Y16.61343
G01 X-8.13493 Y16.81615
G01 X-8.21388 Y17.00720
G01 X-8.30677 Y17.15130
G01 X-8.47517 Y17.32633
G01 X-8.78208 Y17.52851
G01 X-9.06249 Y17.78003
G01 X-8.83389 Y17.99339
G01 X-8.47519 Y18.23372
G01 X-8.32851 Y18.38084
G01 X-8.21385 Y18.55290
G01 X-8.17105 Y18.64601
G01 X-8.11901 Y18.80494
G01 X-8.09468 Y18.94670
G01 X-8.09468 Y19.15338
G01 X-8.13493 Y19.35615
G01 X-8.21385 Y19.54718
G01 X-8.30677 Y19.69130
G01 X-8.47519 Y19.86638
G01 X-8.85589 Y20.12518
G01 X-9.06249 Y20.32003
G01 X-8.78208 Y20.57154
G01 X-8.47519 Y20.77372
G01 X-8.32851 Y20.92081
G01 X-8.21385 Y21.09290
G01 X-8.17105 Y21.18601
G01 X-8.11901 Y21.34494
G01 X-8.09468 Y21.48670
G01 X-8.09468 Y21.69338
G01 X-8.13493 Y21.89615
G01 X-8.21385 Y22.08718
G01 X-8.30677 Y22.23130
G01 X-8.47519 Y22.40636
G01 X-8.83389 Y22.64669
G01 X-9.06249 Y22.86003
G01 X-8.78208 Y23.11154
G01 X-8.47519 Y23.31372
G01 X-8.32851 Y23.46081
G01 X-8.21385 Y23.63290
G01 X-8.11901 Y23.88494
G01 X-8.09066 Y24.10336
G01 X-8.10829 Y24.32299
G01 X-8.17105 Y24.53404
G01 X-8.27629 Y24.72756
G01 X-8.47519 Y24.94636
G01 X-8.83389 Y25.18669
G01 X-9.06249 Y25.40003
G01 X-8.78208 Y25.65154
G01 X-8.45812 Y25.86830
G01 X-8.27631 Y26.07249
G01 X-8.17105 Y26.26601
G01 X-8.10829 Y26.47706
G01 X-8.09066 Y26.69667
G01 X-8.11901 Y26.91511
G01 X-8.21385 Y27.16718
G01 X-8.32851 Y27.33926
G01 X-8.45812 Y27.47175
G01 X-8.83389 Y27.72669
G01 X-9.06249 Y27.94003
G01 X-9.22934 Y27.94003
G01 X-9.45469 Y28.15044
G01 X-9.81481 Y28.39527
G01 X-9.97598 Y28.53698
G01 X-10.11865 Y28.55524
G01 X-14.21148 Y28.55384
G01 X-14.35143 Y28.56921
G01 X-14.47424 Y28.60581
G01 X-14.69687 Y28.75493
G01 X-17.30906 Y31.38581
G01 X-17.40695 Y31.62216
G01 X-17.42016 Y31.76257
G01 X-17.41800 Y41.48120
G01 X-17.43476 Y41.63217
G01 X-17.51302 Y41.73243
G01 X-22.03333 Y46.25010
G01 X-22.12124 Y46.32068
G01 X-22.27288 Y46.33600
G01 X-28.18148 Y46.33384
G01 X-28.35753 Y46.35751
G01 X-28.44422 Y46.38581
G01 X-28.55524 Y46.44934
G01 X-28.66664 Y46.53476
G01 X-29.96984 Y47.84446
G01 X-30.04099 Y47.95162
G01 X-30.08506 Y48.05690
G01 X-30.11919 Y48.26635
G01 X-30.07172 Y48.50496
G01 X-29.96491 Y48.67943
G01 X-29.88932 Y48.75611
G01 X-29.77192 Y48.83620
G01 X-29.65379 Y48.88573
G01 X-29.52821 Y48.91245
G01 X-29.40627 Y48.91080
G01 X-29.21488 Y48.86142
G01 X-29.04493 Y48.76053
G01 X-28.03507 Y47.75523
G01 X-27.90749 Y47.65952
G01 X-27.78501 Y47.64484
G01 X-21.85650 Y47.64623
G01 X-21.59368 Y47.59424
G01 X-21.48101 Y47.53331
G01 X-21.37105 Y47.44512
G01 X-16.30888 Y42.38295
G01 X-16.15829 Y42.16090
G01 X-16.10777 Y41.89750
G01 X-16.10995 Y32.17885
G01 X-16.09316 Y32.02788
G01 X-16.01518 Y31.92788
G01 X-14.06482 Y29.97578
G01 X-13.94671 Y29.87939
G01 X-13.83482 Y29.86715
G01 X-10.01713 Y29.87490
G01 X-9.97598 Y29.88310
G01 X-9.81413 Y30.02539
G01 X-9.43204 Y30.28518
G01 X-9.22934 Y30.48003
G01 X-9.43196 Y30.67482
G01 X-9.81273 Y30.93372
G01 X-9.98116 Y31.10878
G01 X-10.07407 Y31.25290
G01 X-10.15302 Y31.44396
G01 X-10.19365 Y31.64921
G01 X-10.20468 Y31.85813
G01 X-10.29299 Y31.97243
G01 X-13.40909 Y35.08715
G01 X-13.55964 Y35.30912
G01 X-13.59319 Y35.43292
G01 X-13.61016 Y35.57257
G01 X-13.60800 Y45.29120
G01 X-13.62771 Y45.44096
G01 X-13.71958 Y45.56072
G01 X-16.92328 Y48.76442
G01 X-17.04127 Y48.86071
G01 X-17.15325 Y48.87295
G01 X-26.98811 Y48.87760
G01 X-27.11425 Y48.90277
G01 X-27.23223 Y48.95329
G01 X-27.33853 Y49.02487
G01 X-27.43007 Y49.11471
G01 X-27.50096 Y49.22162
G01 X-27.55994 Y49.37808
G01 X-27.57350 Y49.45967
G01 X-27.56619 Y49.65779
G01 X-27.49738 Y49.84374
G01 X-27.42905 Y49.94455
G01 X-27.34932 Y50.02611
G01 X-27.17457 Y50.13500
G01 X-26.92400 Y50.18405
G01 X-16.77652 Y50.18623
G01 X-16.60042 Y50.16256
G01 X-16.51368 Y50.13424
G01 X-16.40268 Y50.07074
G01 X-16.29108 Y49.98514
G01 X-12.49888 Y46.19295
G01 X-12.41207 Y46.08210
G01 X-12.34829 Y45.97090
G01 X-12.29777 Y45.70753
G01 X-12.29995 Y35.98885
G01 X-12.28316 Y35.83790
G01 X-12.20526 Y35.73795
G01 X-10.77521 Y34.30966
G01 X-10.54938 Y34.17131
G01 X-10.34501 Y34.10775
G01 X-10.23920 Y34.32106
G01 X-10.09584 Y34.74306
G01 X-9.95942 Y34.95926
G01 X-9.81354 Y35.10564
G01 X-9.50438 Y35.30514
G01 X-9.21205 Y35.56003
G01 X-9.07501 Y35.56003
G01 X-8.87166 Y35.37120
G01 X-8.46963 Y35.10234
G01 X-8.31261 Y34.96160
G01 X-8.26889 Y34.95459
G01 X-8.14918 Y34.94405
G01 X-5.34637 Y34.94623
G01 X-5.13103 Y34.91027
G01 X-4.97190 Y34.83193
G01 X-4.87040 Y34.75360
G01 X-4.72829 Y34.54093
G01 X-4.68607 Y34.36816
G01 X-4.67995 Y12.70010
G01 X-4.72900 Y12.44945
G01 X-4.83789 Y12.27468
G01 X-4.91952 Y12.19502
G01 X-5.03906 Y12.11819
G01 X-5.20654 Y12.05941
G01 X-5.31858 Y12.05055
G01 X-5.52425 Y12.07277
G01 X-5.74952 Y12.19368
G01 X-5.91099 Y12.39164
G01 X-5.95828 Y12.51067
G01 X-5.98800 Y12.70000
G01 X-5.98922 Y33.27984
G01 X-6.00522 Y33.40763
G01 X-6.05335 Y33.57065
G01 X-6.17078 Y33.60664
G01 X-6.36920 Y33.63600
G01 X-8.27080 Y33.62515
G01 X-8.31200 Y33.61698
G01 X-8.47380 Y33.47469
G01 X-8.78208 Y33.27154
G01 X-9.06249 Y33.02003
G01 X-9.17740 Y33.02003
G01 X-9.53488 Y33.20636
G01 X-9.85586 Y33.45246
G01 X-10.01649 Y33.61698
G01 X-10.16076 Y33.79950
G01 X-10.34501 Y34.10775
G01 X-10.20133 Y33.85858
G01 X-10.05807 Y33.66567
G01 X-9.90133 Y33.49559
G01 X-9.72833 Y33.34352
G01 X-9.53488 Y33.20636
G01 X-9.31517 Y33.08248
G01 X-9.17740 Y33.02003
G01 X-9.06249 Y33.02003
G01 X-8.83389 Y32.80669
G01 X-8.41936 Y32.51500
G01 X-8.30677 Y32.39130
G01 X-8.19211 Y32.20306
G01 X-8.11901 Y31.99511
G01 X-8.09066 Y31.77667
G01 X-8.09468 Y31.64670
G01 X-8.13493 Y31.44393
G01 X-8.21385 Y31.25290
G01 X-8.32851 Y31.08081
G01 X-8.47519 Y30.93372
G01 X-8.78208 Y30.73154
G01 X-9.06249 Y30.48003
G01 X-9.22934 Y30.48003
G01 X-9.06249 Y30.48003
G01 X-8.83389 Y30.26669
G01 X-8.47519 Y30.02636
G01 X-8.27629 Y29.80756
G01 X-8.19211 Y29.66306
G01 X-8.13493 Y29.51615
G01 X-8.09468 Y29.31338
G01 X-8.09468 Y29.10670
G01 X-8.11901 Y28.96494
G01 X-8.17105 Y28.80601
G01 X-8.30679 Y28.56875
G01 X-8.47519 Y28.39372
G01 X-8.78208 Y28.19154
G01 X-9.06249 Y27.94003
G01 X-9.22934 Y27.94003
G01 X-9.43204 Y27.74518
G01 X-9.86859 Y27.43500
G01 X-9.98116 Y27.31130
G01 X-10.09584 Y27.12306
G01 X-10.15302 Y26.97612
G01 X-10.19327 Y26.77338
G01 X-10.19327 Y26.56670
G01 X-10.15302 Y26.36396
G01 X-10.07407 Y26.17290
G01 X-9.95942 Y26.00081
G01 X-9.81273 Y25.85372
G01 X-9.50587 Y25.65154
G01 X-9.22543 Y25.40003
G01 X-9.06249 Y25.40003
G01 X-9.22543 Y25.40003
G01 X-9.45406 Y25.18669
G01 X-9.86859 Y24.89500
G01 X-9.98116 Y24.77130
G01 X-10.09584 Y24.58306
G01 X-10.15302 Y24.43612
G01 X-10.19327 Y24.23338
G01 X-10.19327 Y24.02670
G01 X-10.15302 Y23.82396
G01 X-10.07407 Y23.63290
G01 X-9.95942 Y23.46081
G01 X-9.81273 Y23.31372
G01 X-9.50587 Y23.11154
G01 X-9.22543 Y22.86003
G01 X-9.06249 Y22.86003
G01 X-9.22543 Y22.86003
G01 X-9.45406 Y22.64669
G01 X-9.86859 Y22.35500
G01 X-9.98116 Y22.23130
G01 X-10.09584 Y22.04306
G01 X-10.15302 Y21.89612
G01 X-10.19327 Y21.69338
G01 X-10.19327 Y21.48670
G01 X-10.15302 Y21.28396
G01 X-10.07407 Y21.09290
G01 X-9.95942 Y20.92081
G01 X-9.81273 Y20.77372
G01 X-9.50587 Y20.57154
G01 X-9.22543 Y20.32003
G01 X-9.06249 Y20.32003
G01 X-9.22543 Y20.32003
G01 X-9.43204 Y20.12518
G01 X-9.86859 Y19.81500
G01 X-9.98116 Y19.69130
G01 X-10.09584 Y19.50309
G01 X-10.15302 Y19.35612
G01 X-10.19327 Y19.15338
G01 X-10.19327 Y18.94670
G01 X-10.15302 Y18.74396
G01 X-10.07410 Y18.55290
G01 X-9.95942 Y18.38084
G01 X-9.81273 Y18.23372
G01 X-9.50587 Y18.03156
G01 X-9.22543 Y17.78003
G01 X-9.06249 Y17.78003
G01 X-9.22543 Y17.78003
G01 X-9.45406 Y17.56672
G01 X-9.86859 Y17.27502
G01 X-9.98118 Y17.15130
G01 X-10.07405 Y17.00720
G01 X-10.15302 Y16.81615
G01 X-10.17966 Y16.70301
G01 X-10.19729 Y16.48336
G01 X-10.16894 Y16.26494
G01 X-10.09584 Y16.05699
G01 X-9.98116 Y15.86878
G01 X-9.81276 Y15.69375
G01 X-9.50587 Y15.49156
G01 X-9.22543 Y15.24003
G01 X-9.06249 Y15.24003
G01 X-9.22543 Y15.24003
G01 X-9.45406 Y15.02669
G01 X-9.82983 Y14.77175
G01 X-10.01164 Y14.56756
G01 X-10.09584 Y14.42306
G01 X-10.15302 Y14.27612
G01 X-10.19327 Y14.07338
G01 X-10.17966 Y13.77706
G01 X-10.11690 Y13.56601
G01 X-10.01164 Y13.37249
G01 X-9.82983 Y13.16830
G01 X-9.50587 Y12.95154
G01 X-9.22543 Y12.70003
G01 X-9.06249 Y12.70003
G01 X-9.22543 Y12.70003
G01 X-9.45406 Y12.48669
G01 X-9.81273 Y12.24636
G01 X-9.98116 Y12.07130
G01 X-10.09584 Y11.88306
G01 X-10.16894 Y11.67511
G01 X-10.19729 Y11.45667
G01 X-10.16894 Y11.18494
G01 X-10.07407 Y10.93290
G01 X-9.95942 Y10.76081
G01 X-9.82983 Y10.62830
G01 X-9.50587 Y10.41154
G01 X-9.22543 Y10.16003
G01 X-9.06249 Y10.16003
G01 X-8.83389 Y9.94669
G01 X-8.47311 Y9.70478
G01 X-8.31182 Y9.56335
G01 X-8.14944 Y9.54402
G01 X-3.80406 Y9.54527
G01 X-3.67635 Y9.56127
G01 X-3.51335 Y9.60938
G01 X-3.47736 Y9.72683
G01 X-3.44800 Y9.92505
G01 X-3.44800 Y52.30500
G01 X-3.46448 Y52.45405
G01 X-3.51439 Y52.61976
G01 X-3.67993 Y52.66962
G01 X-3.82908 Y52.68615
G01 X-15.48130 Y52.68628
G01 X-15.62176 Y52.69743
G01 X-15.82560 Y52.77714
G01 X-15.96687 Y52.88496
G01 X-18.57908 Y55.51584
G01 X-18.66242 Y55.70421
G01 X-18.68769 Y55.85498
G01 X-18.69214 Y57.04827
G01 X-18.74205 Y57.27672
G01 X-19.08866 Y57.41038
G01 X-19.28579 Y57.51673
G01 X-19.49127 Y57.69127
G01 X-19.62023 Y57.82379
G01 X-19.75747 Y57.84210
G01 X-28.76608 Y57.84601
G01 X-28.94675 Y57.82188
G01 X-29.09865 Y57.66714
G01 X-29.27909 Y57.51843
G01 X-29.48297 Y57.40880
G01 X-29.70441 Y57.34108
G01 X-29.93497 Y57.32104
G01 X-31.19077 Y57.32335
G01 X-31.36351 Y57.34108
G01 X-31.58866 Y57.41038
G01 X-31.80494 Y57.52955
G01 X-31.99163 Y57.69087
G01 X-32.11391 Y57.84459
G01 X-32.22269 Y58.04868
G01 X-32.28967 Y58.26996
G01 X-32.31228 Y58.50004
G01 X-32.28967 Y58.73011
G01 X-32.22269 Y58.95142
G01 X-32.11391 Y59.15548
G01 X-31.96745 Y59.33450
G01 X-31.78884 Y59.48164
G01 X-31.58495 Y59.59127
G01 X-31.36351 Y59.65899
G01 X-31.13298 Y59.67900
G01 X-29.93497 Y59.67900
G01 X-29.70441 Y59.65899
G01 X-29.48297 Y59.59127
G01 X-29.27909 Y59.48164
G01 X-29.09865 Y59.33290
G01 X-28.94675 Y59.17816
G01 X-28.76629 Y59.15403
G01 X-19.80164 Y59.15403
G01 X-19.62120 Y59.17816
G01 X-19.46928 Y59.33293
G01 X-19.28884 Y59.48164
G01 X-19.08495 Y59.59127
G01 X-18.86351 Y59.65899
G01 X-18.63298 Y59.67900
G01 X-17.37713 Y59.67669
G01 X-17.20441 Y59.65899
G01 X-16.98297 Y59.59124
G01 X-16.72067 Y59.43783
G01 X-16.54150 Y59.26869
G01 X-16.42694 Y59.11289
G01 X-16.27403 Y58.84565
G01 X-16.02897 Y58.56585
G04 P0 ( dwell for no time -- G64 should not smooth over this point )
G00 Z5.00000 ( retract )

G00 X-8.82660 Y43.15849 ( rapid move to begin. )
G01 F90.00000
( Mill infeed pass 1/1 )
G01 Z-0.10000
G04 P0 ( dwell for no time -- G64 should not smooth over this point )
G01 F180.00000
G01 X-8.82660 Y43.15849
G01 X-8.66153 Y42.91919
G01 X-8.30677 Y42.55130
G01 X-8.17105 Y42.31404
G01 X-8.11901 Y42.15511
G01 X-8.09066 Y41.93667
G01 X-8.10829 Y41.71706
G01 X-8.17105 Y41.50601
G01 X-8.30679 Y41.26875
G01 X-8.47519 Y41.09372
G01 X-8.78208 Y40.89154
G01 X-9.06249 Y40.64003
G01 X-9.22543 Y40.64003
G01 X-9.50587 Y40.38851
G01 X-9.69419 Y40.26957
G01 X-9.86859 Y40.13500
G01 X-9.98116 Y40.01127
G01 X-10.09584 Y39.82306
G01 X-10.15302 Y39.67612
G01 X-10.19327 Y39.47338
G01 X-10.19327 Y39.26670
G01 X-10.15302 Y39.06396
G01 X-10.07407 Y38.87290
G01 X-9.98116 Y38.72878
G01 X-9.81357 Y38.55441
G01 X-9.45314 Y38.31770
G01 X-9.21291 Y38.10003
G01 X-9.07588 Y38.10003
G01 X-8.78357 Y38.35491
G01 X-8.47438 Y38.55441
G01 X-8.32851 Y38.70081
G01 X-8.21388 Y38.87290
G01 X-8.13493 Y39.06396
G01 X-8.09468 Y39.26670
G01 X-8.09468 Y39.47338
G01 X-8.13493 Y39.67612
G01 X-8.19211 Y39.82306
G01 X-8.30677 Y40.01130
G01 X-8.41936 Y40.13500
G01 X-8.83389 Y40.42669
G01 X-9.06249 Y40.64003
G01 X-9.22543 Y40.64003
G01 X-9.43196 Y40.83482
G01 X-9.81273 Y41.09372
G01 X-10.01164 Y41.31249
G01 X-10.09584 Y41.45702
G01 X-10.15302 Y41.60396
G01 X-10.19327 Y41.80670
G01 X-10.19327 Y42.01338
G01 X-10.15302 Y42.21612
G01 X-10.09584 Y42.36306
G01 X-9.95881 Y42.58005
G01 X-9.62642 Y42.91919
G01 X-9.46132 Y43.15849
G01 X-9.74298 Y43.33258
G01 X-10.08426 Y43.43977
G01 X-10.15413 Y43.50962
G01 X-10.19541 Y43.61292
G01 X-10.19211 Y45.29856
G01 X-10.14801 Y45.40156
G01 X-10.09548 Y45.45409
G01 X-9.94400 Y45.50466
G01 X-8.34398 Y45.50067
G01 X-8.29544 Y45.49818
G01 X-8.19244 Y45.45409
G01 X-8.13991 Y45.40156
G01 X-8.09254 Y45.28718
G01 X-8.08848 Y45.23204
G01 X-8.09333 Y43.65000
G01 X-8.09582 Y43.60151
G01 X-8.13991 Y43.49852
G01 X-8.26320 Y43.40832
G01 X-8.59244 Y43.31101
G01 X-8.82660 Y43.15849
G01 X-9.06036 Y43.17784
G01 X-9.46132 Y43.15849
G04 P0 ( dwell for no time -- G64 should not smooth over this point )
G00 Z5.00000 ( retract )

G00 X-36.41395 Y59.36927 ( rapid move to begin. )
G01 F90.00000
( Mill infeed pass 1/1 )
G01 Z-0.10000
G04 P0 ( dwell for no time -- G64 should not smooth over this point )
G01 F180.00000
G01 X-36.41395 Y59.36927
G01 X-36.44933 Y59.48982
G01 X-36.51928 Y59.52721
G01 X-36.76482 Y59.61502
G01 X-37.01969 Y59.65276
G01 X-37.27707 Y59.64009
G01 X-37.52698 Y59.57745
G01 X-37.71966 Y59.48627
G01 X-37.75400 Y59.36927
G01 X-37.43803 Y59.05330
G01 X-37.33119 Y59.10085
G01 X-37.16762 Y59.13562
G01 X-37.00036 Y59.13562
G01 X-36.83678 Y59.10085
G01 X-36.72992 Y59.05330
G01 X-36.41395 Y59.36927
G04 P0 ( dwell for no time -- G64 should not smooth over this point )
G00 Z5.00000 ( retract )

G00 X-37.79789 Y57.98530 ( rapid move to begin. )
G01 F90.00000
( Mill infeed pass 1/1 )
G01 Z-0.10000
G04 P0 ( dwell for no time -- G64 should not smooth over this point )
G01 F180.00000
G01 X-37.79789 Y57.98530
G01 X-37.86650 Y58.17367
G01 X-37.88400 Y58.34002
G01 X-37.86650 Y58.50633
G01 X-37.79789 Y58.69473
G01 X-38.11321 Y59.01007
G01 X-38.23376 Y58.97469
G01 X-38.35898 Y58.65917
G01 X-38.39672 Y58.40430
G01 X-38.38405 Y58.14698
G01 X-38.32139 Y57.89704
G01 X-38.23020 Y57.70433
G01 X-38.11321 Y57.66999
G01 X-37.79789 Y57.98530
G04 P0 ( dwell for no time -- G64 should not smooth over this point )
G00 Z5.00000 ( retract )

G00 X-35.77123 Y58.27578 ( rapid move to begin. )
G01 F90.00000
( Mill infeed pass 1/1 )
G01 Z-0.10000
G04 P0 ( dwell for no time -- G64 should not smooth over this point )
G01 F180.00000
G01 X-35.77123 Y58.27578
G01 X-35.80897 Y58.02089
G01 X-35.89680 Y57.77532
G01 X-35.93419 Y57.70537
G01 X-36.05474 Y57.66999
G01 X-36.37006 Y57.98533
G01 X-36.30148 Y58.17367
G01 X-36.28398 Y58.34002
G01 X-36.30148 Y58.50633
G01 X-36.37008 Y58.69473
G01 X-36.05474 Y59.01007
G01 X-35.93775 Y58.97570
G01 X-35.84656 Y58.78302
G01 X-35.78390 Y58.53308
G01 X-35.77123 Y58.27578
G04 P0 ( dwell for no time -- G64 should not smooth over this point )
G00 Z5.00000 ( retract )

G00 X-36.41395 Y57.31078 ( rapid move to begin. )
G01 F90.00000
( Mill infeed pass 1/1 )
G01 Z-0.10000
G04 P0 ( dwell for no time -- G64 should not smooth over this point )
G01 F180.00000
G01 X-36.41395 Y57.31078
G01 X-36.72992 Y57.62673
G01 X-36.83678 Y57.57916
G01 X-37.00036 Y57.54439
G01 X-37.16762 Y57.54439
G01 X-37.33119 Y57.57916
G01 X-37.43805 Y57.62673
G01 X-37.75400 Y57.31078
G01 X-37.71862 Y57.19023
G01 X-37.64867 Y57.15284
G01 X-37.40310 Y57.06504
G01 X-37.14826 Y57.02727
G01 X-36.89091 Y57.03994
G01 X-36.64097 Y57.10260
G01 X-36.44829 Y57.19379
G01 X-36.41395 Y57.31078
G04 P0 ( dwell for no time -- G64 should not smooth over this point )
G00 Z5.00000 ( retract )

G00 X-38.31293 Y46.51418 ( rapid move to begin. )
G01 F90.00000
( Mill infeed pass 1/1 )
G01 Z-0.10000
G04 P0 ( dwell for no time -- G64 should not smooth over this point )
G01 F180.00000
G01 X-38.31293 Y46.51418
G01 X-38.32332 Y46.61959
G01 X-38.35237 Y46.71538
G01 X-38.46302 Y46.88098
G01 X-38.54039 Y46.94446
G01 X-38.72441 Y47.02068
G01 X-39.28532 Y47.02835
G01 X-39.36997 Y46.94367
G01 X-39.36997 Y46.52000
G01 X-38.82398 Y46.52002
G01 X-38.82398 Y45.97403
G01 X-38.40033 Y45.97403
G01 X-38.31565 Y46.05868
G01 X-38.31293 Y46.51418
G04 P0 ( dwell for no time -- G64 should not smooth over this point )
G00 Z5.00000 ( retract )

G00 X-39.87797 Y46.52000 ( rapid move to begin. )
G01 F90.00000
( Mill infeed pass 1/1 )
G01 Z-0.10000
G04 P0 ( dwell for no time -- G64 should not smooth over this point )
G01 F180.00000
G01 X-39.87797 Y46.52000
G01 X-40.42400 Y46.52002
G01 X-40.42397 Y45.97403
G01 X-40.84762 Y45.97403
G01 X-40.93230 Y46.05868
G01 X-40.92463 Y46.61959
G01 X-40.84841 Y46.80361
G01 X-40.78493 Y46.88098
G01 X-40.61932 Y46.99163
G01 X-40.52354 Y47.02068
G01 X-40.41813 Y47.03107
G01 X-39.96266 Y47.02835
G01 X-39.87800 Y46.94367
G01 X-39.87797 Y46.52000
G04 P0 ( dwell for no time -- G64 should not smooth over this point )
G00 Z5.00000 ( retract )

G00 X-46.57395 Y56.04078 ( rapid move to begin. )
G01 F90.00000
( Mill infeed pass 1/1 )
G01 Z-0.10000
G04 P0 ( dwell for no time -- G64 should not smooth over this point )
G01 F180.00000
G01 X-46.57395 Y56.04078
G01 X-46.60829 Y55.92379
G01 X-46.80097 Y55.83260
G01 X-47.05091 Y55.76994
G01 X-47.30826 Y55.75727
G01 X-47.56310 Y55.79504
G01 X-47.80867 Y55.88284
G01 X-47.87862 Y55.92023
G01 X-47.91400 Y56.04078
G01 X-47.59805 Y56.35673
G01 X-47.49119 Y56.30916
G01 X-47.32762 Y56.27439
G01 X-47.16036 Y56.27439
G01 X-46.99678 Y56.30916
G01 X-46.88992 Y56.35676
G01 X-46.57395 Y56.04078
G04 P0 ( dwell for no time -- G64 should not smooth over this point )
G00 Z5.00000 ( retract )

G00 X-45.93123 Y57.00578 ( rapid move to begin. )
G01 F90.00000
( Mill infeed pass 1/1 )
G01 Z-0.10000
G04 P0 ( dwell for no time -- G64 should not smooth over this point )
G01 F180.00000
G01 X-45.93123 Y57.00578
G01 X-45.94390 Y57.26308
G01 X-46.00656 Y57.51302
G01 X-46.09775 Y57.70570
G01 X-46.21474 Y57.74007
G01 X-46.53008 Y57.42473
G01 X-46.46148 Y57.23633
G01 X-46.44398 Y57.07002
G01 X-46.46148 Y56.90367
G01 X-46.53006 Y56.71533
G01 X-46.21474 Y56.39999
G01 X-46.09419 Y56.43537
G01 X-46.05680 Y56.50532
G01 X-45.96897 Y56.75089
G01 X-45.93123 Y57.00578
G04 P0 ( dwell for no time -- G64 should not smooth over this point )
G00 Z5.00000 ( retract )

G00 X-46.57395 Y58.09927 ( rapid move to begin. )
G01 F90.00000
( Mill infeed pass 1/1 )
G01 Z-0.10000
G04 P0 ( dwell for no time -- G64 should not smooth over this point )
G01 F180.00000
G01 X-46.57395 Y58.09927
G01 X-46.60933 Y58.21982
G01 X-46.67928 Y58.25721
G01 X-46.92482 Y58.34502
G01 X-47.17969 Y58.38276
G01 X-47.43707 Y58.37009
G01 X-47.68698 Y58.30745
G01 X-47.87966 Y58.21627
G01 X-47.91400 Y58.09927
G01 X-47.59803 Y57.78330
G01 X-47.49119 Y57.83085
G01 X-47.32762 Y57.86562
G01 X-47.16036 Y57.86562
G01 X-46.99678 Y57.83085
G01 X-46.88992 Y57.78330
G01 X-46.57395 Y58.09927
G04 P0 ( dwell for no time -- G64 should not smooth over this point )
G00 Z5.00000 ( retract )

G00 X-47.95789 Y56.71530 ( rapid move to begin. )
G01 F90.00000
( Mill infeed pass 1/1 )
G01 Z-0.10000
G04 P0 ( dwell for no time -- G64 should not smooth over this point )
G01 F180.00000
G01 X-47.95789 Y56.71530
G01 X-48.02650 Y56.90367
G01 X-48.04400 Y57.07002
G01 X-48.02650 Y57.23633
G01 X-47.95789 Y57.42473
G01 X-48.27321 Y57.74007
G01 X-48.39376 Y57.70469
G01 X-48.51898 Y57.38917
G01 X-48.55672 Y57.13430
G01 X-48.54405 Y56.87698
G01 X-48.48139 Y56.62704
G01 X-48.39020 Y56.43433
G01 X-48.27321 Y56.39999
G01 X-47.95789 Y56.71530
G04 P0 ( dwell for no time -- G64 should not smooth over this point )
G00 Z5.00000 ( retract )

G00 X-57.93290 Y59.91395 ( rapid move to begin. )
G01 F90.00000
( Mill infeed pass 1/1 )
G01 Z-0.10000
G04 P0 ( dwell for no time -- G64 should not smooth over this point )
G01 F180.00000
G01 X-57.93290 Y59.91395
G01 X-57.93583 Y58.75851
G01 X-58.02033 Y58.67403
G01 X-58.44398 Y58.67403
G01 X-58.44398 Y59.92002
G01 X-59.69000 Y59.92002
G01 X-59.69000 Y60.34367
G01 X-59.60549 Y60.42817
G01 X-58.34441 Y60.42068
G01 X-58.24863 Y60.39162
G01 X-58.08302 Y60.28098
G01 X-57.97238 Y60.11537
G01 X-57.94332 Y60.01959
G01 X-57.93290 Y59.91395
G04 P0 ( dwell for no time -- G64 should not smooth over this point )
G00 Z5.00000 ( retract )

G00 X-60.19797 Y59.92002 ( rapid move to begin. )
G01 F90.00000
( Mill infeed pass 1/1 )
G01 Z-0.10000
G04 P0 ( dwell for no time -- G64 should not smooth over this point )
G01 F180.00000
G01 X-60.19797 Y59.92002
G01 X-60.19797 Y60.34367
G01 X-60.28248 Y60.42817
G01 X-61.43790 Y60.43110
G01 X-61.54354 Y60.42068
G01 X-61.63932 Y60.39162
G01 X-61.80493 Y60.28098
G01 X-61.91557 Y60.11537
G01 X-61.94463 Y60.01959
G01 X-61.95212 Y58.75851
G01 X-61.86762 Y58.67400
G01 X-61.44400 Y58.67400
G01 X-61.44400 Y59.92002
G01 X-60.19797 Y59.92002
G04 P0 ( dwell for no time -- G64 should not smooth over this point )
G00 Z5.00000 ( retract )

G00 X-57.93290 Y56.92610 ( rapid move to begin. )
G01 F90.00000
( Mill infeed pass 1/1 )
G01 Z-0.10000
G04 P0 ( dwell for no time -- G64 should not smooth over this point )
G01 F180.00000
G01 X-57.93290 Y56.92610
G01 X-57.93583 Y58.08152
G01 X-58.02033 Y58.16603
G01 X-58.44398 Y58.16603
G01 X-58.44398 Y56.92000
G01 X-59.68997 Y56.92003
G01 X-59.68997 Y56.49638
G01 X-59.60549 Y56.41188
G01 X-58.34441 Y56.41937
G01 X-58.24863 Y56.44843
G01 X-58.08302 Y56.55907
G01 X-57.97238 Y56.72468
G01 X-57.94332 Y56.82046
G01 X-57.93290 Y56.92610
G04 P0 ( dwell for no time -- G64 should not smooth over this point )
G00 Z5.00000 ( retract )

G00 X-60.19797 Y56.49638 ( rapid move to begin. )
G01 F90.00000
( Mill infeed pass 1/1 )
G01 Z-0.10000
G04 P0 ( dwell for no time -- G64 should not smooth over this point )
G01 F180.00000
G01 X-60.19797 Y56.49638
G01 X-60.19797 Y56.92003
G01 X-61.44400 Y56.92000
G01 X-61.44400 Y58.16603
G01 X-61.86762 Y58.16603
G01 X-61.95212 Y58.08152
G01 X-61.95504 Y56.92610
G01 X-61.94463 Y56.82046
G01 X-61.91557 Y56.72468
G01 X-61.80493 Y56.55907
G01 X-61.63932 Y56.44843
G01 X-61.54354 Y56.41937
G01 X-61.43790 Y56.40895
G01 X-60.28248 Y56.41188
G01 X-60.19797 Y56.49638
G04 P0 ( dwell for no time -- G64 should not smooth over this point )
G00 Z5.00000 ( retract )

G00 X-53.04185 Y48.81070 ( rapid move to begin. )
G01 F90.00000
( Mill infeed pass 1/1 )
G01 Z-0.10000
G04 P0 ( dwell for no time -- G64 should not smooth over this point )
G01 F180.00000
G01 X-53.04185 Y48.81070
G01 X-53.00586 Y49.14313
G01 X-52.94493 Y49.45197
G01 X-52.94633 Y49.60805
G01 X-52.99459 Y49.78522
G01 X-53.04887 Y49.89424
G01 X-53.22976 Y50.07513
G01 X-53.33878 Y50.12941
G01 X-53.53675 Y50.18029
G01 X-54.85178 Y50.18618
G01 X-54.99141 Y50.17084
G01 X-55.11424 Y50.13427
G01 X-55.32755 Y49.99360
G01 X-56.61386 Y48.70465
G01 X-56.67906 Y48.62424
G01 X-56.73608 Y48.50945
G01 X-56.77695 Y48.38794
G01 X-56.78642 Y48.24727
G01 X-56.78465 Y44.40014
G01 X-56.73966 Y44.19915
G01 X-56.59752 Y43.98648
G01 X-55.33687 Y42.72493
G01 X-55.19560 Y42.61714
G01 X-55.10566 Y42.57340
G01 X-54.86397 Y42.52445
G01 X-53.29895 Y42.52524
G01 X-53.15598 Y42.50698
G01 X-52.99481 Y42.36527
G01 X-52.63406 Y42.12336
G01 X-52.40543 Y41.91003
G01 X-52.63413 Y41.69700
G01 X-52.99090 Y41.45793
G01 X-53.13942 Y41.30926
G01 X-53.25407 Y41.13718
G01 X-53.34894 Y40.88511
G01 X-53.37729 Y40.61336
G01 X-53.33302 Y40.33396
G01 X-53.27584 Y40.18699
G01 X-53.19164 Y40.04249
G01 X-52.99654 Y39.80833
G01 X-52.97922 Y39.67150
G01 X-52.97800 Y39.09550
G01 X-52.99669 Y38.93180
G01 X-53.19164 Y38.69756
G01 X-53.27584 Y38.55306
G01 X-53.33302 Y38.40612
G01 X-53.37327 Y38.20338
G01 X-53.37327 Y37.99670
G01 X-53.33302 Y37.79396
G01 X-53.27584 Y37.64699
G01 X-53.16116 Y37.45878
G01 X-53.04856 Y37.33508
G01 X-52.63406 Y37.04336
G01 X-52.40543 Y36.83003
G01 X-52.24249 Y36.83003
G01 X-52.01389 Y36.61669
G01 X-51.65519 Y36.37636
G01 X-51.48677 Y36.20130
G01 X-51.35105 Y35.96404
G01 X-51.28829 Y35.75299
G01 X-51.27066 Y35.53336
G01 X-51.31493 Y35.25396
G01 X-51.39388 Y35.06290
G01 X-51.50851 Y34.89081
G01 X-51.63812 Y34.75830
G01 X-51.96208 Y34.54154
G01 X-52.24249 Y34.29003
G01 X-52.01389 Y34.07669
G01 X-51.63812 Y33.82175
G01 X-51.50851 Y33.68926
G01 X-51.39385 Y33.51718
G01 X-51.31493 Y33.32615
G01 X-51.27468 Y33.12338
G01 X-51.27468 Y32.91670
G01 X-51.31493 Y32.71393
G01 X-51.39385 Y32.52290
G01 X-51.48679 Y32.37875
G01 X-51.59936 Y32.25505
G01 X-51.77373 Y32.12046
G01 X-51.96208 Y32.00154
G01 X-52.24249 Y31.75003
G01 X-51.96208 Y32.00154
G01 X-51.65519 Y32.20372
G01 X-51.50851 Y32.35081
G01 X-51.39385 Y32.52290
G01 X-51.35105 Y32.61601
G01 X-51.29901 Y32.77494
G01 X-51.27066 Y32.99336
G01 X-51.27468 Y33.12338
G01 X-51.31493 Y33.32615
G01 X-51.39385 Y33.51718
G01 X-51.48677 Y33.66130
G01 X-51.65519 Y33.83636
G01 X-52.01389 Y34.07669
G01 X-52.24249 Y34.29003
G01 X-57.08835 Y34.29003
G01 X-57.47715 Y34.02665
G01 X-57.85348 Y33.86336
G01 X-58.00994 Y33.75843
G01 X-58.19071 Y33.55876
G01 X-58.26445 Y33.43237
G01 X-58.31736 Y33.29709
G01 X-58.35378 Y33.11357
G01 X-58.34184 Y32.84784
G01 X-58.26445 Y32.60768
G01 X-58.14210 Y32.41426
G01 X-58.02285 Y32.29267
G01 X-57.90377 Y32.20763
G01 X-57.45010 Y31.99844
G01 X-57.08835 Y31.75003
G01 X-57.37997 Y31.54426
G01 X-57.56707 Y31.44109
G01 X-57.85348 Y31.32336
G01 X-58.06163 Y31.17063
G01 X-58.19071 Y31.01876
G01 X-58.28551 Y30.84337
G01 X-58.34184 Y30.65219
G01 X-58.35729 Y30.45336
G01 X-58.33113 Y30.25574
G01 X-58.28551 Y30.11668
G01 X-58.24588 Y30.03001
G01 X-58.14210 Y29.87426
G01 X-58.00994 Y29.74162
G01 X-57.85444 Y29.63725
G01 X-57.68149 Y29.56514
G01 X-57.49770 Y29.52836
G01 X-57.31022 Y29.52836
G01 X-57.12643 Y29.56514
G01 X-56.94957 Y29.63939
G01 X-56.70786 Y29.80969
G01 X-56.61106 Y29.82247
G01 X-53.31838 Y29.82603
G01 X-53.15532 Y29.80847
G01 X-52.99748 Y29.66702
G01 X-52.63406 Y29.42336
G01 X-52.40543 Y29.21003
G01 X-52.24249 Y29.21003
G01 X-52.01389 Y28.99669
G01 X-51.63812 Y28.74175
G01 X-51.50853 Y28.60926
G01 X-51.39388 Y28.43718
G01 X-51.29901 Y28.18511
G01 X-51.27066 Y27.96667
G01 X-51.29901 Y27.69494
G01 X-51.39388 Y27.44290
G01 X-51.50851 Y27.27081
G01 X-51.65451 Y27.12430
G01 X-51.81956 Y27.01267
G01 X-51.97295 Y26.94597
G01 X-52.22042 Y26.88859
G01 X-52.40762 Y26.88821
G01 X-52.63058 Y26.92928
G01 X-52.82161 Y27.00896
G01 X-53.00983 Y27.13830
G01 X-53.16116 Y27.29878
G01 X-53.27584 Y27.48702
G01 X-53.34894 Y27.69494
G01 X-53.37729 Y27.91336
G01 X-53.34894 Y28.18511
G01 X-53.25407 Y28.43718
G01 X-53.13942 Y28.60926
G01 X-53.00983 Y28.74175
G01 X-52.68587 Y28.95851
G01 X-52.40543 Y29.21003
G01 X-52.24249 Y29.21003
G01 X-51.96208 Y29.46154
G01 X-51.63812 Y29.67830
G01 X-51.45631 Y29.88249
G01 X-51.37211 Y30.02699
G01 X-51.31493 Y30.17393
G01 X-51.27066 Y30.45336
G01 X-51.27468 Y30.58338
G01 X-51.31493 Y30.78615
G01 X-51.37211 Y30.93306
G01 X-51.45629 Y31.07756
G01 X-51.65519 Y31.29636
G01 X-52.01389 Y31.53669
G01 X-52.24249 Y31.75003
G01 X-57.08835 Y31.75003
G01 X-57.45010 Y31.99844
G01 X-57.90377 Y32.20763
G01 X-58.02285 Y32.29267
G01 X-58.16023 Y32.43758
G01 X-58.24588 Y32.57001
G01 X-58.31736 Y32.74299
G01 X-58.35378 Y32.92650
G01 X-58.35729 Y33.04667
G01 X-58.33113 Y33.24431
G01 X-58.28551 Y33.38337
G01 X-58.16023 Y33.60247
G01 X-58.00994 Y33.75843
G01 X-57.85348 Y33.86336
G01 X-57.47715 Y34.02665
G01 X-57.08835 Y34.29003
G01 X-57.45010 Y34.53844
G01 X-57.85086 Y34.71527
G01 X-58.06161 Y34.86945
G01 X-58.19071 Y35.02129
G01 X-58.28551 Y35.19668
G01 X-58.34184 Y35.38784
G01 X-58.35729 Y35.58667
G01 X-58.33113 Y35.78431
G01 X-58.28551 Y35.92337
G01 X-58.24588 Y36.01006
G01 X-58.14210 Y36.16582
G01 X-58.00994 Y36.29843
G01 X-57.85444 Y36.40282
G01 X-57.68149 Y36.47493
G01 X-57.49770 Y36.51171
G01 X-57.31022 Y36.51171
G01 X-57.12643 Y36.47493
G01 X-56.94957 Y36.40066
G01 X-56.70789 Y36.23041
G01 X-56.61116 Y36.21761
G01 X-53.31838 Y36.21405
G01 X-53.15610 Y36.23338
G01 X-52.99481 Y36.37481
G01 X-52.63413 Y36.61700
G01 X-52.40543 Y36.83003
G01 X-52.24249 Y36.83003
G01 X-51.96208 Y37.08154
G01 X-51.63812 Y37.29830
G01 X-51.45631 Y37.50249
G01 X-51.37211 Y37.64699
G01 X-51.29901 Y37.85494
G01 X-51.27468 Y37.99670
G01 X-51.27468 Y38.20338
G01 X-51.31493 Y38.40612
G01 X-51.39388 Y38.59718
G01 X-51.48677 Y38.74130
G01 X-51.65062 Y38.93210
G01 X-51.66995 Y39.09553
G01 X-51.66873 Y39.67150
G01 X-51.65141 Y39.80833
G01 X-51.45631 Y40.04249
G01 X-51.37211 Y40.18699
G01 X-51.31493 Y40.33393
G01 X-51.27066 Y40.61336
G01 X-51.29901 Y40.88511
G01 X-51.39385 Y41.13718
G01 X-51.50851 Y41.30926
G01 X-51.63812 Y41.44175
G01 X-52.01389 Y41.69669
G01 X-52.24249 Y41.91003
G01 X-52.40543 Y41.91003
G01 X-52.24249 Y41.91003
G01 X-51.96208 Y42.16154
G01 X-51.63812 Y42.37830
G01 X-51.45631 Y42.58249
G01 X-51.37211 Y42.72699
G01 X-51.31493 Y42.87396
G01 X-51.27468 Y43.07670
G01 X-51.27468 Y43.28338
G01 X-51.29901 Y43.42511
G01 X-51.35105 Y43.58404
G01 X-51.45629 Y43.77756
G01 X-51.59936 Y43.94500
G01 X-52.01389 Y44.23669
G01 X-52.24249 Y44.45003
G01 X-53.40754 Y44.45003
G01 X-53.71468 Y44.58045
G01 X-54.10233 Y44.78967
G01 X-54.17838 Y44.83519
G01 X-54.39242 Y45.17141
G01 X-54.41660 Y45.41583
G01 X-54.42539 Y45.85693
G01 X-54.38729 Y46.30237
G01 X-54.29816 Y46.76346
G01 X-54.22760 Y47.02122
G01 X-54.22659 Y47.46996
G01 X-54.11561 Y47.73618
G01 X-53.04185 Y48.81070
G01 X-52.32512 Y48.91105
G01 X-52.13454 Y48.88446
G01 X-51.96017 Y48.80447
G01 X-51.81082 Y48.66282
G01 X-51.72232 Y48.50922
G01 X-51.69972 Y48.44146
G01 X-51.67427 Y48.31740
G01 X-51.65903 Y46.58802
G01 X-51.65184 Y46.55228
G01 X-51.48677 Y46.36130
G01 X-51.37211 Y46.17306
G01 X-51.29901 Y45.96511
G01 X-51.27066 Y45.74667
G01 X-51.27468 Y45.61670
G01 X-51.31493 Y45.41396
G01 X-51.39388 Y45.22290
G01 X-51.48679 Y45.07875
G01 X-51.65519 Y44.90372
G01 X-51.96208 Y44.70154
G01 X-52.24249 Y44.45003
G04 P0 ( dwell for no time -- G64 should not smooth over this point )
G00 Z5.00000 ( retract )

G00 X-61.84788 Y18.13476 ( rapid move to begin. )
G01 F90.00000
( Mill infeed pass 1/1 )
G01 Z-0.10000
G04 P0 ( dwell for no time -- G64 should not smooth over this point )
G01 F180.00000
G01 X-61.84788 Y18.13476
G01 X-62.16322 Y18.45008
G01 X-62.28377 Y18.41470
G01 X-62.40897 Y18.09918
G01 X-62.44671 Y17.84434
G01 X-62.43404 Y17.58693
G01 X-62.37140 Y17.33702
G01 X-62.28022 Y17.14434
G01 X-62.16322 Y17.11000
G01 X-61.84791 Y17.42531
G01 X-61.91651 Y17.61368
G01 X-61.93399 Y17.78003
G01 X-61.91651 Y17.94634
G01 X-61.84788 Y18.13476
G04 P0 ( dwell for no time -- G64 should not smooth over this point )
G00 Z5.00000 ( retract )

G00 X-60.46394 Y18.80926 ( rapid move to begin. )
G01 F90.00000
( Mill infeed pass 1/1 )
G01 Z-0.10000
G04 P0 ( dwell for no time -- G64 should not smooth over this point )
G01 F180.00000
G01 X-60.46394 Y18.80926
G01 X-60.77994 Y18.49328
G01 X-60.88677 Y18.54086
G01 X-61.05037 Y18.57563
G01 X-61.21761 Y18.57563
G01 X-61.38121 Y18.54086
G01 X-61.48804 Y18.49328
G01 X-61.80402 Y18.80926
G01 X-61.76965 Y18.92628
G01 X-61.57697 Y19.01746
G01 X-61.32703 Y19.08010
G01 X-61.06970 Y19.09277
G01 X-60.81481 Y19.05505
G01 X-60.56927 Y18.96725
G01 X-60.49932 Y18.92983
G01 X-60.46394 Y18.80926
G04 P0 ( dwell for no time -- G64 should not smooth over this point )
G00 Z5.00000 ( retract )

G00 X-59.82122 Y17.71574 ( rapid move to begin. )
G01 F90.00000
( Mill infeed pass 1/1 )
G01 Z-0.10000
G04 P0 ( dwell for no time -- G64 should not smooth over this point )
G01 F180.00000
G01 X-59.82122 Y17.71574
G01 X-59.85899 Y17.46093
G01 X-59.94679 Y17.21533
G01 X-59.98418 Y17.14541
G01 X-60.10473 Y17.11000
G01 X-60.42007 Y17.42534
G01 X-60.35147 Y17.61368
G01 X-60.33399 Y17.78003
G01 X-60.35147 Y17.94634
G01 X-60.42007 Y18.13476
G01 X-60.10473 Y18.45008
G01 X-59.98774 Y18.41571
G01 X-59.89655 Y18.22305
G01 X-59.83389 Y17.97309
G01 X-59.82122 Y17.71574
G04 P0 ( dwell for no time -- G64 should not smooth over this point )
G00 Z5.00000 ( retract )

G00 X-60.46394 Y16.75079 ( rapid move to begin. )
G01 F90.00000
( Mill infeed pass 1/1 )
G01 Z-0.10000
G04 P0 ( dwell for no time -- G64 should not smooth over this point )
G01 F180.00000
G01 X-60.46394 Y16.75079
G01 X-60.77991 Y17.06674
G01 X-60.88677 Y17.01919
G01 X-61.05037 Y16.98440
G01 X-61.21761 Y16.98440
G01 X-61.38121 Y17.01919
G01 X-61.48807 Y17.06674
G01 X-61.80402 Y16.75079
G01 X-61.76863 Y16.63024
G01 X-61.69866 Y16.59285
G01 X-61.45312 Y16.50502
G01 X-61.19825 Y16.46728
G01 X-60.94092 Y16.47998
G01 X-60.69099 Y16.54261
G01 X-60.49828 Y16.63380
G01 X-60.46394 Y16.75079
G04 P0 ( dwell for no time -- G64 should not smooth over this point )
G00 Z5.00000 ( retract )

G00 X-59.89752 Y5.48569 ( rapid move to begin. )
G01 F90.00000
( Mill infeed pass 1/1 )
G01 Z-0.10000
G04 P0 ( dwell for no time -- G64 should not smooth over this point )
G01 F180.00000
G01 X-59.89752 Y5.48569
G01 X-60.19101 Y5.19219
G01 X-60.38713 Y5.28914
G01 X-60.55314 Y5.61523
G01 X-60.66038 Y5.99597
G01 X-60.69127 Y6.39028
G01 X-60.64466 Y6.78307
G01 X-60.52190 Y7.16046
G01 X-60.38840 Y7.41027
G01 X-60.19101 Y7.50786
G01 X-59.89752 Y7.21436
G01 X-60.04430 Y6.96011
G01 X-60.14121 Y6.66189
G01 X-60.17400 Y6.35000
G01 X-60.14121 Y6.03814
G01 X-60.04430 Y5.73992
G01 X-59.89752 Y5.48569
G04 P0 ( dwell for no time -- G64 should not smooth over this point )
G00 Z5.00000 ( retract )

G00 X-57.51614 Y4.83298 ( rapid move to begin. )
G01 F90.00000
( Mill infeed pass 1/1 )
G01 Z-0.10000
G04 P0 ( dwell for no time -- G64 should not smooth over this point )
G01 F180.00000
G01 X-57.51614 Y4.83298
G01 X-57.81403 Y5.13088
G01 X-57.92399 Y5.05097
G01 X-58.21045 Y4.92343
G01 X-58.51721 Y4.85823
G01 X-58.83077 Y4.85823
G01 X-59.13752 Y4.92343
G01 X-59.42399 Y5.05097
G01 X-59.53394 Y5.13085
G01 X-59.83181 Y4.83298
G01 X-59.73422 Y4.63560
G01 X-59.48439 Y4.50210
G01 X-59.10702 Y4.37934
G01 X-58.71423 Y4.33273
G01 X-58.31992 Y4.36362
G01 X-57.93918 Y4.47086
G01 X-57.61309 Y4.63687
G01 X-57.51614 Y4.83298
G04 P0 ( dwell for no time -- G64 should not smooth over this point )
G00 Z5.00000 ( retract )

G00 X-56.65668 Y6.30974 ( rapid move to begin. )
G01 F90.00000
( Mill infeed pass 1/1 )
G01 Z-0.10000
G04 P0 ( dwell for no time -- G64 should not smooth over this point )
G01 F180.00000
G01 X-56.65668 Y6.30974
G01 X-56.70329 Y5.91698
G01 X-56.82605 Y5.53961
G01 X-56.95955 Y5.28978
G01 X-57.15693 Y5.19219
G01 X-57.45043 Y5.48569
G01 X-57.30367 Y5.73992
G01 X-57.20677 Y6.03814
G01 X-57.17398 Y6.35000
G01 X-57.20677 Y6.66189
G01 X-57.30367 Y6.96011
G01 X-57.45046 Y7.21434
G01 X-57.15693 Y7.50786
G01 X-56.96082 Y7.41091
G01 X-56.79481 Y7.08482
G01 X-56.68757 Y6.70408
G01 X-56.65668 Y6.30974
G04 P0 ( dwell for no time -- G64 should not smooth over this point )
G00 Z5.00000 ( retract )

G00 X-57.51614 Y7.86707 ( rapid move to begin. )
G01 F90.00000
( Mill infeed pass 1/1 )
G01 Z-0.10000
G04 P0 ( dwell for no time -- G64 should not smooth over this point )
G01 F180.00000
G01 X-57.51614 Y7.86707
G01 X-57.81403 Y7.56917
G01 X-57.92399 Y7.64906
G01 X-58.21045 Y7.77659
G01 X-58.51721 Y7.84179
G01 X-58.83077 Y7.84179
G01 X-59.13752 Y7.77659
G01 X-59.42399 Y7.64906
G01 X-59.53392 Y7.56917
G01 X-59.83181 Y7.86707
G01 X-59.73486 Y8.06318
G01 X-59.40877 Y8.22919
G01 X-59.02803 Y8.33643
G01 X-58.63372 Y8.36732
G01 X-58.24093 Y8.32071
G01 X-57.86356 Y8.19795
G01 X-57.61373 Y8.06445
G01 X-57.51614 Y7.86707
G04 P0 ( dwell for no time -- G64 should not smooth over this point )
G00 Z5.00000 ( retract )

G00 X-42.41800 Y22.34783 ( rapid move to begin. )
G01 F90.00000
( Mill infeed pass 1/1 )
G01 Z-0.10000
G04 P0 ( dwell for no time -- G64 should not smooth over this point )
G01 F180.00000
G01 X-42.41800 Y22.34783
G01 X-42.41800 Y22.78530
G01 X-42.52387 Y22.84316
G01 X-42.72326 Y22.77173
G01 X-42.94307 Y22.63993
G01 X-43.13291 Y22.46775
G01 X-43.28554 Y22.26188
G01 X-43.41884 Y21.95335
G01 X-43.35877 Y21.84400
G01 X-42.91802 Y21.84403
G01 X-42.89483 Y21.91540
G01 X-42.81119 Y22.06023
G01 X-42.69928 Y22.18454
G01 X-42.56400 Y22.28284
G01 X-42.41800 Y22.34783
G04 P0 ( dwell for no time -- G64 should not smooth over this point )
G00 Z5.00000 ( retract )

G00 X-38.57066 Y27.91336 ( rapid move to begin. )
G01 F90.00000
( Mill infeed pass 1/1 )
G01 Z-0.10000
G04 P0 ( dwell for no time -- G64 should not smooth over this point )
G01 F180.00000
G01 X-38.57066 Y27.91336
G01 X-38.59901 Y27.69494
G01 X-38.65105 Y27.53601
G01 X-38.69388 Y27.44287
G01 X-38.80851 Y27.27081
G01 X-38.95451 Y27.12430
G01 X-39.12629 Y27.00899
G01 X-39.31737 Y26.92928
G01 X-39.52039 Y26.88859
G01 X-39.72753 Y26.88859
G01 X-39.93055 Y26.92928
G01 X-40.17386 Y27.04097
G01 X-40.45608 Y27.26667
G01 X-40.61838 Y27.28600
G01 X-44.41998 Y27.28600
G01 X-44.57083 Y27.26924
G01 X-44.67098 Y27.19108
G01 X-54.53581 Y17.32491
G01 X-54.64658 Y17.23814
G01 X-54.76476 Y17.17114
G01 X-55.03281 Y17.08457
G01 X-55.06400 Y16.98000
G01 X-55.14556 Y16.80947
G01 X-55.24851 Y16.74068
G01 X-55.35201 Y16.72453
G01 X-56.93400 Y16.72941
G01 X-56.98249 Y16.73192
G01 X-57.08551 Y16.77599
G01 X-57.17332 Y16.89453
G01 X-57.18459 Y16.98000
G01 X-57.18947 Y18.56207
G01 X-57.17332 Y18.66552
G01 X-57.11269 Y18.75876
G01 X-57.01947 Y18.81937
G01 X-56.91518 Y18.83557
G01 X-55.35275 Y18.83557
G01 X-55.28353 Y18.82965
G01 X-55.06240 Y18.73225
G01 X-54.83289 Y18.88221
G01 X-45.97062 Y27.74295
G01 X-45.88607 Y27.84597
G01 X-45.79617 Y28.01236
G01 X-45.88609 Y28.17881
G01 X-45.97093 Y28.28211
G01 X-47.70752 Y30.01648
G01 X-47.78723 Y30.11706
G01 X-47.84387 Y30.21929
G01 X-47.89401 Y30.41739
G01 X-47.89896 Y50.70071
G01 X-47.95263 Y50.96129
G01 X-48.18545 Y51.05834
G01 X-48.22398 Y51.08997
G01 X-48.25837 Y51.13226
G01 X-48.35126 Y51.36274
G01 X-48.63638 Y51.41600
G01 X-58.66143 Y51.41384
G01 X-58.80184 Y51.42705
G01 X-58.91756 Y51.46584
G01 X-59.07324 Y51.55395
G01 X-59.26615 Y51.69146
G01 X-59.76927 Y51.59045
G01 X-60.11629 Y51.59037
G01 X-60.45406 Y51.65839
G01 X-60.77194 Y51.79103
G01 X-61.05774 Y51.98290
G01 X-61.30061 Y52.22664
G01 X-61.49137 Y52.51293
G01 X-61.62271 Y52.83081
G01 X-61.68967 Y53.16812
G01 X-61.68967 Y53.51196
G01 X-61.62271 Y53.84927
G01 X-61.49134 Y54.16715
G01 X-61.30061 Y54.45343
G01 X-61.09851 Y54.66235
G01 X-60.84428 Y54.84594
G01 X-60.45406 Y55.02166
G01 X-60.11626 Y55.08970
G01 X-59.77166 Y55.08970
G01 X-59.42670 Y55.01945
G01 X-59.08926 Y54.87429
G01 X-58.78944 Y54.66235
G01 X-58.54027 Y54.39293
G01 X-58.35251 Y54.07779
G01 X-58.23428 Y53.73068
G01 X-58.19844 Y53.51292
G01 X-58.20420 Y53.08719
G01 X-58.18444 Y52.81417
G01 X-57.97471 Y52.74384
G01 X-57.83605 Y52.72504
G01 X-48.59081 Y52.72822
G01 X-48.35268 Y52.77874
G01 X-48.25566 Y53.01153
G01 X-48.22398 Y53.05011
G01 X-48.18537 Y53.08178
G01 X-47.93945 Y53.17119
G01 X-47.81271 Y53.51536
G01 X-47.69904 Y53.66827
G01 X-41.62852 Y59.74255
G01 X-41.56306 Y59.82249
G01 X-41.55222 Y60.64537
G01 X-41.61523 Y60.90874
G01 X-41.94810 Y60.99680
G01 X-42.01742 Y61.04191
G01 X-42.26298 Y61.48321
G01 X-42.18262 Y61.88062
G01 X-42.16438 Y62.20503
G01 X-42.18262 Y62.57943
G01 X-42.26319 Y62.97762
G01 X-42.17289 Y63.12502
G01 X-42.06616 Y63.35847
G01 X-41.98691 Y63.44021
G01 X-41.89512 Y63.47813
G01 X-39.94147 Y63.48466
G01 X-39.85595 Y63.46937
G01 X-39.75306 Y63.40061
G01 X-39.69339 Y63.27874
G01 X-39.69174 Y61.18034
G01 X-39.76273 Y61.05131
G01 X-39.85181 Y60.99279
G01 X-40.17269 Y60.90874
G01 X-40.19725 Y60.84506
G01 X-40.23571 Y60.64677
G01 X-40.23838 Y59.54535
G01 X-40.28829 Y59.29450
G01 X-40.34889 Y59.18109
G01 X-40.44165 Y59.07504
G01 X-46.12640 Y53.38846
G01 X-46.21418 Y53.28051
G01 X-46.29234 Y53.14178
G01 X-46.23453 Y53.02832
G01 X-46.18934 Y52.87005
G01 X-46.19582 Y51.22151
G01 X-46.23382 Y51.12959
G01 X-46.31700 Y51.04920
G01 X-46.53666 Y50.96271
G01 X-46.58995 Y50.67778
G01 X-46.58995 Y30.90878
G01 X-46.57021 Y30.75897
G01 X-46.47847 Y30.63926
G01 X-44.54558 Y28.70472
G01 X-44.42849 Y28.61447
G01 X-44.27515 Y28.59405
G01 X-40.49713 Y28.60490
G01 X-40.45600 Y28.61307
G01 X-40.29494 Y28.75468
G01 X-39.89626 Y29.02123
G01 X-39.69291 Y29.21003
G01 X-39.55588 Y29.21003
G01 X-39.26357 Y28.95516
G01 X-38.95438 Y28.75564
G01 X-38.78677 Y28.58130
G01 X-38.69388 Y28.43720
G01 X-38.61493 Y28.24612
G01 X-38.57470 Y28.04340
G01 X-38.57066 Y27.91336
G04 P0 ( dwell for no time -- G64 should not smooth over this point )
G00 Z5.00000 ( retract )

G00 X-40.90911 Y21.95335 ( rapid move to begin. )
G01 F90.00000
( Mill infeed pass 1/1 )
G01 Z-0.10000
G04 P0 ( dwell for no time -- G64 should not smooth over this point )
G01 F180.00000
G01 X-40.90911 Y21.95335
G01 X-41.04241 Y22.26188
G01 X-41.19504 Y22.46775
G01 X-41.38488 Y22.63993
G01 X-41.60469 Y22.77173
G01 X-41.80408 Y22.84316
G01 X-41.90997 Y22.78530
G01 X-41.90997 Y22.34783
G01 X-41.76398 Y22.28284
G01 X-41.62869 Y22.18454
G01 X-41.51678 Y22.06023
G01 X-41.43314 Y21.91540
G01 X-41.40995 Y21.84403
G01 X-40.96918 Y21.84400
G01 X-40.90911 Y21.95335
G04 P0 ( dwell for no time -- G64 should not smooth over this point )
G00 Z5.00000 ( retract )

G00 X-40.90911 Y21.22670 ( rapid move to begin. )
G01 F90.00000
( Mill infeed pass 1/1 )
G01 Z-0.10000
G04 P0 ( dwell for no time -- G64 should not smooth over this point )
G01 F180.00000
G01 X-40.90911 Y21.22670
G01 X-40.96918 Y21.33600
G01 X-41.40995 Y21.33600
G01 X-41.43314 Y21.26463
G01 X-41.51678 Y21.11980
G01 X-41.62869 Y20.99549
G01 X-41.76398 Y20.89719
G01 X-41.90997 Y20.83219
G01 X-41.91000 Y20.39475
G01 X-41.80411 Y20.33692
G01 X-41.60469 Y20.40834
G01 X-41.38488 Y20.54012
G01 X-41.19504 Y20.71230
G01 X-41.04241 Y20.91817
G01 X-40.90911 Y21.22670
G04 P0 ( dwell for no time -- G64 should not smooth over this point )
G00 Z5.00000 ( retract )

G00 X-42.41800 Y20.39475 ( rapid move to begin. )
G01 F90.00000
( Mill infeed pass 1/1 )
G01 Z-0.10000
G04 P0 ( dwell for no time -- G64 should not smooth over this point )
G01 F180.00000
G01 X-42.41800 Y20.39475
G01 X-42.52387 Y20.33692
G01 X-42.72326 Y20.40834
G01 X-42.94307 Y20.54012
G01 X-43.13291 Y20.71230
G01 X-43.28554 Y20.91817
G01 X-43.39641 Y21.15274
G01 X-43.41884 Y21.22670
G01 X-43.35877 Y21.33600
G01 X-42.91802 Y21.33600
G01 X-42.89483 Y21.26463
G01 X-42.81119 Y21.11980
G01 X-42.69928 Y20.99549
G01 X-42.56400 Y20.89719
G01 X-42.41800 Y20.83219
G01 X-42.41800 Y20.39475
G04 P0 ( dwell for no time -- G64 should not smooth over this point )
G00 Z5.00000 ( retract )

G00 X-36.34290 Y7.84395 ( rapid move to begin. )
G01 F90.00000
( Mill infeed pass 1/1 )
G01 Z-0.10000
G04 P0 ( dwell for no time -- G64 should not smooth over this point )
G01 F180.00000
G01 X-36.34290 Y7.84395
G01 X-36.34583 Y6.68851
G01 X-36.43033 Y6.60400
G01 X-36.85400 Y6.60400
G01 X-36.85398 Y7.85002
G01 X-38.09997 Y7.85002
G01 X-38.09997 Y8.27367
G01 X-38.01549 Y8.35817
G01 X-36.75441 Y8.35068
G01 X-36.65863 Y8.32162
G01 X-36.49302 Y8.21098
G01 X-36.38238 Y8.04537
G01 X-36.35332 Y7.94959
G01 X-36.34290 Y7.84395
G04 P0 ( dwell for no time -- G64 should not smooth over this point )
G00 Z5.00000 ( retract )

G00 X-36.34290 Y4.85610 ( rapid move to begin. )
G01 F90.00000
( Mill infeed pass 1/1 )
G01 Z-0.10000
G04 P0 ( dwell for no time -- G64 should not smooth over this point )
G01 F180.00000
G01 X-36.34290 Y4.85610
G01 X-36.34583 Y6.01152
G01 X-36.43033 Y6.09600
G01 X-36.85398 Y6.09600
G01 X-36.85398 Y4.85000
G01 X-38.09997 Y4.85000
G01 X-38.09997 Y4.42638
G01 X-38.01549 Y4.34188
G01 X-36.75441 Y4.34937
G01 X-36.65863 Y4.37843
G01 X-36.49302 Y4.48907
G01 X-36.38238 Y4.65468
G01 X-36.35332 Y4.75046
G01 X-36.34290 Y4.85610
G04 P0 ( dwell for no time -- G64 should not smooth over this point )
G00 Z5.00000 ( retract )

G00 X-38.60797 Y7.85002 ( rapid move to begin. )
G01 F90.00000
( Mill infeed pass 1/1 )
G01 Z-0.10000
G04 P0 ( dwell for no time -- G64 should not smooth over this point )
G01 F180.00000
G01 X-38.60797 Y7.85002
G01 X-39.85400 Y7.85002
G01 X-39.85400 Y6.60400
G01 X-40.27762 Y6.60400
G01 X-40.36212 Y6.68851
G01 X-40.35463 Y7.94959
G01 X-40.32557 Y8.04537
G01 X-40.21493 Y8.21098
G01 X-40.04932 Y8.32162
G01 X-39.95354 Y8.35068
G01 X-39.84790 Y8.36110
G01 X-38.69248 Y8.35817
G01 X-38.60797 Y8.27367
G01 X-38.60797 Y7.85002
G04 P0 ( dwell for no time -- G64 should not smooth over this point )
G00 Z5.00000 ( retract )

G00 X-30.95066 Y16.48336 ( rapid move to begin. )
G01 F90.00000
( Mill infeed pass 1/1 )
G01 Z-0.10000
G04 P0 ( dwell for no time -- G64 should not smooth over this point )
G01 F180.00000
G01 X-30.95066 Y16.48336
G01 X-30.97901 Y16.26494
G01 X-31.05211 Y16.05699
G01 X-31.16679 Y15.86878
G01 X-31.33090 Y15.67807
G01 X-31.33908 Y15.63698
G01 X-31.34838 Y13.97003
G01 X-31.36097 Y13.84216
G01 X-31.45887 Y13.60581
G01 X-34.07105 Y10.97496
G01 X-34.29307 Y10.82436
G01 X-34.55650 Y10.77384
G01 X-48.10999 Y10.77478
G01 X-48.23612 Y10.75921
G01 X-48.35474 Y10.66434
G01 X-51.74204 Y7.27532
G01 X-51.82103 Y7.17370
G01 X-51.83843 Y7.02440
G01 X-51.83843 Y4.86880
G01 X-51.85463 Y4.76453
G01 X-51.92337 Y4.66164
G01 X-52.05684 Y4.59859
G01 X-52.11277 Y4.59448
G01 X-55.07515 Y4.59448
G01 X-55.13108 Y4.59859
G01 X-55.24548 Y4.64599
G01 X-55.33332 Y4.76453
G01 X-55.34952 Y4.86885
G01 X-55.34952 Y7.83123
G01 X-55.33332 Y7.93554
G01 X-55.27269 Y8.02876
G01 X-55.17947 Y8.08937
G01 X-55.07520 Y8.10557
G01 X-52.91963 Y8.10557
G01 X-52.77030 Y8.12297
G01 X-52.66853 Y8.20212
G01 X-48.98685 Y11.88517
G01 X-48.76485 Y12.03571
G01 X-48.50140 Y12.08623
G01 X-34.94794 Y12.08527
G01 X-34.82185 Y12.10081
G01 X-34.70265 Y12.19627
G01 X-32.67306 Y14.24716
G01 X-32.65876 Y15.53380
G01 X-32.66884 Y15.63698
G01 X-32.67705 Y15.67807
G01 X-32.84116 Y15.86878
G01 X-32.95584 Y16.05699
G01 X-33.02894 Y16.26494
G01 X-33.05729 Y16.48336
G01 X-33.05327 Y16.61338
G01 X-33.01301 Y16.81615
G01 X-32.93407 Y17.00718
G01 X-32.81939 Y17.17932
G01 X-32.68983 Y17.31175
G01 X-32.55386 Y17.40913
G01 X-32.31058 Y17.52077
G01 X-32.08762 Y17.56184
G01 X-31.90039 Y17.56148
G01 X-31.69735 Y17.52077
G01 X-31.45409 Y17.40913
G01 X-31.31812 Y17.31180
G01 X-31.16677 Y17.15130
G01 X-31.07388 Y17.00718
G01 X-30.99493 Y16.81615
G01 X-30.95470 Y16.61343
G01 X-30.95066 Y16.48336
G04 P0 ( dwell for no time -- G64 should not smooth over this point )
G00 Z5.00000 ( retract )

G00 X-4.68244 Y2.48996 ( rapid move to begin. )
G01 F90.00000
( Mill infeed pass 1/1 )
G01 Z-0.10000
G04 P0 ( dwell for no time -- G64 should not smooth over this point )
G01 F180.00000
G01 X-4.68244 Y2.48996
G01 X-4.68389 Y2.60408
G01 X-4.71792 Y2.75600
G01 X-4.75661 Y2.84864
G01 X-4.82788 Y2.95537
G01 X-4.93517 Y3.05623
G01 X-5.08950 Y3.14681
G01 X-5.20629 Y3.18196
G01 X-5.32762 Y3.19420
G01 X-5.54987 Y3.15704
G01 X-5.74843 Y3.04505
G01 X-6.76326 Y2.03563
G01 X-6.88302 Y1.94376
G01 X-7.03270 Y1.92405
G01 X-37.95004 Y1.92527
G01 X-38.07610 Y1.94084
G01 X-38.19467 Y2.03563
G01 X-40.10165 Y3.94261
G01 X-40.19527 Y4.05958
G01 X-40.29042 Y4.25320
G01 X-40.32682 Y4.37337
G01 X-40.56941 Y4.46397
G01 X-40.72430 Y4.56875
G01 X-41.67231 Y5.51802
G01 X-41.77944 Y5.67281
G01 X-41.71356 Y6.01152
G01 X-41.68066 Y6.32338
G01 X-41.68828 Y6.52196
G01 X-41.75521 Y6.85924
G01 X-41.88658 Y7.17715
G01 X-42.07731 Y7.46341
G01 X-42.27944 Y7.67235
G01 X-42.53367 Y7.85594
G01 X-42.91670 Y8.02945
G01 X-43.26164 Y8.09968
G01 X-43.64421 Y8.09335
G01 X-43.95125 Y8.02942
G01 X-44.26194 Y7.89902
G01 X-44.58851 Y7.67235
G01 X-44.79061 Y7.46343
G01 X-44.86821 Y7.35912
G01 X-44.98134 Y7.17715
G01 X-45.04647 Y7.03882
G01 X-45.14365 Y6.74068
G01 X-45.17967 Y6.52196
G01 X-45.18729 Y6.32338
G01 X-45.15439 Y6.01152
G01 X-45.11271 Y5.84078
G01 X-45.04647 Y5.66125
G01 X-44.98137 Y5.52290
G01 X-44.83765 Y5.29712
G01 X-44.58851 Y5.02773
G01 X-44.26194 Y4.80103
G01 X-43.95125 Y4.67063
G01 X-43.64421 Y4.60670
G01 X-43.26110 Y4.60040
G01 X-42.75999 Y4.69793
G01 X-42.68658 Y4.65394
G01 X-42.58490 Y4.57487
G01 X-38.82682 Y0.81488
G01 X-38.60485 Y0.66434
G01 X-38.40386 Y0.61935
G01 X-6.60400 Y0.61445
G01 X-6.35307 Y0.66436
G01 X-6.13128 Y0.81473
G01 X-4.83786 Y2.11465
G01 X-4.72900 Y2.28945
G01 X-4.68244 Y2.48996

G04 P0 ( dwell for no time -- G64 should not smooth over this point )
G00 Z5.000000 ( retract )

M5 ( Spindle off. )
G04 P1.000000
M9 ( Coolant off. )
M2 ( Program end. )

