( pcb2gcode 2.4.0 )
( Software-independent Gcode )

G94 ( Millimeters per minute feed rate. )
G21 ( Units == Millimeters. )

G90 ( Absolute coordinates. )
G00 S10000 ( RPM spindle speed. )
G01 F180.00000 ( Feedrate. )


G00 Z5.00000 (Retract to tool change height)
T0
M5      (Spindle stop.)
G04 P1.00000 (Wait for spindle to stop)
(MSG, Change tool bit to mill diameter 0.20000mm)
M6      (Tool change.)
M0      (Temporary machine stop.)
M3 ( Spindle on clockwise. )
G04 P1.00000 (Wait for spindle to get up to speed)
G04 P0 ( dwell for no time -- G64 should not smooth over this point )
G00 Z5.00000 ( retract )

G00 X-1.33198 Y57.79132 ( rapid move to begin. )
G01 F90.00000
( Mill infeed pass 1/1 )
G01 Z-0.10000
G04 P0 ( dwell for no time -- G64 should not smooth over this point )
G01 F180.00000
G01 X-1.33198 Y57.79132
G01 X-1.38608 Y57.51932
G01 X-1.49223 Y57.26306
G01 X-1.64630 Y57.03250
G01 X-1.84244 Y56.83636
G01 X-2.07302 Y56.68228
G01 X-2.32931 Y56.57614
G01 X-2.60132 Y56.52204
G01 X-2.87863 Y56.52204
G01 X-3.15069 Y56.57614
G01 X-3.40690 Y56.68226
G01 X-3.63751 Y56.83636
G01 X-3.83367 Y57.03253
G01 X-3.93535 Y57.18277
G01 X-4.01665 Y57.24909
G01 X-4.06415 Y57.26234
G01 X-4.43479 Y57.26946
G01 X-4.56131 Y57.20555
G01 X-5.49262 Y56.27423
G01 X-5.55826 Y56.13349
G01 X-5.54772 Y56.04393
G01 X-5.49257 Y55.95315
G01 X-2.27556 Y52.74132
G01 X-2.19024 Y52.63739
G01 X-2.12913 Y52.52303
G01 X-2.09149 Y52.39898
G01 X-2.07830 Y52.26510
G01 X-2.07830 Y6.10514
G01 X-2.09149 Y5.97126
G01 X-2.12910 Y5.84723
G01 X-2.19022 Y5.73291
G01 X-2.27554 Y5.62892
G01 X-2.79756 Y5.10692
G01 X-2.90157 Y5.02155
G01 X-3.01582 Y4.96049
G01 X-3.13987 Y4.92285
G01 X-3.27381 Y4.90967
G01 X-19.68104 Y4.90967
G01 X-19.81497 Y4.92285
G01 X-19.93903 Y4.96049
G01 X-20.05330 Y5.02155
G01 X-20.15739 Y5.10700
G01 X-23.28253 Y8.21794
G01 X-23.37031 Y8.23867
G01 X-23.46371 Y8.22216
G01 X-23.75898 Y8.01901
G01 X-23.97763 Y7.92846
G01 X-24.21098 Y7.88203
G01 X-24.44920 Y7.88203
G01 X-24.79231 Y7.94863
G01 X-24.84285 Y7.94537
G01 X-24.95047 Y7.88284
G01 X-25.01356 Y7.72589
G01 X-24.94707 Y7.56539
G01 X-19.57619 Y2.19451
G01 X-19.47261 Y2.13578
G01 X-3.27843 Y2.12801
G01 X-2.97538 Y2.24704
G01 X-2.81958 Y2.27802
G01 X-2.66037 Y2.27802
G01 X-2.50429 Y2.24699
G01 X-2.35722 Y2.18605
G01 X-2.22491 Y2.09766
G01 X-2.11234 Y1.98509
G01 X-2.02392 Y1.85275
G01 X-1.96301 Y1.70569
G01 X-1.93195 Y1.54960
G01 X-1.93195 Y1.39045
G01 X-1.96301 Y1.23436
G01 X-2.02392 Y1.08730
G01 X-2.11234 Y0.95496
G01 X-2.22489 Y0.84242
G01 X-2.35722 Y0.75400
G01 X-2.50429 Y0.69306
G01 X-2.66040 Y0.66200
G01 X-2.81955 Y0.66200
G01 X-2.97538 Y0.69301
G01 X-3.27843 Y0.81204
G01 X-19.77735 Y0.80836
G01 X-19.91121 Y0.82154
G01 X-20.03529 Y0.85918
G01 X-20.14957 Y0.92027
G01 X-20.25358 Y1.00564
G01 X-29.87439 Y10.62642
G01 X-29.95973 Y10.73041
G01 X-30.02084 Y10.84473
G01 X-30.05846 Y10.96879
G01 X-30.07164 Y11.10265
G01 X-30.07175 Y15.69451
G01 X-30.13446 Y15.81396
G01 X-30.51589 Y16.19540
G01 X-30.66044 Y16.26131
G01 X-30.75188 Y16.24856
G01 X-30.83372 Y16.19791
G01 X-31.01157 Y15.94005
G01 X-31.17990 Y15.77172
G01 X-31.37776 Y15.63952
G01 X-31.59763 Y15.54846
G01 X-31.83006 Y15.50220
G01 X-32.15698 Y15.50693
G01 X-32.28693 Y15.44251
G01 X-38.88356 Y8.84588
G01 X-38.94811 Y8.70504
G01 X-38.94249 Y8.64730
G01 X-38.87465 Y8.51698
G01 X-38.78115 Y8.46648
G01 X-38.68090 Y8.45917
G01 X-38.65400 Y8.43227
G01 X-38.65400 Y8.15002
G01 X-39.80000 Y8.15002
G01 X-39.84249 Y8.14014
G01 X-39.88313 Y8.10557
G01 X-39.90000 Y8.05002
G01 X-39.89238 Y5.01175
G01 X-39.85555 Y4.96687
G01 X-39.80000 Y4.95000
G01 X-38.65400 Y4.95000
G01 X-38.65400 Y4.66778
G01 X-38.68001 Y4.64177
G01 X-39.78910 Y4.63898
G01 X-39.87498 Y4.64744
G01 X-40.03162 Y4.71231
G01 X-40.08603 Y4.75696
G01 X-40.18018 Y4.89791
G01 X-40.20208 Y4.97009
G01 X-40.21806 Y5.69745
G01 X-40.29629 Y5.81795
G01 X-40.45008 Y5.86608
G01 X-40.59720 Y5.79986
G01 X-42.14790 Y4.24398
G01 X-42.25186 Y4.15867
G01 X-42.36616 Y4.09758
G01 X-42.49019 Y4.05994
G01 X-42.62410 Y4.04675
G01 X-49.86815 Y4.04675
G01 X-50.00203 Y4.05994
G01 X-50.12609 Y4.09758
G01 X-50.24044 Y4.15869
G01 X-50.34432 Y4.24393
G01 X-51.24696 Y5.15176
G01 X-51.39558 Y5.21805
G01 X-51.51163 Y5.19275
G01 X-51.57376 Y5.14475
G01 X-51.60406 Y5.09669
G01 X-51.66032 Y4.89704
G01 X-51.75392 Y4.75696
G01 X-51.80836 Y4.71231
G01 X-51.96497 Y4.64744
G01 X-55.02885 Y4.63895
G01 X-55.19209 Y4.66982
G01 X-55.32882 Y4.76118
G01 X-55.42018 Y4.89788
G01 X-55.45105 Y5.06120
G01 X-55.45105 Y8.03885
G01 X-55.42018 Y8.20217
G01 X-55.32885 Y8.33887
G01 X-55.19209 Y8.43023
G01 X-55.02880 Y8.46110
G01 X-52.05115 Y8.46110
G01 X-51.96500 Y8.45261
G01 X-51.81303 Y8.38967
G01 X-51.70033 Y8.27700
G01 X-51.63904 Y8.12904
G01 X-51.62888 Y7.37860
G01 X-51.59065 Y7.25427
G01 X-51.51704 Y7.18487
G01 X-51.34618 Y7.09882
G01 X-51.24323 Y7.01434
G01 X-49.59335 Y5.38371
G01 X-45.29486 Y5.36644
G01 X-45.16064 Y5.41053
G01 X-45.08912 Y5.49768
G01 X-45.07027 Y5.62453
G01 X-45.21457 Y5.99316
G01 X-45.28797 Y6.36212
G01 X-45.28797 Y6.73791
G01 X-45.21464 Y7.10656
G01 X-45.07080 Y7.45383
G01 X-44.86201 Y7.76633
G01 X-44.59628 Y8.03206
G01 X-44.28305 Y8.24134
G01 X-44.14068 Y8.30443
G01 X-44.05353 Y8.41192
G01 X-44.04167 Y10.35497
G01 X-44.02846 Y10.48903
G01 X-43.99084 Y10.61306
G01 X-43.92973 Y10.72736
G01 X-43.84436 Y10.83137
G01 X-34.96130 Y19.71444
G01 X-34.85733 Y19.79978
G01 X-34.74301 Y19.86090
G01 X-34.61898 Y19.89856
G01 X-34.48512 Y19.91170
G01 X-32.64482 Y19.91170
G01 X-32.51098 Y19.89856
G01 X-32.38696 Y19.86090
G01 X-32.27263 Y19.79978
G01 X-32.16864 Y19.71444
G01 X-28.94564 Y16.49146
G01 X-28.86022 Y16.38737
G01 X-28.79910 Y16.27309
G01 X-28.76149 Y16.14902
G01 X-28.74830 Y16.01506
G01 X-28.73472 Y11.37752
G01 X-25.85479 Y8.47311
G01 X-25.69411 Y8.40644
G01 X-25.59553 Y8.42950
G01 X-25.51123 Y8.49940
G01 X-25.46718 Y8.63778
G01 X-25.53797 Y8.97192
G01 X-25.53797 Y9.20897
G01 X-25.49154 Y9.44240
G01 X-25.40048 Y9.66221
G01 X-25.26830 Y9.86008
G01 X-25.09980 Y10.02858
G01 X-24.85426 Y10.19698
G01 X-24.78611 Y10.33978
G01 X-24.79711 Y10.43132
G01 X-24.84638 Y10.51443
G01 X-25.09980 Y10.69147
G01 X-25.26828 Y10.85995
G01 X-25.40048 Y11.05781
G01 X-25.49154 Y11.27763
G01 X-25.53797 Y11.51108
G01 X-25.53797 Y11.74897
G01 X-25.49154 Y11.98242
G01 X-25.40051 Y12.20221
G01 X-25.26828 Y12.40010
G01 X-25.09980 Y12.56858
G01 X-24.85426 Y12.73698
G01 X-24.78573 Y12.89091
G01 X-24.80295 Y12.98697
G01 X-24.85433 Y13.06312
G01 X-25.09977 Y13.23144
G01 X-25.26828 Y13.39995
G01 X-25.40048 Y13.59781
G01 X-25.49154 Y13.81763
G01 X-25.53797 Y14.05108
G01 X-25.53797 Y14.28897
G01 X-25.49154 Y14.52240
G01 X-25.40051 Y14.74221
G01 X-25.26830 Y14.94010
G01 X-25.09980 Y15.10858
G01 X-24.85426 Y15.27696
G01 X-24.78611 Y15.41976
G01 X-24.79711 Y15.51132
G01 X-24.84638 Y15.59443
G01 X-25.09980 Y15.77150
G01 X-25.26833 Y15.94000
G01 X-25.40048 Y16.13784
G01 X-25.49154 Y16.35768
G01 X-25.53800 Y16.59108
G01 X-25.53800 Y16.82902
G01 X-25.49154 Y17.06242
G01 X-25.40048 Y17.28224
G01 X-25.26828 Y17.48013
G01 X-25.09982 Y17.64858
G01 X-24.85426 Y17.81701
G01 X-24.78611 Y17.95986
G01 X-24.79713 Y18.05137
G01 X-24.84641 Y18.13448
G01 X-25.09980 Y18.31147
G01 X-25.26830 Y18.47997
G01 X-25.40051 Y18.67784
G01 X-25.49154 Y18.89763
G01 X-25.53797 Y19.13110
G01 X-25.53797 Y19.36900
G01 X-25.49154 Y19.60242
G01 X-25.40048 Y19.82221
G01 X-25.26830 Y20.02010
G01 X-25.09982 Y20.18858
G01 X-24.85428 Y20.35696
G01 X-24.78611 Y20.49976
G01 X-24.79711 Y20.59132
G01 X-24.84638 Y20.67443
G01 X-25.09980 Y20.85147
G01 X-25.26830 Y21.01997
G01 X-25.40051 Y21.21784
G01 X-25.49154 Y21.43763
G01 X-25.53797 Y21.67108
G01 X-25.53797 Y21.90897
G01 X-25.49154 Y22.14240
G01 X-25.40048 Y22.36221
G01 X-25.26830 Y22.56008
G01 X-25.09980 Y22.72858
G01 X-24.85426 Y22.89698
G01 X-24.78611 Y23.03978
G01 X-24.79711 Y23.13132
G01 X-24.85641 Y23.22507
G01 X-25.09959 Y23.39132
G01 X-25.36322 Y23.64806
G01 X-25.46452 Y23.67204
G01 X-29.04340 Y23.67204
G01 X-29.14165 Y23.64956
G01 X-30.70639 Y22.09881
G01 X-30.74797 Y21.97583
G01 X-30.74218 Y21.66991
G01 X-30.78841 Y21.43763
G01 X-30.87947 Y21.21781
G01 X-31.01165 Y21.01997
G01 X-31.17990 Y20.85172
G01 X-31.37781 Y20.71949
G01 X-31.59763 Y20.62846
G01 X-31.83100 Y20.58203
G01 X-32.06897 Y20.58203
G01 X-32.30232 Y20.62846
G01 X-32.52216 Y20.71949
G01 X-32.71911 Y20.85109
G01 X-32.93133 Y21.07146
G01 X-33.04748 Y21.12899
G01 X-35.53803 Y21.13204
G01 X-35.63640 Y21.10953
G01 X-40.51331 Y16.24566
G01 X-40.61732 Y16.16032
G01 X-40.73167 Y16.09916
G01 X-40.85755 Y16.06103
G01 X-41.07769 Y16.02529
G01 X-41.33980 Y15.77183
G01 X-41.53776 Y15.63952
G01 X-41.75763 Y15.54846
G01 X-41.99100 Y15.50203
G01 X-42.22897 Y15.50203
G01 X-42.46235 Y15.54846
G01 X-42.68221 Y15.63952
G01 X-42.88005 Y15.77172
G01 X-43.04830 Y15.93997
G01 X-43.18048 Y16.13784
G01 X-43.27154 Y16.35768
G01 X-43.31800 Y16.59108
G01 X-43.31800 Y16.82900
G01 X-43.27154 Y17.06240
G01 X-43.18048 Y17.28224
G01 X-43.04828 Y17.48013
G01 X-42.88005 Y17.64835
G01 X-42.68214 Y17.78056
G01 X-42.46235 Y17.87159
G01 X-42.22897 Y17.91805
G01 X-41.99100 Y17.91805
G01 X-41.75763 Y17.87159
G01 X-41.53898 Y17.78104
G01 X-41.24371 Y17.57789
G01 X-41.13002 Y17.56286
G01 X-41.02585 Y17.60365
G01 X-36.37605 Y22.25439
G01 X-36.27196 Y22.33981
G01 X-36.15771 Y22.40090
G01 X-36.03366 Y22.43851
G01 X-35.89970 Y22.45170
G01 X-33.02462 Y22.45660
G01 X-32.92810 Y22.51113
G01 X-32.71909 Y22.72899
G01 X-32.52213 Y22.86056
G01 X-32.30232 Y22.95159
G01 X-32.07007 Y22.99782
G01 X-31.76417 Y22.99203
G01 X-31.64126 Y23.03356
G01 X-29.88127 Y24.79444
G01 X-29.77731 Y24.87978
G01 X-29.66298 Y24.94090
G01 X-29.53896 Y24.97851
G01 X-29.40512 Y24.99170
G01 X-25.42756 Y24.99106
G01 X-25.31133 Y25.04859
G01 X-25.09817 Y25.26993
G01 X-24.83000 Y25.46469
G01 X-24.78580 Y25.58423
G01 X-24.81872 Y25.71687
G01 X-24.85151 Y25.75598
G01 X-25.09911 Y25.93078
G01 X-25.26828 Y26.09995
G01 X-25.40048 Y26.29781
G01 X-25.49154 Y26.51763
G01 X-25.53797 Y26.75108
G01 X-25.53797 Y26.98897
G01 X-25.49154 Y27.22240
G01 X-25.40051 Y27.44221
G01 X-25.26830 Y27.64010
G01 X-25.09980 Y27.80858
G01 X-24.85426 Y27.97698
G01 X-24.78611 Y28.11978
G01 X-24.79711 Y28.21132
G01 X-24.84638 Y28.29443
G01 X-25.09980 Y28.47147
G01 X-25.26830 Y28.64000
G01 X-25.40048 Y28.83784
G01 X-25.49154 Y29.05765
G01 X-25.53797 Y29.29108
G01 X-25.53797 Y29.52897
G01 X-25.49154 Y29.76242
G01 X-25.40048 Y29.98221
G01 X-25.26830 Y30.18008
G01 X-25.09980 Y30.34858
G01 X-24.85426 Y30.51698
G01 X-24.78611 Y30.65978
G01 X-24.79711 Y30.75132
G01 X-24.84638 Y30.83443
G01 X-25.09977 Y31.01144
G01 X-25.26828 Y31.17995
G01 X-25.40051 Y31.37784
G01 X-25.49154 Y31.59763
G01 X-25.53797 Y31.83108
G01 X-25.53797 Y32.06897
G01 X-25.49154 Y32.30242
G01 X-25.40051 Y32.52221
G01 X-25.26828 Y32.72010
G01 X-25.09980 Y32.88858
G01 X-24.85426 Y33.05698
G01 X-24.78611 Y33.19978
G01 X-24.79711 Y33.29132
G01 X-24.84638 Y33.37443
G01 X-25.09980 Y33.55147
G01 X-25.26830 Y33.71997
G01 X-25.40051 Y33.91784
G01 X-25.49154 Y34.13763
G01 X-25.53797 Y34.37108
G01 X-25.53797 Y34.60897
G01 X-25.49154 Y34.84240
G01 X-25.40048 Y35.06221
G01 X-25.26830 Y35.26008
G01 X-25.09980 Y35.42858
G01 X-24.85426 Y35.59698
G01 X-24.78611 Y35.73978
G01 X-24.79711 Y35.83132
G01 X-24.84638 Y35.91443
G01 X-25.09980 Y36.09147
G01 X-25.26828 Y36.25995
G01 X-25.40048 Y36.45781
G01 X-25.49154 Y36.67763
G01 X-25.53797 Y36.91108
G01 X-25.53797 Y37.14897
G01 X-25.49154 Y37.38242
G01 X-25.40051 Y37.60221
G01 X-25.26828 Y37.80010
G01 X-25.09980 Y37.96858
G01 X-24.85426 Y38.13698
G01 X-24.78611 Y38.27978
G01 X-24.79711 Y38.37132
G01 X-24.84638 Y38.45443
G01 X-25.09977 Y38.63144
G01 X-25.26828 Y38.79995
G01 X-25.40048 Y38.99781
G01 X-25.49154 Y39.21763
G01 X-25.53797 Y39.45108
G01 X-25.53797 Y39.68897
G01 X-25.49154 Y39.92240
G01 X-25.40051 Y40.14221
G01 X-25.26830 Y40.34010
G01 X-25.10010 Y40.50830
G01 X-24.84219 Y40.68204
G01 X-24.77272 Y40.82918
G01 X-24.78611 Y40.92334
G01 X-24.83978 Y41.00716
G01 X-25.04882 Y41.14048
G01 X-25.22444 Y41.29977
G01 X-25.36434 Y41.48846
G01 X-25.47361 Y41.74142
G01 X-25.46561 Y41.75603
G01 X-25.15667 Y41.75600
G01 X-25.05809 Y41.58099
G01 X-24.92408 Y41.43459
G01 X-24.77999 Y41.33060
G01 X-24.61788 Y41.25780
G01 X-24.41362 Y41.21440
G01 X-24.23592 Y41.21495
G01 X-24.06198 Y41.25135
G01 X-23.87999 Y41.33060
G01 X-23.72777 Y41.44119
G01 X-23.60846 Y41.57287
G01 X-23.50331 Y41.75600
G01 X-23.19434 Y41.75603
G01 X-23.18634 Y41.74142
G01 X-23.29561 Y41.48846
G01 X-23.43551 Y41.29977
G01 X-23.61115 Y41.14048
G01 X-23.81176 Y41.01567
G01 X-23.88649 Y40.87094
G01 X-23.87643 Y40.77637
G01 X-23.82578 Y40.69077
G01 X-23.55987 Y40.50830
G01 X-23.39167 Y40.34010
G01 X-23.25944 Y40.14221
G01 X-23.16841 Y39.92237
G01 X-23.12198 Y39.68897
G01 X-23.12198 Y39.45108
G01 X-23.16841 Y39.21768
G01 X-23.25947 Y38.99781
G01 X-23.39165 Y38.79997
G01 X-23.56015 Y38.63147
G01 X-23.80562 Y38.46312
G01 X-23.85700 Y38.38697
G01 X-23.87422 Y38.29091
G01 X-23.80569 Y38.13698
G01 X-23.56015 Y37.96858
G01 X-23.39165 Y37.80008
G01 X-23.25944 Y37.60221
G01 X-23.16841 Y37.38237
G01 X-23.12198 Y37.14897
G01 X-23.12198 Y36.91108
G01 X-23.16841 Y36.67765
G01 X-23.25944 Y36.45784
G01 X-23.39167 Y36.25995
G01 X-23.56015 Y36.09147
G01 X-23.80562 Y35.92312
G01 X-23.85700 Y35.84697
G01 X-23.87422 Y35.75091
G01 X-23.80569 Y35.59698
G01 X-23.56013 Y35.42856
G01 X-23.39167 Y35.26010
G01 X-23.25944 Y35.06221
G01 X-23.16841 Y34.84237
G01 X-23.12198 Y34.60897
G01 X-23.12198 Y34.37108
G01 X-23.16841 Y34.13768
G01 X-23.25944 Y33.91784
G01 X-23.39165 Y33.71997
G01 X-23.56018 Y33.55144
G01 X-23.80562 Y33.38312
G01 X-23.85700 Y33.30697
G01 X-23.87422 Y33.21091
G01 X-23.80569 Y33.05698
G01 X-23.56013 Y32.88856
G01 X-23.39165 Y32.72008
G01 X-23.25944 Y32.52224
G01 X-23.16841 Y32.30237
G01 X-23.12198 Y32.06897
G01 X-23.12198 Y31.83108
G01 X-23.16841 Y31.59765
G01 X-23.25944 Y31.37784
G01 X-23.39167 Y31.17995
G01 X-23.56015 Y31.01147
G01 X-23.80562 Y30.84312
G01 X-23.85700 Y30.76697
G01 X-23.87422 Y30.67091
G01 X-23.80569 Y30.51698
G01 X-23.56015 Y30.34858
G01 X-23.39165 Y30.18008
G01 X-23.25944 Y29.98221
G01 X-23.16841 Y29.76240
G01 X-23.12198 Y29.52897
G01 X-23.12198 Y29.29108
G01 X-23.16841 Y29.05768
G01 X-23.25944 Y28.83784
G01 X-23.39167 Y28.63995
G01 X-23.56015 Y28.47147
G01 X-23.80562 Y28.30312
G01 X-23.85700 Y28.22697
G01 X-23.87422 Y28.13091
G01 X-23.80569 Y27.97698
G01 X-23.56013 Y27.80856
G01 X-23.39167 Y27.64010
G01 X-23.25944 Y27.44221
G01 X-23.16841 Y27.22237
G01 X-23.12198 Y26.98897
G01 X-23.12198 Y26.75108
G01 X-23.16841 Y26.51768
G01 X-23.25947 Y26.29781
G01 X-23.39165 Y26.09997
G01 X-23.56015 Y25.93147
G01 X-23.80562 Y25.76312
G01 X-23.85700 Y25.68697
G01 X-23.87422 Y25.59091
G01 X-23.80569 Y25.43698
G01 X-23.56015 Y25.26858
G01 X-23.39165 Y25.10008
G01 X-23.25944 Y24.90221
G01 X-23.16841 Y24.68237
G01 X-23.12198 Y24.44897
G01 X-23.12198 Y24.21108
G01 X-23.16841 Y23.97765
G01 X-23.25944 Y23.75784
G01 X-23.39167 Y23.55995
G01 X-23.56015 Y23.39147
G01 X-23.80562 Y23.22312
G01 X-23.85700 Y23.14697
G01 X-23.87422 Y23.05091
G01 X-23.80569 Y22.89698
G01 X-23.56013 Y22.72856
G01 X-23.39167 Y22.56010
G01 X-23.25944 Y22.36221
G01 X-23.16841 Y22.14237
G01 X-23.12198 Y21.90897
G01 X-23.12198 Y21.67108
G01 X-23.16841 Y21.43768
G01 X-23.25944 Y21.21784
G01 X-23.39165 Y21.01997
G01 X-23.56018 Y20.85144
G01 X-23.80562 Y20.68312
G01 X-23.85700 Y20.60697
G01 X-23.87422 Y20.51091
G01 X-23.80567 Y20.35696
G01 X-23.56015 Y20.18861
G01 X-23.39165 Y20.02008
G01 X-23.25944 Y19.82224
G01 X-23.16841 Y19.60240
G01 X-23.12198 Y19.36900
G01 X-23.12198 Y19.13110
G01 X-23.16841 Y18.89765
G01 X-23.25944 Y18.67784
G01 X-23.39165 Y18.47997
G01 X-23.56015 Y18.31147
G01 X-23.80559 Y18.14319
G01 X-23.85700 Y18.06702
G01 X-23.87422 Y17.97098
G01 X-23.80569 Y17.81701
G01 X-23.56015 Y17.64858
G01 X-23.39167 Y17.48013
G01 X-23.25947 Y17.28224
G01 X-23.16841 Y17.06240
G01 X-23.12195 Y16.82900
G01 X-23.12195 Y16.59108
G01 X-23.16841 Y16.35768
G01 X-23.25944 Y16.13784
G01 X-23.39162 Y15.94000
G01 X-23.56015 Y15.77150
G01 X-23.80562 Y15.60314
G01 X-23.85700 Y15.52694
G01 X-23.87422 Y15.43091
G01 X-23.80569 Y15.27696
G01 X-23.56013 Y15.10856
G01 X-23.39167 Y14.94010
G01 X-23.25944 Y14.74221
G01 X-23.16841 Y14.52237
G01 X-23.12198 Y14.28897
G01 X-23.12198 Y14.05108
G01 X-23.16841 Y13.81768
G01 X-23.25947 Y13.59781
G01 X-23.39165 Y13.39997
G01 X-23.56015 Y13.23147
G01 X-23.80562 Y13.06312
G01 X-23.85700 Y12.98697
G01 X-23.87422 Y12.89091
G01 X-23.80569 Y12.73698
G01 X-23.56015 Y12.56858
G01 X-23.39165 Y12.40008
G01 X-23.25944 Y12.20221
G01 X-23.16841 Y11.98237
G01 X-23.12198 Y11.74897
G01 X-23.12198 Y11.51108
G01 X-23.16841 Y11.27765
G01 X-23.25944 Y11.05784
G01 X-23.39167 Y10.85995
G01 X-23.56081 Y10.69078
G01 X-23.83818 Y10.48283
G01 X-23.87415 Y10.37577
G01 X-23.83259 Y10.22828
G01 X-23.56137 Y10.02965
G01 X-23.32121 Y9.78855
G01 X-23.23318 Y9.75490
G01 X-23.07567 Y9.73851
G01 X-22.95167 Y9.70090
G01 X-22.83734 Y9.63978
G01 X-22.73336 Y9.55441
G01 X-19.47997 Y6.29587
G01 X-19.36049 Y6.23311
G01 X-3.63548 Y6.22933
G01 X-3.54010 Y6.25064
G01 X-3.46253 Y6.30827
G01 X-3.39796 Y6.46681
G01 X-3.40175 Y51.94450
G01 X-3.46448 Y52.06398
G01 X-6.39684 Y54.99237
G01 X-6.51500 Y55.03454
G01 X-6.99917 Y55.03210
G01 X-7.13268 Y55.04523
G01 X-7.25670 Y55.08287
G01 X-7.37100 Y55.14396
G01 X-7.47512 Y55.22943
G01 X-8.78136 Y56.52874
G01 X-8.90303 Y56.55871
G01 X-9.10090 Y56.52201
G01 X-9.37865 Y56.52201
G01 X-9.65065 Y56.57614
G01 X-9.90694 Y56.68228
G01 X-10.13752 Y56.83636
G01 X-10.33366 Y57.03250
G01 X-10.48774 Y57.26308
G01 X-10.59386 Y57.51934
G01 X-10.64796 Y57.79132
G01 X-10.64796 Y58.06872
G01 X-10.59386 Y58.34070
G01 X-10.48771 Y58.59699
G01 X-10.33366 Y58.82757
G01 X-10.13755 Y59.02368
G01 X-9.90689 Y59.17778
G01 X-9.65068 Y59.28393
G01 X-9.37867 Y59.33801
G01 X-9.10128 Y59.33801
G01 X-8.82924 Y59.28393
G01 X-8.57301 Y59.17778
G01 X-8.34240 Y59.02368
G01 X-8.14631 Y58.82757
G01 X-7.99221 Y58.59696
G01 X-7.88609 Y58.34073
G01 X-7.83199 Y58.06869
G01 X-7.83196 Y57.79094
G01 X-7.86867 Y57.59308
G01 X-7.84784 Y57.48825
G01 X-7.16471 Y56.78531
G01 X-7.04474 Y56.72209
G01 X-6.94677 Y56.72607
G01 X-6.84307 Y56.78493
G01 X-5.23865 Y58.39450
G01 X-5.13474 Y58.47977
G01 X-5.02044 Y58.54088
G01 X-4.89638 Y58.57852
G01 X-4.03235 Y58.60369
G01 X-3.93535 Y58.67730
G01 X-3.83365 Y58.82757
G01 X-3.63756 Y59.02368
G01 X-3.40693 Y59.17778
G01 X-3.15067 Y59.28393
G01 X-2.87866 Y59.33803
G01 X-2.60129 Y59.33803
G01 X-2.32926 Y59.28393
G01 X-2.07302 Y59.17778
G01 X-1.84244 Y59.02371
G01 X-1.64630 Y58.82759
G01 X-1.49220 Y58.59696
G01 X-1.38608 Y58.34073
G01 X-1.33198 Y58.06872
G01 X-1.33198 Y57.79132
G01 X-1.63998 Y57.93001
G01 X-1.66403 Y57.70131
G01 X-1.73510 Y57.48261
G01 X-1.85006 Y57.28345
G01 X-2.00393 Y57.11256
G01 X-2.18999 Y56.97738
G01 X-2.39029 Y56.88759
G01 X-2.62501 Y56.83603
G01 X-2.85496 Y56.83603
G01 X-3.06979 Y56.88114
G01 X-3.28999 Y56.97738
G01 X-3.47604 Y57.11256
G01 X-3.62991 Y57.28345
G01 X-3.74487 Y57.48261
G01 X-3.77711 Y57.58002
G01 X-4.62239 Y57.58002
G01 X-6.16135 Y56.04106
G01 X-6.01927 Y56.01160
G01 X-5.91619 Y55.94121
G01 X-2.49250 Y52.51750
G01 X-2.41663 Y52.40396
G01 X-2.38999 Y52.27000
G01 X-2.38999 Y6.10022
G01 X-2.41663 Y5.96628
G01 X-2.48006 Y5.86791
G01 X-3.02138 Y5.32384
G01 X-3.15095 Y5.24220
G01 X-3.26890 Y5.22133
G01 X-19.75107 Y5.22747
G01 X-19.93346 Y5.32384
G01 X-23.34964 Y8.74001
G01 X-23.50201 Y8.74001
G01 X-23.60846 Y8.55287
G01 X-23.72777 Y8.42119
G01 X-23.88931 Y8.30583
G01 X-24.05187 Y8.23407
G01 X-24.22558 Y8.19658
G01 X-24.43439 Y8.19658
G01 X-24.60810 Y8.23407
G01 X-24.77999 Y8.31060
G01 X-24.93221 Y8.42119
G01 X-25.05151 Y8.55287
G01 X-25.15593 Y8.73371
G01 X-25.21031 Y8.90290
G01 X-25.23000 Y9.09000
G01 X-25.20762 Y9.28726
G01 X-25.15217 Y9.45606
G01 X-25.06381 Y9.61024
G01 X-24.93221 Y9.75883
G01 X-24.77999 Y9.86942
G01 X-24.60810 Y9.94595
G01 X-24.41362 Y9.98563
G01 X-24.23592 Y9.98507
G01 X-24.06198 Y9.94867
G01 X-23.87999 Y9.86942
G01 X-23.72777 Y9.75883
G01 X-23.60846 Y9.62716
G01 X-23.50201 Y9.44001
G01 X-23.19000 Y9.43892
G01 X-22.99513 Y9.36866
G01 X-19.54106 Y5.92132
G01 X-3.41384 Y5.92132
G01 X-3.08999 Y6.24520
G01 X-3.08999 Y52.12504
G01 X-6.30865 Y55.34373
G01 X-7.00369 Y55.34373
G01 X-7.20070 Y55.40449
G01 X-8.75426 Y56.94954
G01 X-8.89965 Y56.88399
G01 X-9.11466 Y56.83768
G01 X-9.34451 Y56.83550
G01 X-9.57992 Y56.88386
G01 X-9.79000 Y56.97738
G01 X-9.97603 Y57.11256
G01 X-10.13562 Y57.29221
G01 X-10.24489 Y57.48261
G01 X-10.31324 Y57.69120
G01 X-10.33998 Y57.93001
G01 X-10.31324 Y58.16882
G01 X-10.24489 Y58.37743
G01 X-10.13562 Y58.56780
G01 X-9.97603 Y58.74748
G01 X-9.79000 Y58.88264
G01 X-9.57992 Y58.97618
G01 X-9.34451 Y59.02455
G01 X-9.12500 Y59.02399
G01 X-8.91017 Y58.97888
G01 X-8.68998 Y58.88264
G01 X-8.50395 Y58.74748
G01 X-8.35007 Y58.57657
G01 X-8.23509 Y58.37743
G01 X-8.16674 Y58.16882
G01 X-8.13999 Y57.93001
G01 X-8.16239 Y57.71165
G01 X-8.25757 Y57.44258
G01 X-7.00357 Y56.18858
G01 X-4.96440 Y58.21924
G01 X-4.76738 Y58.28002
G01 X-3.77711 Y58.28002
G01 X-3.74487 Y58.37743
G01 X-3.63560 Y58.56780
G01 X-3.47604 Y58.74748
G01 X-3.28999 Y58.88264
G01 X-3.07990 Y58.97618
G01 X-2.85496 Y59.02399
G01 X-2.62501 Y59.02399
G01 X-2.40007 Y58.97618
G01 X-2.18120 Y58.87695
G01 X-2.00393 Y58.74748
G01 X-1.85666 Y58.58472
G01 X-1.73985 Y58.38675
G01 X-1.66403 Y58.15871
G01 X-1.63998 Y57.93001
G04 P0 ( dwell for no time -- G64 should not smooth over this point )
G00 Z5.00000 ( retract )

G00 X-7.87893 Y45.43920 ( rapid move to begin. )
G01 F90.00000
( Mill infeed pass 1/1 )
G01 Z-0.10000
G04 P0 ( dwell for no time -- G64 should not smooth over this point )
G01 F180.00000
G01 X-7.87893 Y45.43920
G01 X-7.88919 Y43.77065
G01 X-7.95228 Y43.61838
G01 X-7.99691 Y43.56400
G01 X-8.13961 Y43.46865
G01 X-8.31500 Y43.40121
G01 X-8.37532 Y43.32719
G01 X-8.40067 Y43.22526
G01 X-8.36013 Y43.09354
G01 X-8.15188 Y42.88041
G01 X-8.01944 Y42.68221
G01 X-7.92841 Y42.46240
G01 X-7.88198 Y42.22897
G01 X-7.88198 Y41.99108
G01 X-7.92841 Y41.75765
G01 X-8.01944 Y41.53784
G01 X-8.15165 Y41.33997
G01 X-8.32015 Y41.17144
G01 X-8.56569 Y41.00304
G01 X-8.63422 Y40.84909
G01 X-8.61700 Y40.75306
G01 X-8.56559 Y40.67688
G01 X-8.32015 Y40.50858
G01 X-8.15165 Y40.34010
G01 X-8.01944 Y40.14221
G01 X-7.92841 Y39.92240
G01 X-7.88198 Y39.68897
G01 X-7.88198 Y39.45108
G01 X-7.92841 Y39.21765
G01 X-8.01944 Y38.99784
G01 X-8.15165 Y38.79997
G01 X-8.31987 Y38.63175
G01 X-8.58952 Y38.44440
G01 X-8.64418 Y38.32901
G01 X-8.63897 Y38.23117
G01 X-8.56943 Y38.12238
G01 X-8.37115 Y37.99957
G01 X-8.19551 Y37.84029
G01 X-8.05561 Y37.65159
G01 X-7.94631 Y37.39863
G01 X-7.95434 Y37.38403
G01 X-8.26331 Y37.38403
G01 X-8.36846 Y37.56716
G01 X-8.48777 Y37.69883
G01 X-8.63999 Y37.80942
G01 X-8.82198 Y37.88867
G01 X-8.99592 Y37.92507
G01 X-9.17362 Y37.92563
G01 X-9.37788 Y37.88222
G01 X-9.53999 Y37.80942
G01 X-9.68408 Y37.70544
G01 X-9.81809 Y37.55903
G01 X-9.91667 Y37.38403
G01 X-10.22561 Y37.38403
G01 X-10.23361 Y37.39860
G01 X-10.12431 Y37.65161
G01 X-9.98446 Y37.84029
G01 X-9.80879 Y37.99957
G01 X-9.60819 Y38.12438
G01 X-9.54408 Y38.23406
G01 X-9.53287 Y38.28062
G01 X-9.54944 Y38.37986
G01 X-9.60234 Y38.45814
G01 X-9.86008 Y38.63175
G01 X-10.02828 Y38.79995
G01 X-10.16048 Y38.99781
G01 X-10.25154 Y39.21765
G01 X-10.29797 Y39.45103
G01 X-10.29797 Y39.68900
G01 X-10.25154 Y39.92240
G01 X-10.16048 Y40.14224
G01 X-10.02828 Y40.34010
G01 X-9.85980 Y40.50858
G01 X-9.61426 Y40.67698
G01 X-9.54611 Y40.81978
G01 X-9.55711 Y40.91132
G01 X-9.60638 Y40.99443
G01 X-9.85980 Y41.17147
G01 X-10.02828 Y41.33995
G01 X-10.16048 Y41.53781
G01 X-10.25154 Y41.75765
G01 X-10.29797 Y41.99103
G01 X-10.29797 Y42.22902
G01 X-10.25154 Y42.46240
G01 X-10.16048 Y42.68224
G01 X-10.02805 Y42.88043
G01 X-9.81982 Y43.09354
G01 X-9.77928 Y43.22526
G01 X-9.80463 Y43.32719
G01 X-9.85258 Y43.38932
G01 X-10.11690 Y43.51033
G01 X-10.22962 Y43.62308
G01 X-10.29256 Y43.77502
G01 X-10.29076 Y45.52940
G01 X-10.22769 Y45.68165
G01 X-10.17986 Y45.73994
G01 X-10.12160 Y45.78774
G01 X-9.96937 Y45.85081
G01 X-8.30087 Y45.86107
G01 X-8.21497 Y45.85261
G01 X-8.05835 Y45.78774
G01 X-8.00006 Y45.73991
G01 X-7.95228 Y45.68167
G01 X-7.88739 Y45.52500
G01 X-7.87893 Y45.43920
G01 X-8.18998 Y43.85000
G01 X-8.18998 Y45.45002
G01 X-8.21929 Y45.52071
G01 X-8.28998 Y45.55002
G01 X-9.89000 Y45.55002
G01 X-9.94555 Y45.53316
G01 X-9.98807 Y45.46953
G01 X-9.99000 Y43.85000
G01 X-9.96069 Y43.77931
G01 X-9.89000 Y43.75000
G01 X-8.28998 Y43.75000
G01 X-8.21929 Y43.77931
G01 X-8.18998 Y43.85000
G04 P0 ( dwell for no time -- G64 should not smooth over this point )
G00 Z5.00000 ( retract )

G00 X-8.18998 Y42.11000 ( rapid move to begin. )
G01 F90.00000
( Mill infeed pass 1/1 )
G01 Z-0.10000
G04 P0 ( dwell for no time -- G64 should not smooth over this point )
G01 F180.00000
G01 X-8.18998 Y42.11000
G01 X-8.20966 Y41.92290
G01 X-8.26780 Y41.74396
G01 X-8.36188 Y41.58099
G01 X-8.48037 Y41.44858
G01 X-8.64931 Y41.32583
G01 X-8.81187 Y41.25407
G01 X-9.00636 Y41.21440
G01 X-9.18406 Y41.21495
G01 X-9.36810 Y41.25407
G01 X-9.53999 Y41.33060
G01 X-9.69221 Y41.44119
G01 X-9.81809 Y41.58099
G01 X-9.91217 Y41.74396
G01 X-9.97031 Y41.92290
G01 X-9.99000 Y42.11000
G01 X-9.97031 Y42.29712
G01 X-9.91217 Y42.47606
G01 X-9.81809 Y42.63903
G01 X-9.69960 Y42.77144
G01 X-9.53066 Y42.89420
G01 X-9.36810 Y42.96595
G01 X-9.17362 Y43.00563
G01 X-8.99592 Y43.00507
G01 X-8.81187 Y42.96595
G01 X-8.63999 Y42.88942
G01 X-8.48777 Y42.77883
G01 X-8.36188 Y42.63903
G01 X-8.26780 Y42.47606
G01 X-8.20966 Y42.29712
G01 X-8.18998 Y42.11000
G04 P0 ( dwell for no time -- G64 should not smooth over this point )
G00 Z5.00000 ( retract )

G00 X-8.18998 Y39.57000 ( rapid move to begin. )
G01 F90.00000
( Mill infeed pass 1/1 )
G01 Z-0.10000
G04 P0 ( dwell for no time -- G64 should not smooth over this point )
G01 F180.00000
G01 X-8.18998 Y39.57000
G01 X-8.20966 Y39.38290
G01 X-8.26780 Y39.20396
G01 X-8.36188 Y39.04099
G01 X-8.48037 Y38.90858
G01 X-8.64931 Y38.78583
G01 X-8.81187 Y38.71407
G01 X-9.00636 Y38.67440
G01 X-9.18406 Y38.67495
G01 X-9.36810 Y38.71407
G01 X-9.53999 Y38.79060
G01 X-9.69221 Y38.90119
G01 X-9.81809 Y39.04099
G01 X-9.91217 Y39.20396
G01 X-9.97031 Y39.38290
G01 X-9.99000 Y39.57000
G01 X-9.97031 Y39.75712
G01 X-9.91217 Y39.93606
G01 X-9.81809 Y40.09903
G01 X-9.69960 Y40.23144
G01 X-9.53066 Y40.35420
G01 X-9.36810 Y40.42595
G01 X-9.17362 Y40.46563
G01 X-8.99592 Y40.46507
G01 X-8.81187 Y40.42595
G01 X-8.63999 Y40.34942
G01 X-8.48777 Y40.23883
G01 X-8.36188 Y40.09903
G01 X-8.26780 Y39.93606
G01 X-8.20966 Y39.75712
G01 X-8.18998 Y39.57000
G04 P0 ( dwell for no time -- G64 should not smooth over this point )
G00 Z5.00000 ( retract )

G00 X-8.18998 Y31.95000 ( rapid move to begin. )
G01 F90.00000
( Mill infeed pass 1/1 )
G01 Z-0.10000
G04 P0 ( dwell for no time -- G64 should not smooth over this point )
G01 F180.00000
G01 X-8.18998 Y31.95000
G01 X-8.21235 Y31.75277
G01 X-8.26780 Y31.58396
G01 X-8.35617 Y31.42978
G01 X-8.48777 Y31.28119
G01 X-8.64931 Y31.16583
G01 X-8.81187 Y31.09407
G01 X-8.98558 Y31.05658
G01 X-9.18406 Y31.05495
G01 X-9.37788 Y31.09780
G01 X-9.53999 Y31.17060
G01 X-9.68408 Y31.27459
G01 X-9.82381 Y31.42978
G01 X-9.91217 Y31.58396
G01 X-9.97031 Y31.76290
G01 X-9.98944 Y31.96046
G01 X-9.96991 Y32.13903
G01 X-9.91779 Y32.28282
G01 X-13.14747 Y35.51253
G01 X-13.21184 Y35.60112
G01 X-13.24201 Y35.69000
G01 X-13.24999 Y50.64902
G01 X-13.30320 Y50.70439
G01 X-13.35877 Y50.80147
G01 X-13.39975 Y51.00698
G01 X-13.35938 Y51.19690
G01 X-13.23957 Y51.36673
G01 X-13.05944 Y51.47379
G01 X-12.94704 Y51.49769
G01 X-12.75220 Y51.47747
G01 X-12.57077 Y51.37607
G01 X-12.44628 Y51.20965
G01 X-12.40023 Y51.00698
G01 X-12.44120 Y50.80147
G01 X-12.49678 Y50.70439
G01 X-12.54999 Y50.64905
G01 X-12.54999 Y35.90498
G01 X-9.42586 Y32.78086
G01 X-9.35800 Y32.80867
G01 X-9.17362 Y32.84563
G01 X-8.99592 Y32.84507
G01 X-8.81187 Y32.80595
G01 X-8.63999 Y32.72942
G01 X-8.49589 Y32.62544
G01 X-8.36188 Y32.47903
G01 X-8.26404 Y32.30631
G01 X-8.20966 Y32.13712
G01 X-8.19054 Y31.96046
G01 X-8.18998 Y29.41000
G01 X-8.20966 Y29.59712
G01 X-8.26404 Y29.76631
G01 X-8.36846 Y29.94716
G01 X-8.48777 Y30.07883
G01 X-8.63999 Y30.18942
G01 X-8.81187 Y30.26595
G01 X-8.99592 Y30.30507
G01 X-9.18406 Y30.30507
G01 X-9.35800 Y30.26867
G01 X-9.53999 Y30.18942
G01 X-9.69221 Y30.07883
G01 X-9.81151 Y29.94716
G01 X-9.91796 Y29.76001
G01 X-14.02502 Y29.76001
G01 X-16.35999 Y32.09498
G01 X-16.35999 Y53.18905
G01 X-16.30677 Y53.24439
G01 X-16.25120 Y53.34147
G01 X-16.21023 Y53.54698
G01 X-16.25628 Y53.74965
G01 X-16.38077 Y53.91607
G01 X-16.55054 Y54.01379
G01 X-16.64739 Y54.03563
G01 X-16.87106 Y54.01315
G01 X-17.04058 Y53.91498
G01 X-17.11450 Y53.83390
G01 X-17.16877 Y53.73855
G01 X-17.20974 Y53.54698
G01 X-17.16877 Y53.34147
G01 X-17.11320 Y53.24439
G01 X-17.05999 Y53.18905
G01 X-17.05999 Y31.95003
G01 X-17.04652 Y31.85711
G01 X-16.95747 Y31.70253
G01 X-14.41747 Y29.16253
G01 X-14.29781 Y29.08435
G01 X-14.16997 Y29.06001
G01 X-9.91796 Y29.06001
G01 X-9.81151 Y28.87287
G01 X-9.69221 Y28.74119
G01 X-9.53999 Y28.63060
G01 X-9.35800 Y28.55135
G01 X-9.18406 Y28.51495
G01 X-9.00636 Y28.51440
G01 X-8.81187 Y28.55407
G01 X-8.64931 Y28.62583
G01 X-8.48037 Y28.74858
G01 X-8.36188 Y28.88099
G01 X-8.26780 Y29.04396
G01 X-8.20966 Y29.22290
G01 X-8.18998 Y29.41000
G01 X-8.18998 Y26.87000
G01 X-8.20966 Y27.05712
G01 X-8.26780 Y27.23606
G01 X-8.36188 Y27.39903
G01 X-8.48037 Y27.53144
G01 X-8.64931 Y27.65420
G01 X-8.81187 Y27.72595
G01 X-9.00636 Y27.76563
G01 X-9.18406 Y27.76507
G01 X-9.36810 Y27.72595
G01 X-9.53999 Y27.64942
G01 X-9.69221 Y27.53883
G01 X-9.81809 Y27.39903
G01 X-9.91217 Y27.23606
G01 X-9.97031 Y27.05712
G01 X-9.99000 Y26.87000
G01 X-9.97031 Y26.68290
G01 X-9.91217 Y26.50396
G01 X-9.81809 Y26.34099
G01 X-9.69960 Y26.20858
G01 X-9.53066 Y26.08583
G01 X-9.36810 Y26.01407
G01 X-9.17362 Y25.97440
G01 X-8.99592 Y25.97495
G01 X-8.81187 Y26.01407
G01 X-8.63999 Y26.09060
G01 X-8.48777 Y26.20119
G01 X-8.36188 Y26.34099
G01 X-8.26780 Y26.50396
G01 X-8.20966 Y26.68290
G01 X-8.18998 Y26.87000
G01 X-8.18998 Y24.33000
G01 X-8.20966 Y24.51712
G01 X-8.26780 Y24.69606
G01 X-8.36188 Y24.85903
G01 X-8.48037 Y24.99144
G01 X-8.64931 Y25.11420
G01 X-8.81187 Y25.18595
G01 X-9.00636 Y25.22563
G01 X-9.18406 Y25.22507
G01 X-9.36810 Y25.18595
G01 X-9.53999 Y25.10942
G01 X-9.69221 Y24.99883
G01 X-9.81809 Y24.85903
G01 X-9.91217 Y24.69606
G01 X-9.97031 Y24.51712
G01 X-9.99000 Y24.33000
G01 X-9.97031 Y24.14290
G01 X-9.91217 Y23.96396
G01 X-9.81809 Y23.80099
G01 X-9.69960 Y23.66858
G01 X-9.53066 Y23.54583
G01 X-9.36810 Y23.47407
G01 X-9.17362 Y23.43440
G01 X-8.99592 Y23.43495
G01 X-8.81187 Y23.47407
G01 X-8.63999 Y23.55060
G01 X-8.48777 Y23.66119
G01 X-8.36188 Y23.80099
G01 X-8.26780 Y23.96396
G01 X-8.20966 Y24.14290
G01 X-8.18998 Y24.33000
G01 X-8.18998 Y21.79000
G01 X-8.20966 Y21.97712
G01 X-8.26780 Y22.15606
G01 X-8.36188 Y22.31903
G01 X-8.48037 Y22.45144
G01 X-8.64931 Y22.57420
G01 X-8.81187 Y22.64595
G01 X-9.00636 Y22.68563
G01 X-9.18406 Y22.68507
G01 X-9.36810 Y22.64595
G01 X-9.53999 Y22.56942
G01 X-9.69221 Y22.45883
G01 X-9.81809 Y22.31903
G01 X-9.91217 Y22.15606
G01 X-9.97031 Y21.97712
G01 X-9.99000 Y21.79000
G01 X-9.97031 Y21.60290
G01 X-9.91217 Y21.42396
G01 X-9.81809 Y21.26099
G01 X-9.69960 Y21.12858
G01 X-9.53066 Y21.00583
G01 X-9.36810 Y20.93407
G01 X-9.17362 Y20.89440
G01 X-8.99592 Y20.89495
G01 X-8.81187 Y20.93407
G01 X-8.63999 Y21.01060
G01 X-8.48777 Y21.12119
G01 X-8.36188 Y21.26099
G01 X-8.26780 Y21.42396
G01 X-8.20966 Y21.60290
G01 X-8.18998 Y21.79000
G01 X-8.18998 Y19.25000
G01 X-8.20966 Y19.43712
G01 X-8.26780 Y19.61612
G01 X-8.36188 Y19.77903
G01 X-8.48037 Y19.91147
G01 X-8.63999 Y20.02945
G01 X-8.80209 Y20.10225
G01 X-9.00636 Y20.14565
G01 X-9.18406 Y20.14507
G01 X-9.36810 Y20.10595
G01 X-9.53999 Y20.02945
G01 X-9.69221 Y19.91883
G01 X-9.81809 Y19.77903
G01 X-9.91217 Y19.61612
G01 X-9.97031 Y19.43712
G01 X-9.99000 Y19.25000
G01 X-9.97031 Y19.06290
G01 X-9.91217 Y18.88396
G01 X-9.81809 Y18.72099
G01 X-9.69960 Y18.58858
G01 X-9.53066 Y18.46583
G01 X-9.36810 Y18.39407
G01 X-9.17362 Y18.35440
G01 X-8.99592 Y18.35495
G01 X-8.81187 Y18.39407
G01 X-8.63999 Y18.47060
G01 X-8.48777 Y18.58124
G01 X-8.36188 Y18.72099
G01 X-8.26780 Y18.88396
G01 X-8.20966 Y19.06290
G01 X-8.18998 Y19.25000
G01 X-8.18998 Y16.71000
G01 X-8.20966 Y16.89712
G01 X-8.26780 Y17.07606
G01 X-8.36188 Y17.23906
G01 X-8.48037 Y17.37144
G01 X-8.64931 Y17.49422
G01 X-8.81187 Y17.56595
G01 X-9.00636 Y17.60563
G01 X-9.18406 Y17.60510
G01 X-9.36810 Y17.56595
G01 X-9.53999 Y17.48942
G01 X-9.69221 Y17.37883
G01 X-9.81809 Y17.23906
G01 X-9.91217 Y17.07606
G01 X-9.97031 Y16.89712
G01 X-9.99000 Y16.71000
G01 X-9.97031 Y16.52293
G01 X-9.91217 Y16.34396
G01 X-9.81809 Y16.18099
G01 X-9.69960 Y16.04858
G01 X-9.53066 Y15.92583
G01 X-9.36810 Y15.85410
G01 X-9.17362 Y15.81440
G01 X-8.99592 Y15.81495
G01 X-8.81187 Y15.85410
G01 X-8.63999 Y15.93060
G01 X-8.48777 Y16.04119
G01 X-8.36188 Y16.18099
G01 X-8.26780 Y16.34396
G01 X-8.20966 Y16.52293
G01 X-8.18998 Y16.71000
G01 X-8.18998 Y14.17000
G01 X-8.20966 Y14.35712
G01 X-8.26780 Y14.53606
G01 X-8.36188 Y14.69903
G01 X-8.48037 Y14.83144
G01 X-8.64931 Y14.95420
G01 X-8.81187 Y15.02595
G01 X-9.00636 Y15.06563
G01 X-9.18406 Y15.06507
G01 X-9.36810 Y15.02595
G01 X-9.53999 Y14.94942
G01 X-9.69221 Y14.83883
G01 X-9.81809 Y14.69903
G01 X-9.91217 Y14.53606
G01 X-9.97031 Y14.35712
G01 X-9.99000 Y14.17000
G01 X-9.97031 Y13.98290
G01 X-9.91217 Y13.80396
G01 X-9.81809 Y13.64099
G01 X-9.69960 Y13.50858
G01 X-9.53066 Y13.38583
G01 X-9.36810 Y13.31407
G01 X-9.17362 Y13.27440
G01 X-8.99592 Y13.27495
G01 X-8.81187 Y13.31407
G01 X-8.63999 Y13.39060
G01 X-8.48777 Y13.50119
G01 X-8.36188 Y13.64099
G01 X-8.26780 Y13.80396
G01 X-8.20966 Y13.98290
G01 X-8.18998 Y14.17000
G01 X-8.18998 Y11.63000
G01 X-8.20966 Y11.81712
G01 X-8.26780 Y11.99606
G01 X-8.36188 Y12.15903
G01 X-8.48777 Y12.29883
G01 X-8.63999 Y12.40942
G01 X-8.81187 Y12.48595
G01 X-8.99592 Y12.52507
G01 X-9.18406 Y12.52507
G01 X-9.36810 Y12.48595
G01 X-9.53999 Y12.40942
G01 X-9.69221 Y12.29883
G01 X-9.81809 Y12.15903
G01 X-9.91217 Y11.99606
G01 X-9.97031 Y11.81712
G01 X-9.99000 Y11.63000
G01 X-9.97196 Y11.45324
G01 X-9.90742 Y11.25461
G01 X-9.81809 Y11.10099
G01 X-9.68408 Y10.95459
G01 X-9.53999 Y10.85060
G01 X-9.36810 Y10.77407
G01 X-9.18406 Y10.73495
G01 X-8.99592 Y10.73495
G01 X-8.81187 Y10.77407
G01 X-8.63999 Y10.85060
G01 X-8.48777 Y10.96119
G01 X-8.36846 Y11.09287
G01 X-8.26404 Y11.27371
G01 X-8.20966 Y11.44290
G01 X-8.18998 Y11.63000
G04 P0 ( dwell for no time -- G64 should not smooth over this point )
G00 Z5.00000 ( retract )

G00 X-6.05023 Y12.89304 ( rapid move to begin. )
G01 F90.00000
( Mill infeed pass 1/1 )
G01 Z-0.10000
G04 P0 ( dwell for no time -- G64 should not smooth over this point )
G01 F180.00000
G01 X-6.05023 Y12.89304
G01 X-6.09120 Y13.09855
G01 X-6.14678 Y13.19563
G01 X-6.19999 Y13.25100
G01 X-6.20613 Y34.55510
G01 X-6.30250 Y34.73750
G01 X-6.48475 Y34.83384
G01 X-8.26193 Y34.83981
G01 X-8.36846 Y35.02716
G01 X-8.48777 Y35.15883
G01 X-8.63999 Y35.26942
G01 X-8.82198 Y35.34867
G01 X-8.99592 Y35.38507
G01 X-9.18406 Y35.38507
G01 X-9.37788 Y35.34222
G01 X-9.53999 Y35.26942
G01 X-9.69221 Y35.15883
G01 X-9.81809 Y35.01903
G01 X-9.90742 Y34.86541
G01 X-9.97031 Y34.67712
G01 X-9.99000 Y34.49000
G01 X-9.97196 Y34.31324
G01 X-9.91217 Y34.12396
G01 X-9.81151 Y33.95287
G01 X-9.69221 Y33.82119
G01 X-9.53999 Y33.71060
G01 X-9.36810 Y33.63407
G01 X-9.18406 Y33.59495
G01 X-8.99592 Y33.59495
G01 X-8.81187 Y33.63407
G01 X-8.63999 Y33.71060
G01 X-8.48777 Y33.82119
G01 X-8.36188 Y33.96099
G01 X-8.26201 Y34.14001
G01 X-6.89999 Y34.14001
G01 X-6.89999 Y13.25098
G01 X-6.95320 Y13.19563
G01 X-7.00877 Y13.09855
G01 X-7.04975 Y12.89304
G01 X-7.00369 Y12.69037
G01 X-6.87921 Y12.52395
G01 X-6.69778 Y12.42256
G01 X-6.50293 Y12.40234
G01 X-6.39054 Y12.42624
G01 X-6.21040 Y12.53330
G01 X-6.09059 Y12.70312
G01 X-6.05023 Y12.89304
G04 P0 ( dwell for no time -- G64 should not smooth over this point )
G00 Z5.00000 ( retract )

G00 X-4.61830 Y10.36493 ( rapid move to begin. )
G01 F90.00000
( Mill infeed pass 1/1 )
G01 Z-0.10000
G04 P0 ( dwell for no time -- G64 should not smooth over this point )
G01 F180.00000
G01 X-4.61830 Y10.36493
G01 X-4.63149 Y10.23102
G01 X-4.66913 Y10.10699
G01 X-4.73022 Y9.99269
G01 X-4.81561 Y9.88865
G01 X-6.10662 Y8.59765
G01 X-6.21063 Y8.51228
G01 X-6.32496 Y8.45116
G01 X-6.44901 Y8.41355
G01 X-6.58279 Y8.40036
G01 X-8.00862 Y8.40138
G01 X-8.10829 Y8.36005
G01 X-8.31982 Y8.15177
G01 X-8.51779 Y8.01949
G01 X-8.73763 Y7.92846
G01 X-8.97098 Y7.88203
G01 X-9.20897 Y7.88203
G01 X-9.44232 Y7.92846
G01 X-9.66219 Y8.01952
G01 X-9.86003 Y8.15170
G01 X-10.02830 Y8.31997
G01 X-10.16051 Y8.51784
G01 X-10.25154 Y8.73768
G01 X-10.29797 Y8.97103
G01 X-10.29797 Y9.20902
G01 X-10.25154 Y9.44237
G01 X-10.16051 Y9.66221
G01 X-10.02830 Y9.86008
G01 X-9.85982 Y10.02856
G01 X-9.61436 Y10.19688
G01 X-9.56295 Y10.27306
G01 X-9.54573 Y10.36909
G01 X-9.61426 Y10.52304
G01 X-9.85977 Y10.69144
G01 X-10.02830 Y10.85997
G01 X-10.16051 Y11.05784
G01 X-10.25154 Y11.27768
G01 X-10.29797 Y11.51103
G01 X-10.29797 Y11.74902
G01 X-10.25154 Y11.98237
G01 X-10.16051 Y12.20221
G01 X-10.02828 Y12.40010
G01 X-9.85980 Y12.56858
G01 X-9.61436 Y12.73688
G01 X-9.56295 Y12.81306
G01 X-9.54573 Y12.90909
G01 X-9.61426 Y13.06304
G01 X-9.85977 Y13.23144
G01 X-10.02828 Y13.39995
G01 X-10.16051 Y13.59784
G01 X-10.25154 Y13.81768
G01 X-10.29797 Y14.05103
G01 X-10.29797 Y14.28902
G01 X-10.25154 Y14.52237
G01 X-10.16051 Y14.74221
G01 X-10.02830 Y14.94008
G01 X-9.85982 Y15.10856
G01 X-9.61436 Y15.27688
G01 X-9.56295 Y15.35303
G01 X-9.54573 Y15.44909
G01 X-9.61423 Y15.60304
G01 X-9.85977 Y15.77147
G01 X-10.02830 Y15.93997
G01 X-10.16048 Y16.13784
G01 X-10.25154 Y16.35768
G01 X-10.29797 Y16.59105
G01 X-10.29800 Y16.82902
G01 X-10.25154 Y17.06237
G01 X-10.16051 Y17.28221
G01 X-10.02833 Y17.48010
G01 X-9.85980 Y17.64858
G01 X-9.61426 Y17.81701
G01 X-9.55551 Y17.92557
G01 X-9.54611 Y17.97764
G01 X-9.55713 Y18.05137
G01 X-9.60641 Y18.13448
G01 X-9.85980 Y18.31147
G01 X-10.02830 Y18.48002
G01 X-10.16048 Y18.67779
G01 X-10.25154 Y18.89768
G01 X-10.29797 Y19.13103
G01 X-10.29797 Y19.36902
G01 X-10.25154 Y19.60240
G01 X-10.16051 Y19.82221
G01 X-10.02830 Y20.02008
G01 X-9.85977 Y20.18863
G01 X-9.60641 Y20.36557
G01 X-9.55713 Y20.44868
G01 X-9.54611 Y20.54022
G01 X-9.61426 Y20.68304
G01 X-9.85977 Y20.85144
G01 X-10.02830 Y21.01997
G01 X-10.16051 Y21.21784
G01 X-10.25154 Y21.43768
G01 X-10.29797 Y21.67103
G01 X-10.29797 Y21.90902
G01 X-10.25154 Y22.14237
G01 X-10.16051 Y22.36221
G01 X-10.02830 Y22.56008
G01 X-9.85982 Y22.72856
G01 X-9.61436 Y22.89688
G01 X-9.56295 Y22.97306
G01 X-9.54573 Y23.06909
G01 X-9.61426 Y23.22304
G01 X-9.85977 Y23.39144
G01 X-10.02830 Y23.55997
G01 X-10.16051 Y23.75784
G01 X-10.25154 Y23.97768
G01 X-10.29797 Y24.21103
G01 X-10.29797 Y24.44902
G01 X-10.25154 Y24.68237
G01 X-10.16051 Y24.90221
G01 X-10.02828 Y25.10010
G01 X-9.85980 Y25.26858
G01 X-9.61436 Y25.43688
G01 X-9.56295 Y25.51306
G01 X-9.54573 Y25.60909
G01 X-9.61426 Y25.76304
G01 X-9.85977 Y25.93144
G01 X-10.02828 Y26.09995
G01 X-10.16051 Y26.29784
G01 X-10.25154 Y26.51768
G01 X-10.29797 Y26.75103
G01 X-10.29797 Y26.98902
G01 X-10.25154 Y27.22237
G01 X-10.16051 Y27.44221
G01 X-10.02830 Y27.64008
G01 X-9.85982 Y27.80856
G01 X-9.60641 Y27.98557
G01 X-9.55131 Y28.08864
G01 X-9.55604 Y28.20855
G01 X-9.61642 Y28.30507
G01 X-9.85883 Y28.47081
G01 X-10.07133 Y28.69146
G01 X-10.18756 Y28.74899
G01 X-14.16510 Y28.74836
G01 X-14.29898 Y28.76154
G01 X-14.42303 Y28.79918
G01 X-14.53731 Y28.86027
G01 X-14.64130 Y28.94561
G01 X-17.17436 Y31.47868
G01 X-17.25973 Y31.58267
G01 X-17.32084 Y31.69699
G01 X-17.35846 Y31.82104
G01 X-17.37164 Y31.95493
G01 X-17.36796 Y53.00157
G01 X-17.48699 Y53.30462
G01 X-17.51800 Y53.46045
G01 X-17.51800 Y53.61960
G01 X-17.48694 Y53.77571
G01 X-17.42603 Y53.92275
G01 X-17.33761 Y54.05509
G01 X-17.22506 Y54.16763
G01 X-17.09270 Y54.25608
G01 X-16.94566 Y54.31699
G01 X-16.78955 Y54.34805
G01 X-16.63040 Y54.34805
G01 X-16.47431 Y54.31699
G01 X-16.32725 Y54.25608
G01 X-16.19489 Y54.16763
G01 X-16.08237 Y54.05511
G01 X-15.99392 Y53.92273
G01 X-15.93301 Y53.77574
G01 X-15.90198 Y53.61963
G01 X-15.90198 Y53.46042
G01 X-15.93296 Y53.30462
G01 X-16.05199 Y53.00157
G01 X-16.04820 Y32.27553
G01 X-15.98534 Y32.15594
G01 X-13.90165 Y30.09049
G01 X-13.80335 Y30.06801
G01 X-10.18748 Y30.07106
G01 X-10.07133 Y30.12859
G01 X-9.85886 Y30.34922
G01 X-9.61426 Y30.51698
G01 X-9.54611 Y30.65978
G01 X-9.55711 Y30.75132
G01 X-9.60638 Y30.83443
G01 X-9.85977 Y31.01144
G01 X-10.02830 Y31.17997
G01 X-10.16051 Y31.37784
G01 X-10.25154 Y31.59768
G01 X-10.29777 Y31.82988
G01 X-10.29198 Y32.13583
G01 X-10.33351 Y32.25871
G01 X-13.36441 Y35.28875
G01 X-13.44973 Y35.39269
G01 X-13.51082 Y35.50697
G01 X-13.54846 Y35.63102
G01 X-13.56164 Y35.76493
G01 X-13.55796 Y50.46157
G01 X-13.67699 Y50.76462
G01 X-13.70800 Y50.92045
G01 X-13.70800 Y51.07960
G01 X-13.67694 Y51.23571
G01 X-13.61603 Y51.38275
G01 X-13.52758 Y51.51511
G01 X-13.41504 Y51.62766
G01 X-13.28270 Y51.71608
G01 X-13.13569 Y51.77699
G01 X-12.97955 Y51.80805
G01 X-12.82040 Y51.80805
G01 X-12.66429 Y51.77699
G01 X-12.51725 Y51.71608
G01 X-12.38489 Y51.62763
G01 X-12.27239 Y51.51514
G01 X-12.18392 Y51.38278
G01 X-12.12301 Y51.23571
G01 X-12.09198 Y51.07963
G01 X-12.09198 Y50.92042
G01 X-12.12296 Y50.76462
G01 X-12.24199 Y50.46155
G01 X-12.24199 Y36.12660
G01 X-12.17516 Y35.96579
G01 X-10.61075 Y34.42592
G01 X-10.44181 Y34.42424
G01 X-10.34329 Y34.49927
G01 X-10.32106 Y34.54265
G01 X-10.25213 Y34.84095
G01 X-10.16051 Y35.06221
G01 X-10.02830 Y35.26008
G01 X-9.86008 Y35.42830
G01 X-9.60219 Y35.60204
G01 X-9.53577 Y35.73104
G01 X-9.54098 Y35.82888
G01 X-9.59978 Y35.92716
G01 X-9.80882 Y36.06048
G01 X-9.98441 Y36.21974
G01 X-10.12434 Y36.40846
G01 X-10.23361 Y36.66142
G01 X-10.22561 Y36.67600
G01 X-9.91667 Y36.67600
G01 X-9.81151 Y36.49287
G01 X-9.69221 Y36.36119
G01 X-9.53999 Y36.25060
G01 X-9.35800 Y36.17135
G01 X-9.18406 Y36.13495
G01 X-9.00636 Y36.13440
G01 X-8.80209 Y36.17780
G01 X-8.63999 Y36.25060
G01 X-8.49589 Y36.35459
G01 X-8.36188 Y36.50099
G01 X-8.26331 Y36.67600
G01 X-7.95434 Y36.67603
G01 X-7.94634 Y36.66142
G01 X-8.05561 Y36.40844
G01 X-8.19549 Y36.21977
G01 X-8.37115 Y36.06048
G01 X-8.57176 Y35.93567
G01 X-8.64649 Y35.79094
G01 X-8.63643 Y35.69637
G01 X-8.58578 Y35.61077
G01 X-8.32063 Y35.42881
G01 X-8.09287 Y35.19437
G01 X-7.95518 Y35.14804
G01 X-6.55475 Y35.15170
G01 X-6.42127 Y35.13854
G01 X-6.15335 Y35.06107
G01 X-6.03839 Y35.09957
G01 X-5.95213 Y35.20897
G01 X-5.94571 Y47.90262
G01 X-6.00801 Y48.00961
G01 X-6.15211 Y48.07189
G01 X-7.50588 Y48.06907
G01 X-7.63969 Y48.08225
G01 X-7.76369 Y48.11987
G01 X-7.87799 Y48.18096
G01 X-7.98200 Y48.26630
G01 X-16.26801 Y56.53781
G01 X-16.37304 Y56.55871
G01 X-16.57091 Y56.52201
G01 X-16.84863 Y56.52204
G01 X-17.12067 Y56.57614
G01 X-17.37693 Y56.68228
G01 X-17.60753 Y56.83636
G01 X-17.80408 Y57.03291
G01 X-17.92511 Y57.20611
G01 X-18.08511 Y57.27205
G01 X-21.87603 Y57.26826
G01 X-21.99716 Y57.20380
G01 X-22.11588 Y57.03291
G01 X-22.31243 Y56.83636
G01 X-22.54301 Y56.68228
G01 X-22.79927 Y56.57614
G01 X-23.07130 Y56.52201
G01 X-23.34865 Y56.52201
G01 X-23.62068 Y56.57614
G01 X-23.87694 Y56.68228
G01 X-24.10750 Y56.83634
G01 X-24.30366 Y57.03250
G01 X-24.45774 Y57.26311
G01 X-24.56386 Y57.51932
G01 X-24.61796 Y57.79135
G01 X-24.61796 Y58.06869
G01 X-24.56386 Y58.34073
G01 X-24.45771 Y58.59699
G01 X-24.30366 Y58.82757
G01 X-24.10752 Y59.02371
G01 X-23.87691 Y59.17778
G01 X-23.62068 Y59.28393
G01 X-23.34867 Y59.33801
G01 X-23.07128 Y59.33801
G01 X-22.79927 Y59.28393
G01 X-22.54303 Y59.17778
G01 X-22.31243 Y59.02371
G01 X-22.11588 Y58.82716
G01 X-21.99485 Y58.65396
G01 X-21.83486 Y58.58802
G01 X-18.04393 Y58.59181
G01 X-17.92280 Y58.65627
G01 X-17.80408 Y58.82714
G01 X-17.60751 Y59.02371
G01 X-17.37693 Y59.17778
G01 X-17.12067 Y59.28393
G01 X-16.84866 Y59.33801
G01 X-16.57129 Y59.33801
G01 X-16.29926 Y59.28393
G01 X-16.04302 Y59.17778
G01 X-15.81244 Y59.02371
G01 X-15.61630 Y58.82757
G01 X-15.46220 Y58.59694
G01 X-15.35608 Y58.34073
G01 X-15.30198 Y58.06869
G01 X-15.30198 Y57.79089
G01 X-15.33876 Y57.59049
G01 X-15.32537 Y57.50735
G01 X-15.27239 Y57.42297
G01 X-7.30461 Y49.45520
G01 X-7.14411 Y49.38870
G01 X-5.72000 Y49.38870
G01 X-5.40624 Y49.49617
G01 X-5.27997 Y49.50861
G01 X-5.15097 Y49.49591
G01 X-5.02694 Y49.45827
G01 X-4.91264 Y49.39718
G01 X-4.81249 Y49.31499
G01 X-4.73022 Y49.21474
G01 X-4.66910 Y49.10046
G01 X-4.63149 Y48.97643
G01 X-4.61830 Y48.84250
G01 X-4.61830 Y10.36493
G01 X-4.93306 Y10.32091
G01 X-4.94010 Y48.92833
G01 X-5.03484 Y49.09718
G01 X-5.14010 Y49.16808
G01 X-5.27345 Y49.19721
G01 X-5.41017 Y49.17224
G01 X-5.53476 Y49.08073
G01 X-7.36570 Y49.08073
G01 X-15.72755 Y57.44258
G01 X-15.63238 Y57.71165
G01 X-15.60998 Y57.93001
G01 X-15.63672 Y58.16882
G01 X-15.70510 Y58.37743
G01 X-15.82006 Y58.57657
G01 X-15.97393 Y58.74748
G01 X-16.16931 Y58.88739
G01 X-16.37007 Y58.97618
G01 X-16.59501 Y59.02399
G01 X-16.82496 Y59.02399
G01 X-17.05968 Y58.97242
G01 X-17.25999 Y58.88264
G01 X-17.45343 Y58.74007
G01 X-17.60560 Y58.56780
G01 X-17.71487 Y58.37743
G01 X-17.74711 Y58.28002
G01 X-22.17285 Y58.28002
G01 X-22.20509 Y58.37743
G01 X-22.32665 Y58.58472
G01 X-22.47395 Y58.74748
G01 X-22.65998 Y58.88264
G01 X-22.87006 Y58.97618
G01 X-23.08466 Y59.02236
G01 X-23.32497 Y59.02399
G01 X-23.55967 Y58.97242
G01 X-23.76000 Y58.88264
G01 X-23.93790 Y58.75406
G01 X-24.09990 Y58.57657
G01 X-24.21489 Y58.37743
G01 X-24.28596 Y58.15871
G01 X-24.30998 Y57.93001
G01 X-24.28596 Y57.70131
G01 X-24.21014 Y57.47327
G01 X-24.09990 Y57.28345
G01 X-23.93790 Y57.10596
G01 X-23.76000 Y56.97738
G01 X-23.55967 Y56.88759
G01 X-23.33531 Y56.83768
G01 X-23.08466 Y56.83768
G01 X-22.87006 Y56.88386
G01 X-22.65998 Y56.97738
G01 X-22.47395 Y57.11256
G01 X-22.32007 Y57.28345
G01 X-22.20509 Y57.48261
G01 X-22.17285 Y57.58002
G01 X-17.74711 Y57.58002
G01 X-17.71487 Y57.48261
G01 X-17.60560 Y57.29221
G01 X-17.45343 Y57.11995
G01 X-17.25999 Y56.97738
G01 X-17.05968 Y56.88759
G01 X-16.82496 Y56.83603
G01 X-16.59501 Y56.83603
G01 X-16.36967 Y56.88399
G01 X-16.22440 Y56.94949
G01 X-7.70778 Y48.44156
G01 X-7.51065 Y48.38073
G01 X-5.62999 Y48.38073
G01 X-5.62999 Y10.50498
G01 X-6.72295 Y9.41202
G01 X-8.25292 Y9.41202
G01 X-8.36846 Y9.62716
G01 X-8.48777 Y9.75883
G01 X-8.64931 Y9.87420
G01 X-8.81187 Y9.94595
G01 X-8.99592 Y9.98507
G01 X-9.18406 Y9.98507
G01 X-9.36810 Y9.94595
G01 X-9.53999 Y9.86942
G01 X-9.69221 Y9.75883
G01 X-9.81809 Y9.61903
G01 X-9.90742 Y9.46541
G01 X-9.97196 Y9.26678
G01 X-9.99000 Y9.09000
G01 X-9.96762 Y8.89277
G01 X-9.91217 Y8.72396
G01 X-9.82381 Y8.56978
G01 X-9.69221 Y8.42119
G01 X-9.53999 Y8.31060
G01 X-9.37788 Y8.23780
G01 X-9.17362 Y8.19440
G01 X-8.99592 Y8.19495
G01 X-8.82198 Y8.23135
G01 X-8.63999 Y8.31060
G01 X-8.48777 Y8.42119
G01 X-8.36846 Y8.55287
G01 X-8.28279 Y8.71202
G01 X-6.57797 Y8.71202
G01 X-6.46280 Y8.73298
G01 X-6.33049 Y8.81454
G01 X-5.03250 Y10.11253
G01 X-4.96814 Y10.20112
G01 X-4.93306 Y10.32091
G04 P0 ( dwell for no time -- G64 should not smooth over this point )
G00 Z5.00000 ( retract )

G00 X-0.09997 Y0.32700 ( rapid move to begin. )
G01 F90.00000
( Mill infeed pass 1/1 )
G01 Z-0.10000
G04 P0 ( dwell for no time -- G64 should not smooth over this point )
G01 F180.00000
G01 X-0.09997 Y0.32700
G01 X-0.09997 Y67.38300
G01 X-0.14481 Y67.51109
G01 X-0.17224 Y67.54886
G01 X-0.32700 Y67.61003
G01 X-68.65300 Y67.61003
G01 X-68.78107 Y67.56519
G01 X-68.81884 Y67.53776
G01 X-68.88000 Y67.38300
G01 X-68.88000 Y0.32700
G01 X-68.83517 Y0.19893
G01 X-68.80774 Y0.16116
G01 X-68.65300 Y0.10000
G01 X-0.32700 Y0.10000
G01 X-0.17224 Y0.16116
G01 X-0.14481 Y0.19893
G01 X-0.09997 Y0.32700
G04 P0 ( dwell for no time -- G64 should not smooth over this point )
G00 Z5.00000 ( retract )

G00 X-23.42998 Y24.33000 ( rapid move to begin. )
G01 F90.00000
( Mill infeed pass 1/1 )
G01 Z-0.10000
G04 P0 ( dwell for no time -- G64 should not smooth over this point )
G01 F180.00000
G01 X-23.42998 Y24.33000
G01 X-23.44966 Y24.51712
G01 X-23.50404 Y24.68631
G01 X-23.60846 Y24.86716
G01 X-23.72777 Y24.99883
G01 X-23.87999 Y25.10942
G01 X-24.05187 Y25.18595
G01 X-24.23592 Y25.22507
G01 X-24.42406 Y25.22507
G01 X-24.59800 Y25.18867
G01 X-24.77999 Y25.10942
G01 X-24.93221 Y24.99883
G01 X-25.05151 Y24.86716
G01 X-25.15799 Y24.67994
G01 X-29.47513 Y24.67387
G01 X-29.65747 Y24.57750
G01 X-31.61414 Y22.62086
G01 X-31.68198 Y22.64867
G01 X-31.86636 Y22.68563
G01 X-32.04406 Y22.68507
G01 X-32.23788 Y22.64222
G01 X-32.39999 Y22.56942
G01 X-32.55221 Y22.45883
G01 X-32.67809 Y22.31903
G01 X-32.77796 Y22.14001
G01 X-35.90465 Y22.14001
G01 X-36.03249 Y22.11568
G01 X-36.15215 Y22.03750
G01 X-41.12964 Y17.06001
G01 X-41.28201 Y17.06001
G01 X-41.38846 Y17.24716
G01 X-41.50777 Y17.37883
G01 X-41.65999 Y17.48942
G01 X-41.83187 Y17.56595
G01 X-42.00558 Y17.60350
G01 X-42.20406 Y17.60510
G01 X-42.38810 Y17.56595
G01 X-42.55999 Y17.48942
G01 X-42.71221 Y17.37883
G01 X-42.83809 Y17.23906
G01 X-42.92742 Y17.08541
G01 X-42.99031 Y16.89712
G01 X-43.01000 Y16.71000
G01 X-42.99196 Y16.53327
G01 X-42.93217 Y16.34396
G01 X-42.83151 Y16.17287
G01 X-42.71221 Y16.04119
G01 X-42.55999 Y15.93060
G01 X-42.37800 Y15.85135
G01 X-42.20406 Y15.81495
G01 X-42.02636 Y15.81440
G01 X-41.82209 Y15.85783
G01 X-41.65999 Y15.93060
G01 X-41.51589 Y16.03459
G01 X-41.38188 Y16.18099
G01 X-41.28201 Y16.36001
G01 X-40.97000 Y16.36111
G01 X-40.78757 Y16.42085
G01 X-35.75972 Y21.44001
G01 X-32.77796 Y21.44001
G01 X-32.67151 Y21.25287
G01 X-32.55221 Y21.12119
G01 X-32.39066 Y21.00583
G01 X-32.22810 Y20.93407
G01 X-32.04406 Y20.89495
G01 X-31.85592 Y20.89495
G01 X-31.68198 Y20.93135
G01 X-31.49999 Y21.01060
G01 X-31.34777 Y21.12119
G01 X-31.22188 Y21.26099
G01 X-31.12780 Y21.42396
G01 X-31.06966 Y21.60290
G01 X-31.04998 Y21.79000
G01 X-31.07007 Y21.97903
G01 X-31.12221 Y22.12282
G01 X-29.26502 Y23.98001
G01 X-25.15796 Y23.98001
G01 X-25.05151 Y23.79287
G01 X-24.93221 Y23.66119
G01 X-24.77999 Y23.55060
G01 X-24.59800 Y23.47135
G01 X-24.42406 Y23.43495
G01 X-24.23592 Y23.43495
G01 X-24.05187 Y23.47407
G01 X-23.87999 Y23.55060
G01 X-23.72777 Y23.66119
G01 X-23.60846 Y23.79287
G01 X-23.50404 Y23.97371
G01 X-23.44966 Y24.14290
G01 X-23.42998 Y24.33000
G04 P0 ( dwell for no time -- G64 should not smooth over this point )
G00 Z5.00000 ( retract )

G00 X-23.42998 Y26.87000 ( rapid move to begin. )
G01 F90.00000
( Mill infeed pass 1/1 )
G01 Z-0.10000
G04 P0 ( dwell for no time -- G64 should not smooth over this point )
G01 F180.00000
G01 X-23.42998 Y26.87000
G01 X-23.44966 Y27.05712
G01 X-23.50780 Y27.23606
G01 X-23.60188 Y27.39903
G01 X-23.72037 Y27.53144
G01 X-23.88931 Y27.65420
G01 X-24.05187 Y27.72595
G01 X-24.24636 Y27.76563
G01 X-24.42406 Y27.76507
G01 X-24.60810 Y27.72595
G01 X-24.77999 Y27.64942
G01 X-24.93221 Y27.53883
G01 X-25.05809 Y27.39903
G01 X-25.15217 Y27.23606
G01 X-25.21031 Y27.05712
G01 X-25.23000 Y26.87000
G01 X-25.21031 Y26.68290
G01 X-25.15217 Y26.50396
G01 X-25.05809 Y26.34099
G01 X-24.93960 Y26.20858
G01 X-24.77066 Y26.08583
G01 X-24.60810 Y26.01407
G01 X-24.41362 Y25.97440
G01 X-24.23592 Y25.97495
G01 X-24.05187 Y26.01407
G01 X-23.87999 Y26.09060
G01 X-23.72777 Y26.20119
G01 X-23.60188 Y26.34099
G01 X-23.50780 Y26.50396
G01 X-23.44966 Y26.68290
G01 X-23.42998 Y26.87000
G04 P0 ( dwell for no time -- G64 should not smooth over this point )
G00 Z5.00000 ( retract )

G00 X-23.42998 Y29.41000 ( rapid move to begin. )
G01 F90.00000
( Mill infeed pass 1/1 )
G01 Z-0.10000
G04 P0 ( dwell for no time -- G64 should not smooth over this point )
G01 F180.00000
G01 X-23.42998 Y29.41000
G01 X-23.44966 Y29.22290
G01 X-23.50780 Y29.04396
G01 X-23.60188 Y28.88099
G01 X-23.72037 Y28.74858
G01 X-23.88931 Y28.62583
G01 X-24.05187 Y28.55407
G01 X-24.24636 Y28.51440
G01 X-24.42406 Y28.51495
G01 X-24.60810 Y28.55407
G01 X-24.77999 Y28.63060
G01 X-24.93221 Y28.74119
G01 X-25.05809 Y28.88099
G01 X-25.15217 Y29.04396
G01 X-25.21031 Y29.22290
G01 X-25.23000 Y29.41000
G01 X-25.21031 Y29.59712
G01 X-25.15217 Y29.77606
G01 X-25.05809 Y29.93903
G01 X-24.93960 Y30.07144
G01 X-24.77066 Y30.19420
G01 X-24.60810 Y30.26595
G01 X-24.41362 Y30.30563
G01 X-24.23592 Y30.30507
G01 X-24.05187 Y30.26595
G01 X-23.87999 Y30.18942
G01 X-23.72777 Y30.07883
G01 X-23.60188 Y29.93903
G01 X-23.50780 Y29.77606
G01 X-23.44966 Y29.59712
G01 X-23.42998 Y29.41000
G04 P0 ( dwell for no time -- G64 should not smooth over this point )
G00 Z5.00000 ( retract )

G00 X-23.42998 Y31.95000 ( rapid move to begin. )
G01 F90.00000
( Mill infeed pass 1/1 )
G01 Z-0.10000
G04 P0 ( dwell for no time -- G64 should not smooth over this point )
G01 F180.00000
G01 X-23.42998 Y31.95000
G01 X-23.44966 Y31.76290
G01 X-23.50780 Y31.58396
G01 X-23.60188 Y31.42099
G01 X-23.72037 Y31.28858
G01 X-23.88931 Y31.16583
G01 X-24.05187 Y31.09407
G01 X-24.24636 Y31.05440
G01 X-24.42406 Y31.05495
G01 X-24.60810 Y31.09407
G01 X-24.77999 Y31.17060
G01 X-24.93221 Y31.28119
G01 X-25.05809 Y31.42099
G01 X-25.15217 Y31.58396
G01 X-25.21031 Y31.76290
G01 X-25.23000 Y31.95000
G01 X-25.21031 Y32.13712
G01 X-25.15217 Y32.31606
G01 X-25.05809 Y32.47903
G01 X-24.93960 Y32.61144
G01 X-24.77066 Y32.73420
G01 X-24.60810 Y32.80595
G01 X-24.41362 Y32.84563
G01 X-24.23592 Y32.84507
G01 X-24.05187 Y32.80595
G01 X-23.87999 Y32.72942
G01 X-23.72777 Y32.61883
G01 X-23.60188 Y32.47903
G01 X-23.50780 Y32.31606
G01 X-23.44966 Y32.13712
G01 X-23.42998 Y31.95000
G04 P0 ( dwell for no time -- G64 should not smooth over this point )
G00 Z5.00000 ( retract )

G00 X-23.42998 Y34.49000 ( rapid move to begin. )
G01 F90.00000
( Mill infeed pass 1/1 )
G01 Z-0.10000
G04 P0 ( dwell for no time -- G64 should not smooth over this point )
G01 F180.00000
G01 X-23.42998 Y34.49000
G01 X-23.44966 Y34.30290
G01 X-23.50780 Y34.12396
G01 X-23.60188 Y33.96099
G01 X-23.72037 Y33.82858
G01 X-23.88931 Y33.70583
G01 X-24.05187 Y33.63407
G01 X-24.24636 Y33.59440
G01 X-24.42406 Y33.59495
G01 X-24.60810 Y33.63407
G01 X-24.77999 Y33.71060
G01 X-24.93221 Y33.82119
G01 X-25.05809 Y33.96099
G01 X-25.15217 Y34.12396
G01 X-25.21031 Y34.30290
G01 X-25.23000 Y34.49000
G01 X-25.21031 Y34.67712
G01 X-25.15217 Y34.85606
G01 X-25.05809 Y35.01903
G01 X-24.93960 Y35.15144
G01 X-24.77066 Y35.27420
G01 X-24.60810 Y35.34595
G01 X-24.41362 Y35.38563
G01 X-24.23592 Y35.38507
G01 X-24.05187 Y35.34595
G01 X-23.87999 Y35.26942
G01 X-23.72777 Y35.15883
G01 X-23.60188 Y35.01903
G01 X-23.50780 Y34.85606
G01 X-23.44966 Y34.67712
G01 X-23.42998 Y34.49000
G04 P0 ( dwell for no time -- G64 should not smooth over this point )
G00 Z5.00000 ( retract )

G00 X-23.42998 Y37.03000 ( rapid move to begin. )
G01 F90.00000
( Mill infeed pass 1/1 )
G01 Z-0.10000
G04 P0 ( dwell for no time -- G64 should not smooth over this point )
G01 F180.00000
G01 X-23.42998 Y37.03000
G01 X-23.44966 Y36.84290
G01 X-23.50780 Y36.66396
G01 X-23.60188 Y36.50099
G01 X-23.72037 Y36.36858
G01 X-23.88931 Y36.24583
G01 X-24.05187 Y36.17407
G01 X-24.24636 Y36.13440
G01 X-24.42406 Y36.13495
G01 X-24.60810 Y36.17407
G01 X-24.77999 Y36.25060
G01 X-24.93221 Y36.36119
G01 X-25.05809 Y36.50099
G01 X-25.15217 Y36.66396
G01 X-25.21031 Y36.84290
G01 X-25.23000 Y37.03000
G01 X-25.21031 Y37.21712
G01 X-25.15217 Y37.39606
G01 X-25.05809 Y37.55903
G01 X-24.93960 Y37.69144
G01 X-24.77066 Y37.81420
G01 X-24.60810 Y37.88595
G01 X-24.41362 Y37.92563
G01 X-24.23592 Y37.92507
G01 X-24.05187 Y37.88595
G01 X-23.87999 Y37.80942
G01 X-23.72777 Y37.69883
G01 X-23.60188 Y37.55903
G01 X-23.50780 Y37.39606
G01 X-23.44966 Y37.21712
G01 X-23.42998 Y37.03000
G04 P0 ( dwell for no time -- G64 should not smooth over this point )
G00 Z5.00000 ( retract )

G00 X-23.42998 Y39.57000 ( rapid move to begin. )
G01 F90.00000
( Mill infeed pass 1/1 )
G01 Z-0.10000
G04 P0 ( dwell for no time -- G64 should not smooth over this point )
G01 F180.00000
G01 X-23.42998 Y39.57000
G01 X-23.44966 Y39.75712
G01 X-23.50780 Y39.93606
G01 X-23.60188 Y40.09903
G01 X-23.72037 Y40.23144
G01 X-23.88931 Y40.35420
G01 X-24.05187 Y40.42595
G01 X-24.24636 Y40.46563
G01 X-24.42406 Y40.46507
G01 X-24.60810 Y40.42595
G01 X-24.77999 Y40.34942
G01 X-24.93221 Y40.23883
G01 X-25.05809 Y40.09903
G01 X-25.15217 Y39.93606
G01 X-25.21031 Y39.75712
G01 X-25.23000 Y39.57000
G01 X-25.21031 Y39.38290
G01 X-25.15217 Y39.20396
G01 X-25.05809 Y39.04099
G01 X-24.93960 Y38.90858
G01 X-24.77066 Y38.78583
G01 X-24.60810 Y38.71407
G01 X-24.41362 Y38.67440
G01 X-24.23592 Y38.67495
G01 X-24.05187 Y38.71407
G01 X-23.87999 Y38.79060
G01 X-23.72777 Y38.90119
G01 X-23.60188 Y39.04099
G01 X-23.50780 Y39.20396
G01 X-23.44966 Y39.38290
G01 X-23.42998 Y39.57000
G04 P0 ( dwell for no time -- G64 should not smooth over this point )
G00 Z5.00000 ( retract )

G00 X-32.14500 Y41.43964 ( rapid move to begin. )
G01 F90.00000
( Mill infeed pass 1/1 )
G01 Z-0.10000
G04 P0 ( dwell for no time -- G64 should not smooth over this point )
G01 F180.00000
G01 X-32.14500 Y41.43964
G01 X-32.20583 Y41.63718
G01 X-32.30052 Y41.73103
G01 X-32.42653 Y41.78328
G01 X-33.94466 Y41.79001
G01 X-34.13100 Y41.73609
G01 X-34.26254 Y41.58569
G01 X-34.29498 Y41.44002
G01 X-34.29498 Y41.19001
G01 X-38.74201 Y41.19001
G01 X-38.84846 Y41.37716
G01 X-38.96777 Y41.50883
G01 X-39.11999 Y41.61942
G01 X-39.30198 Y41.69867
G01 X-39.47592 Y41.73507
G01 X-39.66406 Y41.73507
G01 X-39.84810 Y41.69595
G01 X-40.01999 Y41.61942
G01 X-40.17221 Y41.50883
G01 X-40.29151 Y41.37716
G01 X-40.39217 Y41.20606
G01 X-40.44762 Y41.03726
G01 X-40.46944 Y40.82956
G01 X-40.45031 Y40.65290
G01 X-40.39217 Y40.47396
G01 X-40.29809 Y40.31099
G01 X-40.17960 Y40.17858
G01 X-40.01066 Y40.05583
G01 X-39.84810 Y39.98407
G01 X-39.66406 Y39.94495
G01 X-39.47592 Y39.94495
G01 X-39.30198 Y39.98135
G01 X-39.11999 Y40.06060
G01 X-38.96777 Y40.17119
G01 X-38.84846 Y40.30287
G01 X-38.74201 Y40.49001
G01 X-34.29376 Y40.49001
G01 X-34.28256 Y40.15298
G01 X-34.22802 Y40.03520
G01 X-34.07585 Y39.91547
G01 X-33.94499 Y39.89001
G01 X-32.49498 Y39.89001
G01 X-32.36105 Y39.91666
G01 X-32.24982 Y39.99027
G01 X-32.15117 Y40.17470
G01 X-32.14500 Y41.43964
G04 P0 ( dwell for no time -- G64 should not smooth over this point )
G00 Z5.00000 ( retract )

G00 X-32.14964 Y38.25116 ( rapid move to begin. )
G01 F90.00000
( Mill infeed pass 1/1 )
G01 Z-0.10000
G04 P0 ( dwell for no time -- G64 should not smooth over this point )
G01 F180.00000
G01 X-32.14964 Y38.25116
G01 X-32.15020 Y38.43932
G01 X-32.19148 Y38.63358
G01 X-32.27228 Y38.81501
G01 X-32.38899 Y38.97569
G01 X-32.53659 Y39.10858
G01 X-32.70860 Y39.20787
G01 X-32.89747 Y39.26926
G01 X-33.09498 Y39.29002
G01 X-33.34499 Y39.29002
G01 X-33.53217 Y39.27089
G01 X-33.73138 Y39.20787
G01 X-33.90339 Y39.10858
G01 X-34.05099 Y38.97569
G01 X-34.16805 Y38.81440
G01 X-34.22203 Y38.69002
G01 X-34.53463 Y38.68898
G01 X-34.66968 Y38.65001
G01 X-38.74201 Y38.65001
G01 X-38.84846 Y38.83716
G01 X-38.96777 Y38.96883
G01 X-39.11999 Y39.07942
G01 X-39.30198 Y39.15867
G01 X-39.47592 Y39.19507
G01 X-39.66406 Y39.19507
G01 X-39.84810 Y39.15595
G01 X-40.01999 Y39.07942
G01 X-40.17221 Y38.96883
G01 X-40.29151 Y38.83716
G01 X-40.39593 Y38.65631
G01 X-40.45031 Y38.48712
G01 X-40.47000 Y38.30000
G01 X-40.45031 Y38.11290
G01 X-40.39217 Y37.93396
G01 X-40.29809 Y37.77099
G01 X-40.17960 Y37.63858
G01 X-40.01066 Y37.51583
G01 X-39.84810 Y37.44407
G01 X-39.65362 Y37.40440
G01 X-39.47592 Y37.40495
G01 X-39.30198 Y37.44135
G01 X-39.11999 Y37.52060
G01 X-38.96777 Y37.63119
G01 X-38.84846 Y37.76287
G01 X-38.74201 Y37.95001
G01 X-34.56026 Y37.95001
G01 X-34.41085 Y37.99002
G01 X-34.22203 Y37.99002
G01 X-34.16805 Y37.86563
G01 X-34.05099 Y37.70434
G01 X-33.90339 Y37.57145
G01 X-33.73138 Y37.47214
G01 X-33.54250 Y37.41077
G01 X-33.35543 Y37.39055
G01 X-33.09498 Y37.39002
G01 X-32.90781 Y37.40915
G01 X-32.69925 Y37.47689
G01 X-32.53659 Y37.57145
G01 X-32.38899 Y37.70434
G01 X-32.27228 Y37.86502
G01 X-32.19524 Y38.03668
G01 X-32.14964 Y38.25116
G04 P0 ( dwell for no time -- G64 should not smooth over this point )
G00 Z5.00000 ( retract )

G00 X-32.14964 Y35.75116 ( rapid move to begin. )
G01 F90.00000
( Mill infeed pass 1/1 )
G01 Z-0.10000
G04 P0 ( dwell for no time -- G64 should not smooth over this point )
G01 F180.00000
G01 X-32.14964 Y35.75116
G01 X-32.15020 Y35.93932
G01 X-32.19148 Y36.13358
G01 X-32.27228 Y36.31502
G01 X-32.38899 Y36.47570
G01 X-32.53659 Y36.60859
G01 X-32.70860 Y36.70788
G01 X-32.89747 Y36.76924
G01 X-33.09498 Y36.79002
G01 X-33.34499 Y36.79002
G01 X-33.53217 Y36.77089
G01 X-33.73138 Y36.70788
G01 X-33.90339 Y36.60859
G01 X-34.05099 Y36.47570
G01 X-34.16805 Y36.31441
G01 X-34.22236 Y36.18926
G01 X-34.58911 Y36.18319
G01 X-34.74052 Y36.11001
G01 X-38.74201 Y36.11001
G01 X-38.84846 Y36.29716
G01 X-38.96777 Y36.42883
G01 X-39.11999 Y36.53942
G01 X-39.30198 Y36.61867
G01 X-39.47592 Y36.65507
G01 X-39.66406 Y36.65507
G01 X-39.84810 Y36.61595
G01 X-40.01999 Y36.53942
G01 X-40.17221 Y36.42883
G01 X-40.29151 Y36.29716
G01 X-40.39593 Y36.11631
G01 X-40.45031 Y35.94712
G01 X-40.47000 Y35.76000
G01 X-40.45031 Y35.57290
G01 X-40.39217 Y35.39396
G01 X-40.29809 Y35.23099
G01 X-40.17960 Y35.09858
G01 X-40.01066 Y34.97583
G01 X-39.84810 Y34.90407
G01 X-39.65362 Y34.86440
G01 X-39.47592 Y34.86495
G01 X-39.30198 Y34.90135
G01 X-39.11999 Y34.98060
G01 X-38.96777 Y35.09119
G01 X-38.84846 Y35.22287
G01 X-38.74201 Y35.41001
G01 X-34.60029 Y35.41001
G01 X-34.47192 Y35.43455
G01 X-34.38543 Y35.49002
G01 X-34.22203 Y35.49002
G01 X-34.16805 Y35.36561
G01 X-34.05099 Y35.20435
G01 X-33.90339 Y35.07146
G01 X-33.73138 Y34.97214
G01 X-33.54250 Y34.91078
G01 X-33.35543 Y34.89056
G01 X-33.09498 Y34.89002
G01 X-32.90781 Y34.90913
G01 X-32.69925 Y34.97689
G01 X-32.53659 Y35.07146
G01 X-32.38899 Y35.20435
G01 X-32.27228 Y35.36500
G01 X-32.19524 Y35.53668
G01 X-32.14964 Y35.75116
G04 P0 ( dwell for no time -- G64 should not smooth over this point )
G00 Z5.00000 ( retract )

G00 X-32.14964 Y33.25117 ( rapid move to begin. )
G01 F90.00000
( Mill infeed pass 1/1 )
G01 Z-0.10000
G04 P0 ( dwell for no time -- G64 should not smooth over this point )
G01 F180.00000
G01 X-32.14964 Y33.25117
G01 X-32.15183 Y33.44964
G01 X-32.19148 Y33.63359
G01 X-32.26750 Y33.80570
G01 X-32.38899 Y33.97568
G01 X-32.52846 Y34.10199
G01 X-32.70860 Y34.20788
G01 X-32.89747 Y34.26925
G01 X-33.09498 Y34.29000
G01 X-33.34499 Y34.29000
G01 X-33.54250 Y34.26925
G01 X-33.72162 Y34.21164
G01 X-33.90339 Y34.10857
G01 X-34.05757 Y33.96755
G01 X-34.16805 Y33.81441
G01 X-34.22223 Y33.68952
G01 X-34.57926 Y33.68495
G01 X-34.72155 Y33.62622
G01 X-34.78355 Y33.57001
G01 X-38.74201 Y33.57001
G01 X-38.84846 Y33.75716
G01 X-38.96777 Y33.88883
G01 X-39.11999 Y33.99942
G01 X-39.30198 Y34.07867
G01 X-39.47592 Y34.11507
G01 X-39.66406 Y34.11507
G01 X-39.84810 Y34.07595
G01 X-40.01999 Y33.99942
G01 X-40.17221 Y33.88883
G01 X-40.29151 Y33.75716
G01 X-40.39593 Y33.57631
G01 X-40.45031 Y33.40712
G01 X-40.47000 Y33.22000
G01 X-40.45031 Y33.03290
G01 X-40.39217 Y32.85396
G01 X-40.29809 Y32.69099
G01 X-40.17221 Y32.55119
G01 X-40.01999 Y32.44060
G01 X-39.84810 Y32.36407
G01 X-39.66406 Y32.32495
G01 X-39.48636 Y32.32440
G01 X-39.28209 Y32.36780
G01 X-39.11999 Y32.44060
G01 X-38.97589 Y32.54459
G01 X-38.84188 Y32.69099
G01 X-38.74201 Y32.87001
G01 X-34.64027 Y32.87001
G01 X-34.48870 Y32.90479
G01 X-34.38020 Y32.99003
G01 X-34.22203 Y32.99003
G01 X-34.16805 Y32.86562
G01 X-34.05099 Y32.70433
G01 X-33.90339 Y32.57144
G01 X-33.73138 Y32.47215
G01 X-33.54250 Y32.41078
G01 X-33.35543 Y32.39056
G01 X-33.09498 Y32.39000
G01 X-32.90781 Y32.40913
G01 X-32.69925 Y32.47690
G01 X-32.53659 Y32.57144
G01 X-32.38899 Y32.70433
G01 X-32.27228 Y32.86501
G01 X-32.19524 Y33.03666
G01 X-32.14964 Y33.25117
G04 P0 ( dwell for no time -- G64 should not smooth over this point )
G00 Z5.00000 ( retract )

G00 X-42.46400 Y22.61278 ( rapid move to begin. )
G01 F90.00000
( Mill infeed pass 1/1 )
G01 Z-0.10000
G04 P0 ( dwell for no time -- G64 should not smooth over this point )
G01 F180.00000
G01 X-42.46400 Y22.61278
G01 X-42.46400 Y22.92599
G01 X-42.47840 Y22.93386
G01 X-42.62628 Y22.88093
G01 X-42.82918 Y22.75924
G01 X-43.00444 Y22.60031
G01 X-43.14535 Y22.41024
G01 X-43.24883 Y22.19124
G01 X-43.24561 Y22.14400
G01 X-42.93667 Y22.14400
G01 X-42.83809 Y22.31903
G01 X-42.71221 Y22.45883
G01 X-42.55999 Y22.56942
G01 X-42.46400 Y22.61278
G04 P0 ( dwell for no time -- G64 should not smooth over this point )
G00 Z5.00000 ( retract )

G00 X-42.46400 Y20.65406 ( rapid move to begin. )
G01 F90.00000
( Mill infeed pass 1/1 )
G01 Z-0.10000
G04 P0 ( dwell for no time -- G64 should not smooth over this point )
G01 F180.00000
G01 X-42.46400 Y20.65406
G01 X-42.46400 Y20.96724
G01 X-42.55999 Y21.01060
G01 X-42.71221 Y21.12119
G01 X-42.83809 Y21.26099
G01 X-42.93667 Y21.43603
G01 X-43.24561 Y21.43603
G01 X-43.24883 Y21.38881
G01 X-43.14533 Y21.16981
G01 X-43.00444 Y20.97974
G01 X-42.82918 Y20.82081
G01 X-42.62628 Y20.69915
G01 X-42.47840 Y20.64619
G01 X-42.46400 Y20.65406
G04 P0 ( dwell for no time -- G64 should not smooth over this point )
G00 Z5.00000 ( retract )

G00 X-40.96304 Y21.41543 ( rapid move to begin. )
G01 F90.00000
( Mill infeed pass 1/1 )
G01 Z-0.10000
G04 P0 ( dwell for no time -- G64 should not smooth over this point )
G01 F180.00000
G01 X-40.96304 Y21.41543
G01 X-41.07462 Y21.16981
G01 X-41.21549 Y20.97977
G01 X-41.39077 Y20.82081
G01 X-41.59367 Y20.69917
G01 X-41.74155 Y20.64619
G01 X-41.75600 Y20.65406
G01 X-41.75600 Y20.96724
G01 X-41.65999 Y21.01060
G01 X-41.50777 Y21.12119
G01 X-41.38188 Y21.26099
G01 X-41.28331 Y21.43603
G01 X-40.97434 Y21.43603
G01 X-40.96304 Y21.41543
G04 P0 ( dwell for no time -- G64 should not smooth over this point )
G00 Z5.00000 ( retract )

G00 X-40.96631 Y22.15863 ( rapid move to begin. )
G01 F90.00000
( Mill infeed pass 1/1 )
G01 Z-0.10000
G04 P0 ( dwell for no time -- G64 should not smooth over this point )
G01 F180.00000
G01 X-40.96631 Y22.15863
G01 X-41.07561 Y22.41159
G01 X-41.21549 Y22.60029
G01 X-41.39077 Y22.75924
G01 X-41.59367 Y22.88093
G01 X-41.74155 Y22.93386
G01 X-41.75600 Y22.92599
G01 X-41.75600 Y22.61278
G01 X-41.65999 Y22.56942
G01 X-41.50777 Y22.45883
G01 X-41.38188 Y22.31903
G01 X-41.28331 Y22.14400
G01 X-40.97434 Y22.14400
G01 X-40.96631 Y22.15863
G04 P0 ( dwell for no time -- G64 should not smooth over this point )
G00 Z5.00000 ( retract )

G00 X-23.42998 Y21.79000 ( rapid move to begin. )
G01 F90.00000
( Mill infeed pass 1/1 )
G01 Z-0.10000
G04 P0 ( dwell for no time -- G64 should not smooth over this point )
G01 F180.00000
G01 X-23.42998 Y21.79000
G01 X-23.44966 Y21.60290
G01 X-23.50780 Y21.42396
G01 X-23.60188 Y21.26099
G01 X-23.72037 Y21.12858
G01 X-23.88931 Y21.00583
G01 X-24.05187 Y20.93407
G01 X-24.24636 Y20.89440
G01 X-24.42406 Y20.89495
G01 X-24.60810 Y20.93407
G01 X-24.77999 Y21.01060
G01 X-24.93221 Y21.12119
G01 X-25.05809 Y21.26099
G01 X-25.15217 Y21.42396
G01 X-25.21031 Y21.60290
G01 X-25.23000 Y21.79000
G01 X-25.21031 Y21.97712
G01 X-25.15217 Y22.15606
G01 X-25.05809 Y22.31903
G01 X-24.93960 Y22.45144
G01 X-24.77066 Y22.57420
G01 X-24.60810 Y22.64595
G01 X-24.41362 Y22.68563
G01 X-24.23592 Y22.68507
G01 X-24.05187 Y22.64595
G01 X-23.87999 Y22.56942
G01 X-23.72777 Y22.45883
G01 X-23.60188 Y22.31903
G01 X-23.50780 Y22.15606
G01 X-23.44966 Y21.97712
G01 X-23.42998 Y21.79000
G04 P0 ( dwell for no time -- G64 should not smooth over this point )
G00 Z5.00000 ( retract )

G00 X-23.42998 Y19.25000 ( rapid move to begin. )
G01 F90.00000
( Mill infeed pass 1/1 )
G01 Z-0.10000
G04 P0 ( dwell for no time -- G64 should not smooth over this point )
G01 F180.00000
G01 X-23.42998 Y19.25000
G01 X-23.44966 Y19.06290
G01 X-23.50780 Y18.88396
G01 X-23.60188 Y18.72099
G01 X-23.72037 Y18.58858
G01 X-23.88931 Y18.46583
G01 X-24.05187 Y18.39407
G01 X-24.24636 Y18.35440
G01 X-24.42406 Y18.35495
G01 X-24.60810 Y18.39407
G01 X-24.77999 Y18.47060
G01 X-24.93221 Y18.58124
G01 X-25.05809 Y18.72099
G01 X-25.15217 Y18.88396
G01 X-25.21031 Y19.06290
G01 X-25.23000 Y19.25000
G01 X-25.21031 Y19.43712
G01 X-25.15217 Y19.61612
G01 X-25.05809 Y19.77903
G01 X-24.93960 Y19.91147
G01 X-24.77999 Y20.02945
G01 X-24.61788 Y20.10225
G01 X-24.41362 Y20.14565
G01 X-24.23592 Y20.14507
G01 X-24.05187 Y20.10595
G01 X-23.87999 Y20.02945
G01 X-23.72777 Y19.91883
G01 X-23.60188 Y19.77903
G01 X-23.50780 Y19.61612
G01 X-23.44966 Y19.43712
G01 X-23.42998 Y19.25000
G04 P0 ( dwell for no time -- G64 should not smooth over this point )
G00 Z5.00000 ( retract )

G00 X-23.42998 Y16.71000 ( rapid move to begin. )
G01 F90.00000
( Mill infeed pass 1/1 )
G01 Z-0.10000
G04 P0 ( dwell for no time -- G64 should not smooth over this point )
G01 F180.00000
G01 X-23.42998 Y16.71000
G01 X-23.44966 Y16.52293
G01 X-23.50780 Y16.34396
G01 X-23.60188 Y16.18099
G01 X-23.72037 Y16.04858
G01 X-23.88931 Y15.92583
G01 X-24.05187 Y15.85410
G01 X-24.24636 Y15.81440
G01 X-24.42406 Y15.81495
G01 X-24.60810 Y15.85410
G01 X-24.77999 Y15.93060
G01 X-24.93221 Y16.04119
G01 X-25.05809 Y16.18099
G01 X-25.15217 Y16.34396
G01 X-25.21031 Y16.52293
G01 X-25.23000 Y16.71000
G01 X-25.21031 Y16.89712
G01 X-25.15217 Y17.07606
G01 X-25.05809 Y17.23906
G01 X-24.93960 Y17.37144
G01 X-24.77066 Y17.49422
G01 X-24.60810 Y17.56595
G01 X-24.41362 Y17.60563
G01 X-24.23592 Y17.60510
G01 X-24.05187 Y17.56595
G01 X-23.87999 Y17.48942
G01 X-23.72777 Y17.37883
G01 X-23.60188 Y17.23906
G01 X-23.50780 Y17.07606
G01 X-23.44966 Y16.89712
G01 X-23.42998 Y16.71000
G04 P0 ( dwell for no time -- G64 should not smooth over this point )
G00 Z5.00000 ( retract )

G00 X-23.42998 Y14.17000 ( rapid move to begin. )
G01 F90.00000
( Mill infeed pass 1/1 )
G01 Z-0.10000
G04 P0 ( dwell for no time -- G64 should not smooth over this point )
G01 F180.00000
G01 X-23.42998 Y14.17000
G01 X-23.44966 Y13.98290
G01 X-23.50780 Y13.80396
G01 X-23.60188 Y13.64099
G01 X-23.72037 Y13.50858
G01 X-23.88931 Y13.38583
G01 X-24.05187 Y13.31407
G01 X-24.24636 Y13.27440
G01 X-24.42406 Y13.27495
G01 X-24.60810 Y13.31407
G01 X-24.77999 Y13.39060
G01 X-24.93221 Y13.50119
G01 X-25.05809 Y13.64099
G01 X-25.15217 Y13.80396
G01 X-25.21031 Y13.98290
G01 X-25.23000 Y14.17000
G01 X-25.21031 Y14.35712
G01 X-25.15217 Y14.53606
G01 X-25.05809 Y14.69903
G01 X-24.93960 Y14.83144
G01 X-24.77066 Y14.95420
G01 X-24.60810 Y15.02595
G01 X-24.41362 Y15.06563
G01 X-24.23592 Y15.06507
G01 X-24.05187 Y15.02595
G01 X-23.87999 Y14.94942
G01 X-23.72777 Y14.83883
G01 X-23.60188 Y14.69903
G01 X-23.50780 Y14.53606
G01 X-23.44966 Y14.35712
G01 X-23.42998 Y14.17000
G04 P0 ( dwell for no time -- G64 should not smooth over this point )
G00 Z5.00000 ( retract )

G00 X-23.42998 Y11.63000 ( rapid move to begin. )
G01 F90.00000
( Mill infeed pass 1/1 )
G01 Z-0.10000
G04 P0 ( dwell for no time -- G64 should not smooth over this point )
G01 F180.00000
G01 X-23.42998 Y11.63000
G01 X-23.44966 Y11.44290
G01 X-23.50780 Y11.26396
G01 X-23.60188 Y11.10099
G01 X-23.72037 Y10.96858
G01 X-23.88931 Y10.84583
G01 X-24.05187 Y10.77407
G01 X-24.24636 Y10.73440
G01 X-24.42406 Y10.73495
G01 X-24.60810 Y10.77407
G01 X-24.77999 Y10.85060
G01 X-24.93221 Y10.96119
G01 X-25.05809 Y11.10099
G01 X-25.15217 Y11.26396
G01 X-25.21031 Y11.44290
G01 X-25.23000 Y11.63000
G01 X-25.21031 Y11.81712
G01 X-25.15217 Y11.99606
G01 X-25.05809 Y12.15903
G01 X-24.93960 Y12.29144
G01 X-24.77066 Y12.41420
G01 X-24.60810 Y12.48595
G01 X-24.41362 Y12.52563
G01 X-24.23592 Y12.52507
G01 X-24.05187 Y12.48595
G01 X-23.87999 Y12.40942
G01 X-23.72777 Y12.29883
G01 X-23.60188 Y12.15903
G01 X-23.50780 Y11.99606
G01 X-23.44966 Y11.81712
G01 X-23.42998 Y11.63000
G04 P0 ( dwell for no time -- G64 should not smooth over this point )
G00 Z5.00000 ( retract )

G00 X-36.38893 Y5.06090 ( rapid move to begin. )
G01 F90.00000
( Mill infeed pass 1/1 )
G01 Z-0.10000
G04 P0 ( dwell for no time -- G64 should not smooth over this point )
G01 F180.00000
G01 X-36.38893 Y5.06090
G01 X-36.39172 Y6.16999
G01 X-36.41773 Y6.19600
G01 X-36.69998 Y6.19600
G01 X-36.69998 Y5.05000
G01 X-36.71684 Y4.99445
G01 X-36.74443 Y4.96687
G01 X-36.79998 Y4.95000
G01 X-37.94597 Y4.95000
G01 X-37.94600 Y4.66778
G01 X-37.91997 Y4.64177
G01 X-36.72002 Y4.64792
G01 X-36.64783 Y4.66982
G01 X-36.51113 Y4.76118
G01 X-36.41977 Y4.89791
G01 X-36.38893 Y5.06090
G04 P0 ( dwell for no time -- G64 should not smooth over this point )
G00 Z5.00000 ( retract )

G00 X-36.38893 Y8.03915 ( rapid move to begin. )
G01 F90.00000
( Mill infeed pass 1/1 )
G01 Z-0.10000
G04 P0 ( dwell for no time -- G64 should not smooth over this point )
G01 F180.00000
G01 X-36.38893 Y8.03915
G01 X-36.39172 Y6.93003
G01 X-36.41773 Y6.90400
G01 X-36.69998 Y6.90403
G01 X-36.69998 Y8.05002
G01 X-36.71684 Y8.10557
G01 X-36.74443 Y8.13316
G01 X-36.79998 Y8.15002
G01 X-37.94597 Y8.15002
G01 X-37.94600 Y8.43227
G01 X-37.91997 Y8.45828
G01 X-36.72002 Y8.45213
G01 X-36.64786 Y8.43023
G01 X-36.51113 Y8.33887
G01 X-36.41977 Y8.20217
G01 X-36.38893 Y8.03915
G04 P0 ( dwell for no time -- G64 should not smooth over this point )
G00 Z5.00000 ( retract )

G00 X-41.91526 Y5.90730 ( rapid move to begin. )
G01 F90.00000
( Mill infeed pass 1/1 )
G01 Z-0.10000
G04 P0 ( dwell for no time -- G64 should not smooth over this point )
G01 F180.00000
G01 X-41.91526 Y5.90730
G01 X-41.81495 Y6.21736
G01 X-41.77998 Y6.55000
G01 X-41.81495 Y6.88266
G01 X-41.91831 Y7.20080
G01 X-42.08557 Y7.49046
G01 X-42.30939 Y7.73905
G01 X-42.58932 Y7.94040
G01 X-42.88556 Y8.07171
G01 X-43.02999 Y8.10296
G01 X-43.02999 Y10.21504
G01 X-34.34502 Y18.90001
G01 X-32.78495 Y18.90001
G01 X-29.75999 Y15.87510
G01 X-29.75999 Y11.09774
G01 X-29.69913 Y10.90061
G01 X-19.96537 Y1.17246
G01 X-19.78226 Y1.12001
G01 X-3.08775 Y1.12001
G01 X-2.99385 Y1.03934
G01 X-2.90426 Y0.99825
G01 X-2.69293 Y0.97234
G01 X-2.58054 Y0.99624
G01 X-2.40939 Y1.09505
G01 X-2.33251 Y1.18044
G01 X-2.24970 Y1.37292
G01 X-2.25260 Y1.58074
G01 X-2.33977 Y1.76942
G01 X-2.49616 Y1.90630
G01 X-2.69469 Y1.96776
G01 X-2.90426 Y1.94178
G01 X-2.99385 Y1.90068
G01 X-3.08775 Y1.82001
G01 X-19.63727 Y1.82001
G01 X-29.05999 Y11.24273
G01 X-29.05999 Y16.02006
G01 X-29.08087 Y16.13802
G01 X-29.16250 Y16.26753
G01 X-32.39249 Y19.49750
G01 X-32.57474 Y19.59384
G01 X-34.48975 Y19.60001
G01 X-34.68710 Y19.53918
G01 X-43.63405 Y10.60023
G01 X-43.70334 Y10.49396
G01 X-43.72999 Y10.36003
G01 X-43.72999 Y8.10296
G01 X-43.87441 Y8.07171
G01 X-44.18000 Y7.93565
G01 X-44.45058 Y7.73905
G01 X-44.66783 Y7.49861
G01 X-44.84540 Y7.19102
G01 X-44.94502 Y6.88266
G01 X-44.97944 Y6.56046
G01 X-44.94230 Y6.20725
G01 X-44.84167 Y5.89923
G01 X-44.67441 Y5.60957
G01 X-44.44246 Y5.35440
G01 X-44.18000 Y5.16438
G01 X-43.94332 Y5.05844
G01 X-49.72820 Y5.05844
G01 X-51.51763 Y6.83923
G01 X-51.70000 Y6.89892
G01 X-51.93998 Y6.90001
G01 X-51.93998 Y8.05002
G01 X-51.95339 Y8.10001
G01 X-51.98999 Y8.13661
G01 X-52.03998 Y8.15002
G01 X-55.04000 Y8.15002
G01 X-55.11071 Y8.12074
G01 X-55.13807 Y8.06953
G01 X-55.14000 Y5.05000
G01 X-55.11071 Y4.97929
G01 X-55.05950 Y4.95193
G01 X-52.00579 Y4.95605
G01 X-51.96337 Y4.98574
G01 X-51.93998 Y5.05000
G01 X-51.93998 Y6.20001
G01 X-51.85964 Y6.20001
G01 X-50.12055 Y4.46095
G01 X-49.93818 Y4.36458
G01 X-42.61924 Y4.35844
G01 X-42.48523 Y4.38508
G01 X-42.37162 Y4.46100
G01 X-40.00139 Y6.83735
G01 X-39.95169 Y6.93486
G01 X-39.93457 Y7.04304
G01 X-39.93457 Y8.23046
G01 X-32.28586 Y15.87917
G01 X-32.21800 Y15.85135
G01 X-32.03362 Y15.81440
G01 X-31.85592 Y15.81495
G01 X-31.67187 Y15.85410
G01 X-31.49120 Y15.93629
G01 X-31.34777 Y16.04119
G01 X-31.22846 Y16.17287
G01 X-31.12780 Y16.34396
G01 X-31.07235 Y16.51277
G01 X-31.05054 Y16.72049
G01 X-31.06966 Y16.89712
G01 X-31.12780 Y17.07606
G01 X-31.22188 Y17.23906
G01 X-31.34037 Y17.37144
G01 X-31.50931 Y17.49422
G01 X-31.67187 Y17.56595
G01 X-31.86636 Y17.60563
G01 X-32.04406 Y17.60510
G01 X-32.22810 Y17.56595
G01 X-32.39999 Y17.48942
G01 X-32.55960 Y17.37144
G01 X-32.67809 Y17.23906
G01 X-32.76742 Y17.08541
G01 X-32.83031 Y16.89712
G01 X-32.84944 Y16.69956
G01 X-32.82991 Y16.52100
G01 X-32.77776 Y16.37721
G01 X-40.53865 Y8.61565
G01 X-40.60792 Y8.50938
G01 X-40.63408 Y8.38523
G01 X-40.63456 Y7.18800
G01 X-41.91526 Y5.90730
G01 X-42.11859 Y5.64073
G01 X-42.34198 Y5.40443
G01 X-42.60027 Y5.18424
G01 X-42.72209 Y5.10050
G01 X-42.81655 Y5.05846
G01 X-42.72209 Y5.10050
G01 X-42.76415 Y5.05844
G01 X-43.22321 Y5.00835
G01 X-43.54723 Y5.00891
G01 X-43.94332 Y5.05844
G04 P0 ( dwell for no time -- G64 should not smooth over this point )
G00 Z5.00000 ( retract )

G00 X-56.70314 Y6.51175 ( rapid move to begin. )
G01 F90.00000
( Mill infeed pass 1/1 )
G01 Z-0.10000
G04 P0 ( dwell for no time -- G64 should not smooth over this point )
G01 F180.00000
G01 X-56.70314 Y6.51175
G01 X-56.73248 Y6.88645
G01 X-56.83438 Y7.24822
G01 X-56.98086 Y7.53595
G01 X-57.08294 Y7.58642
G01 X-57.27146 Y7.39788
G01 X-57.15831 Y7.20080
G01 X-57.05767 Y6.89277
G01 X-57.01998 Y6.55000
G01 X-57.05767 Y6.20725
G01 X-57.15831 Y5.89923
G01 X-57.27146 Y5.70215
G01 X-57.08294 Y5.51363
G01 X-56.97863 Y5.56519
G01 X-56.86440 Y5.77891
G01 X-56.74744 Y6.13855
G01 X-56.70314 Y6.51175
G04 P0 ( dwell for no time -- G64 should not smooth over this point )
G00 Z5.00000 ( retract )

G00 X-57.58358 Y5.01300 ( rapid move to begin. )
G01 F90.00000
( Mill infeed pass 1/1 )
G01 Z-0.10000
G04 P0 ( dwell for no time -- G64 should not smooth over this point )
G01 F180.00000
G01 X-57.58358 Y5.01300
G01 X-57.63405 Y4.91091
G01 X-57.92178 Y4.76443
G01 X-58.28355 Y4.66253
G01 X-58.65820 Y4.63319
G01 X-59.03148 Y4.67749
G01 X-59.39107 Y4.79445
G01 X-59.60481 Y4.90868
G01 X-59.65637 Y5.01300
G01 X-59.46960 Y5.19976
G01 X-59.41065 Y5.15963
G01 X-59.11441 Y5.02831
G01 X-58.78723 Y4.95877
G01 X-58.45274 Y4.95877
G01 X-58.13567 Y5.02562
G01 X-57.82932 Y5.15963
G01 X-57.77034 Y5.19976
G01 X-57.58358 Y5.01300
G04 P0 ( dwell for no time -- G64 should not smooth over this point )
G00 Z5.00000 ( retract )

G00 X-59.96849 Y5.70212 ( rapid move to begin. )
G01 F90.00000
( Mill infeed pass 1/1 )
G01 Z-0.10000
G04 P0 ( dwell for no time -- G64 should not smooth over this point )
G01 F180.00000
G01 X-59.96849 Y5.70212
G01 X-60.08167 Y5.89923
G01 X-60.18230 Y6.20725
G01 X-60.22000 Y6.55000
G01 X-60.18230 Y6.89277
G01 X-60.08167 Y7.20080
G01 X-59.96849 Y7.39790
G01 X-60.15700 Y7.58642
G01 X-60.26132 Y7.53486
G01 X-60.37555 Y7.32109
G01 X-60.49254 Y6.96151
G01 X-60.53681 Y6.58828
G01 X-60.50747 Y6.21360
G01 X-60.40557 Y5.85183
G01 X-60.25909 Y5.56410
G01 X-60.15700 Y5.51363
G01 X-59.96849 Y5.70212
G04 P0 ( dwell for no time -- G64 should not smooth over this point )
G00 Z5.00000 ( retract )

G00 X-57.58358 Y8.08706 ( rapid move to begin. )
G01 F90.00000
( Mill infeed pass 1/1 )
G01 Z-0.10000
G04 P0 ( dwell for no time -- G64 should not smooth over this point )
G01 F180.00000
G01 X-57.58358 Y8.08706
G01 X-57.63514 Y8.19137
G01 X-57.84888 Y8.30560
G01 X-58.20847 Y8.42256
G01 X-58.58170 Y8.46686
G01 X-58.95640 Y8.43752
G01 X-59.31817 Y8.33562
G01 X-59.60590 Y8.18914
G01 X-59.65637 Y8.08706
G01 X-59.46960 Y7.90029
G01 X-59.41065 Y7.94040
G01 X-59.10430 Y8.07441
G01 X-58.78723 Y8.14126
G01 X-58.45274 Y8.14126
G01 X-58.12556 Y8.07171
G01 X-57.82932 Y7.94040
G01 X-57.77037 Y7.90026
G01 X-57.58358 Y8.08706
G04 P0 ( dwell for no time -- G64 should not smooth over this point )
G00 Z5.00000 ( retract )

G00 X-60.52261 Y16.92201 ( rapid move to begin. )
G01 F90.00000
( Mill infeed pass 1/1 )
G01 Z-0.10000
G04 P0 ( dwell for no time -- G64 should not smooth over this point )
G01 F180.00000
G01 X-60.52261 Y16.92201
G01 X-60.52759 Y16.90500
G01 X-60.67087 Y16.83720
G01 X-60.90168 Y16.77939
G01 X-61.13935 Y16.76763
G01 X-61.37473 Y16.80251
G01 X-61.60404 Y16.88455
G01 X-61.63048 Y16.89867
G01 X-61.63734 Y16.92206
G01 X-61.41194 Y17.14744
G01 X-61.16361 Y17.08445
G01 X-60.98591 Y17.08495
G01 X-60.74801 Y17.14744
G01 X-60.52261 Y16.92201
G04 P0 ( dwell for no time -- G64 should not smooth over this point )
G00 Z5.00000 ( retract )

G00 X-59.86757 Y17.92064 ( rapid move to begin. )
G01 F90.00000
( Mill infeed pass 1/1 )
G01 Z-0.10000
G04 P0 ( dwell for no time -- G64 should not smooth over this point )
G01 F180.00000
G01 X-59.86757 Y17.92064
G01 X-59.87928 Y18.15838
G01 X-59.93714 Y18.38917
G01 X-60.00493 Y18.53240
G01 X-60.02198 Y18.53740
G01 X-60.25032 Y18.30911
G01 X-60.20003 Y18.16887
G01 X-60.17999 Y17.98003
G01 X-60.20003 Y17.79120
G01 X-60.25030 Y17.65099
G01 X-60.02198 Y17.42265
G01 X-59.99861 Y17.42951
G01 X-59.98449 Y17.45597
G01 X-59.90247 Y17.68531
G01 X-59.86757 Y17.92064
G04 P0 ( dwell for no time -- G64 should not smooth over this point )
G00 Z5.00000 ( retract )

G00 X-61.90966 Y18.30911 ( rapid move to begin. )
G01 F90.00000
( Mill infeed pass 1/1 )
G01 Z-0.10000
G04 P0 ( dwell for no time -- G64 should not smooth over this point )
G01 F180.00000
G01 X-61.90966 Y18.30911
G01 X-62.13798 Y18.53740
G01 X-62.15479 Y18.53250
G01 X-62.25774 Y18.27304
G01 X-62.29236 Y18.03941
G01 X-62.28065 Y17.80172
G01 X-62.22281 Y17.57088
G01 X-62.15502 Y17.42765
G01 X-62.13798 Y17.42265
G01 X-61.90968 Y17.65097
G01 X-61.95995 Y17.79120
G01 X-61.97999 Y17.98003
G01 X-61.95995 Y18.16887
G01 X-61.90966 Y18.30911
G04 P0 ( dwell for no time -- G64 should not smooth over this point )
G00 Z5.00000 ( retract )

G00 X-60.52261 Y19.03804 ( rapid move to begin. )
G01 F90.00000
( Mill infeed pass 1/1 )
G01 Z-0.10000
G04 P0 ( dwell for no time -- G64 should not smooth over this point )
G01 F180.00000
G01 X-60.52261 Y19.03804
G01 X-60.74804 Y18.81259
G01 X-60.99637 Y18.87563
G01 X-61.17407 Y18.87507
G01 X-61.41192 Y18.81261
G01 X-61.63734 Y19.03801
G01 X-61.63234 Y19.05511
G01 X-61.48911 Y19.12287
G01 X-61.25825 Y19.18071
G01 X-61.02060 Y19.19244
G01 X-60.78525 Y19.15757
G01 X-60.55589 Y19.07560
G01 X-60.52947 Y19.06140
G01 X-60.52261 Y19.03804
G04 P0 ( dwell for no time -- G64 should not smooth over this point )
G00 Z5.00000 ( retract )

G00 X-51.36998 Y28.14000 ( rapid move to begin. )
G01 F90.00000
( Mill infeed pass 1/1 )
G01 Z-0.10000
G04 P0 ( dwell for no time -- G64 should not smooth over this point )
G01 F180.00000
G01 X-51.36998 Y28.14000
G01 X-51.38966 Y28.32712
G01 X-51.44780 Y28.50606
G01 X-51.54188 Y28.66903
G01 X-51.66037 Y28.80144
G01 X-51.82931 Y28.92420
G01 X-51.99187 Y28.99595
G01 X-52.18636 Y29.03563
G01 X-52.36406 Y29.03507
G01 X-52.54810 Y28.99595
G01 X-52.71999 Y28.91942
G01 X-52.87221 Y28.80883
G01 X-52.99809 Y28.66903
G01 X-53.09217 Y28.50606
G01 X-53.15031 Y28.32712
G01 X-53.17000 Y28.14000
G01 X-53.15031 Y27.95290
G01 X-53.09593 Y27.78371
G01 X-52.99151 Y27.60287
G01 X-52.87221 Y27.47119
G01 X-52.71999 Y27.36060
G01 X-52.54810 Y27.28407
G01 X-52.36406 Y27.24495
G01 X-52.17592 Y27.24495
G01 X-51.99187 Y27.28407
G01 X-51.81999 Y27.36060
G01 X-51.66777 Y27.47119
G01 X-51.54188 Y27.61099
G01 X-51.44780 Y27.77396
G01 X-51.38966 Y27.95290
G01 X-51.36998 Y28.14000
G01 X-51.06198 Y28.02105
G01 X-51.06198 Y28.25900
G01 X-51.10841 Y28.49240
G01 X-51.19947 Y28.71224
G01 X-51.33167 Y28.91010
G01 X-51.50013 Y29.07858
G01 X-51.74559 Y29.24688
G01 X-51.79700 Y29.32306
G01 X-51.81422 Y29.41909
G01 X-51.74569 Y29.57304
G01 X-51.50018 Y29.74144
G01 X-51.33167 Y29.90995
G01 X-51.19947 Y30.10781
G01 X-51.10841 Y30.32765
G01 X-51.06198 Y30.56105
G01 X-51.06198 Y30.79900
G01 X-51.10841 Y31.03240
G01 X-51.19947 Y31.25224
G01 X-51.33167 Y31.45010
G01 X-51.50015 Y31.61858
G01 X-51.74559 Y31.78688
G01 X-51.79700 Y31.86306
G01 X-51.81422 Y31.95909
G01 X-51.74569 Y32.11304
G01 X-51.50015 Y32.28147
G01 X-51.33167 Y32.44995
G01 X-51.19947 Y32.64781
G01 X-51.10841 Y32.86765
G01 X-51.06198 Y33.10105
G01 X-51.06198 Y33.33900
G01 X-51.10841 Y33.57240
G01 X-51.19947 Y33.79224
G01 X-51.33167 Y33.99010
G01 X-51.50015 Y34.15858
G01 X-51.74559 Y34.32688
G01 X-51.79700 Y34.40306
G01 X-51.81422 Y34.49909
G01 X-51.74569 Y34.65304
G01 X-51.50018 Y34.82144
G01 X-51.33167 Y34.98995
G01 X-51.19947 Y35.18781
G01 X-51.10841 Y35.40765
G01 X-51.06198 Y35.64105
G01 X-51.06198 Y35.87900
G01 X-51.10841 Y36.11240
G01 X-51.19947 Y36.33224
G01 X-51.33167 Y36.53010
G01 X-51.50015 Y36.69858
G01 X-51.74559 Y36.86688
G01 X-51.79700 Y36.94306
G01 X-51.81422 Y37.03909
G01 X-51.74569 Y37.19304
G01 X-51.50015 Y37.36147
G01 X-51.33167 Y37.52995
G01 X-51.19947 Y37.72781
G01 X-51.10841 Y37.94765
G01 X-51.06198 Y38.18105
G01 X-51.06198 Y38.41900
G01 X-51.10841 Y38.65240
G01 X-51.19947 Y38.87224
G01 X-51.33155 Y39.06990
G01 X-51.57904 Y39.31752
G01 X-51.61199 Y39.43454
G01 X-51.61064 Y39.72179
G01 X-51.57414 Y39.82954
G01 X-51.33114 Y40.07074
G01 X-51.19947 Y40.26781
G01 X-51.10841 Y40.48765
G01 X-51.06198 Y40.72105
G01 X-51.06198 Y40.95900
G01 X-51.10841 Y41.19240
G01 X-51.19947 Y41.41224
G01 X-51.33167 Y41.61010
G01 X-51.50013 Y41.77858
G01 X-51.74559 Y41.94688
G01 X-51.79700 Y42.02306
G01 X-51.81422 Y42.11909
G01 X-51.74569 Y42.27304
G01 X-51.50018 Y42.44144
G01 X-51.33167 Y42.60995
G01 X-51.19947 Y42.80781
G01 X-51.10841 Y43.02765
G01 X-51.06198 Y43.26105
G01 X-51.06198 Y43.49900
G01 X-51.10841 Y43.73240
G01 X-51.19947 Y43.95224
G01 X-51.33167 Y44.15010
G01 X-51.50015 Y44.31858
G01 X-51.74559 Y44.48688
G01 X-51.79700 Y44.56306
G01 X-51.81422 Y44.65909
G01 X-51.74569 Y44.81304
G01 X-51.50015 Y44.98147
G01 X-51.33167 Y45.14995
G01 X-51.19947 Y45.34781
G01 X-51.10841 Y45.56765
G01 X-51.06198 Y45.80105
G01 X-51.06198 Y46.03900
G01 X-51.10841 Y46.27240
G01 X-51.19947 Y46.49224
G01 X-51.33101 Y46.68914
G01 X-51.55141 Y46.90138
G01 X-51.60894 Y47.01753
G01 X-51.61199 Y49.19147
G01 X-51.49296 Y49.49462
G01 X-51.46195 Y49.65045
G01 X-51.46195 Y49.80960
G01 X-51.49301 Y49.96569
G01 X-51.55392 Y50.11275
G01 X-51.64237 Y50.24511
G01 X-51.75489 Y50.35763
G01 X-51.88725 Y50.44608
G01 X-52.03431 Y50.50699
G01 X-52.19040 Y50.53805
G01 X-52.34955 Y50.53805
G01 X-52.50566 Y50.50699
G01 X-52.65270 Y50.44608
G01 X-52.78506 Y50.35763
G01 X-52.89761 Y50.24509
G01 X-52.98603 Y50.11275
G01 X-53.04694 Y49.96569
G01 X-53.07800 Y49.80960
G01 X-53.07800 Y49.65045
G01 X-53.04699 Y49.49462
G01 X-52.92796 Y49.19149
G01 X-52.93101 Y47.01753
G01 X-52.98854 Y46.90138
G01 X-53.20894 Y46.68911
G01 X-53.34048 Y46.49224
G01 X-53.43154 Y46.27240
G01 X-53.47797 Y46.03900
G01 X-53.47800 Y45.79963
G01 X-53.43187 Y45.50253
G01 X-53.48691 Y45.38444
G01 X-53.58186 Y45.32069
G01 X-55.19448 Y45.30804
G01 X-55.33268 Y45.35533
G01 X-55.39928 Y45.43704
G01 X-55.41231 Y45.48602
G01 X-55.42196 Y47.92116
G01 X-55.30296 Y48.22459
G01 X-55.27195 Y48.38045
G01 X-55.27195 Y48.53960
G01 X-55.30301 Y48.69571
G01 X-55.36395 Y48.84278
G01 X-55.45234 Y48.97509
G01 X-55.56489 Y49.08763
G01 X-55.69725 Y49.17608
G01 X-55.84426 Y49.23699
G01 X-56.00037 Y49.26802
G01 X-56.15958 Y49.26802
G01 X-56.31569 Y49.23699
G01 X-56.46270 Y49.17608
G01 X-56.59504 Y49.08766
G01 X-56.70758 Y48.97511
G01 X-56.79600 Y48.84278
G01 X-56.85694 Y48.69569
G01 X-56.88800 Y48.53960
G01 X-56.88800 Y48.38045
G01 X-56.85699 Y48.22464
G01 X-56.73796 Y47.92147
G01 X-56.74164 Y44.65488
G01 X-56.72846 Y44.52107
G01 X-56.69084 Y44.39702
G01 X-56.62973 Y44.28269
G01 X-56.54749 Y44.18249
G01 X-56.44731 Y44.10027
G01 X-56.33298 Y44.03916
G01 X-56.20898 Y44.00154
G01 X-56.07515 Y43.98836
G01 X-53.90673 Y43.99204
G01 X-53.80881 Y43.96979
G01 X-53.53881 Y43.71828
G01 X-53.48282 Y43.62841
G01 X-53.47795 Y43.26082
G01 X-53.43154 Y43.02765
G01 X-53.34048 Y42.80779
G01 X-53.20830 Y42.60997
G01 X-53.03977 Y42.44144
G01 X-52.79642 Y42.27507
G01 X-52.73604 Y42.17855
G01 X-52.73131 Y42.05864
G01 X-52.78641 Y41.95557
G01 X-53.03980 Y41.77858
G01 X-53.20830 Y41.61010
G01 X-53.34048 Y41.41224
G01 X-53.43154 Y41.19240
G01 X-53.47797 Y40.95900
G01 X-53.47797 Y40.72105
G01 X-53.43154 Y40.48765
G01 X-53.34048 Y40.26781
G01 X-53.20843 Y40.07015
G01 X-52.96091 Y39.82253
G01 X-52.92796 Y39.70548
G01 X-52.92931 Y39.41826
G01 X-52.96581 Y39.31051
G01 X-53.20881 Y39.06932
G01 X-53.34048 Y38.87224
G01 X-53.43154 Y38.65240
G01 X-53.47797 Y38.41900
G01 X-53.47797 Y38.18105
G01 X-53.43154 Y37.94765
G01 X-53.34048 Y37.72781
G01 X-53.20830 Y37.52997
G01 X-53.03914 Y37.36081
G01 X-52.76997 Y37.16533
G01 X-52.72570 Y37.04133
G01 X-52.74396 Y36.94024
G01 X-52.81552 Y36.84941
G01 X-53.03926 Y36.69886
G01 X-53.26708 Y36.46437
G01 X-53.38824 Y36.41936
G01 X-56.38640 Y36.42152
G01 X-56.47690 Y36.45893
G01 X-56.64340 Y36.62050
G01 X-56.82516 Y36.74194
G01 X-57.02679 Y36.82545
G01 X-57.24083 Y36.86802
G01 X-57.45912 Y36.86802
G01 X-57.67314 Y36.82545
G01 X-57.87481 Y36.74191
G01 X-58.05627 Y36.62068
G01 X-58.21063 Y36.46632
G01 X-58.33189 Y36.28487
G01 X-58.41540 Y36.08321
G01 X-58.45797 Y35.86914
G01 X-58.45797 Y35.65091
G01 X-58.41540 Y35.43684
G01 X-58.33189 Y35.23519
G01 X-58.21063 Y35.05373
G01 X-58.05627 Y34.89937
G01 X-57.87446 Y34.77788
G01 X-57.63923 Y34.67329
G01 X-57.56707 Y34.58665
G01 X-57.54637 Y34.49244
G01 X-57.55772 Y34.41764
G01 X-57.61904 Y34.32272
G01 X-57.87349 Y34.20283
G01 X-58.05627 Y34.08068
G01 X-58.21063 Y33.92632
G01 X-58.33186 Y33.74487
G01 X-58.41540 Y33.54321
G01 X-58.45797 Y33.32914
G01 X-58.45797 Y33.11091
G01 X-58.41540 Y32.89684
G01 X-58.33189 Y32.69519
G01 X-58.21063 Y32.51373
G01 X-58.05627 Y32.35937
G01 X-57.87448 Y32.23788
G01 X-57.63923 Y32.13329
G01 X-57.56707 Y32.04665
G01 X-57.54637 Y31.95244
G01 X-57.55772 Y31.87764
G01 X-57.61904 Y31.78272
G01 X-57.87352 Y31.66280
G01 X-58.05627 Y31.54068
G01 X-58.21063 Y31.38632
G01 X-58.33189 Y31.20487
G01 X-58.41540 Y31.00321
G01 X-58.45797 Y30.78914
G01 X-58.45797 Y30.57091
G01 X-58.41540 Y30.35684
G01 X-58.33189 Y30.15519
G01 X-58.21063 Y29.97373
G01 X-58.05627 Y29.81937
G01 X-57.87481 Y29.69811
G01 X-57.67319 Y29.61460
G01 X-57.45912 Y29.57203
G01 X-57.24083 Y29.57203
G01 X-57.02676 Y29.61460
G01 X-56.82513 Y29.69811
G01 X-56.64337 Y29.81957
G01 X-56.47690 Y29.98112
G01 X-56.38640 Y30.01853
G01 X-53.40457 Y30.02204
G01 X-53.28747 Y29.98909
G01 X-53.03959 Y29.74132
G01 X-52.79433 Y29.57312
G01 X-52.74295 Y29.49697
G01 X-52.72662 Y29.38534
G01 X-52.79426 Y29.24698
G01 X-53.03980 Y29.07858
G01 X-53.20830 Y28.91010
G01 X-53.34048 Y28.71224
G01 X-53.43154 Y28.49240
G01 X-53.47797 Y28.25900
G01 X-53.47797 Y28.02105
G01 X-53.43154 Y27.78765
G01 X-53.34048 Y27.56781
G01 X-53.20830 Y27.36997
G01 X-53.04003 Y27.20170
G01 X-52.84219 Y27.06952
G01 X-52.62235 Y26.97846
G01 X-52.38892 Y26.93203
G01 X-52.15103 Y26.93203
G01 X-51.91760 Y26.97846
G01 X-51.69776 Y27.06952
G01 X-51.49987 Y27.20172
G01 X-51.33165 Y27.36997
G01 X-51.19947 Y27.56781
G01 X-51.10841 Y27.78765
G01 X-51.06198 Y28.02105
G04 P0 ( dwell for no time -- G64 should not smooth over this point )
G00 Z5.00000 ( retract )

G00 X-51.36998 Y30.68000 ( rapid move to begin. )
G01 F90.00000
( Mill infeed pass 1/1 )
G01 Z-0.10000
G04 P0 ( dwell for no time -- G64 should not smooth over this point )
G01 F180.00000
G01 X-51.36998 Y30.68000
G01 X-51.38966 Y30.49290
G01 X-51.44780 Y30.31396
G01 X-51.54188 Y30.15099
G01 X-51.66037 Y30.01858
G01 X-51.82931 Y29.89583
G01 X-51.99187 Y29.82407
G01 X-52.18636 Y29.78440
G01 X-52.36406 Y29.78495
G01 X-52.53800 Y29.82135
G01 X-52.71999 Y29.90060
G01 X-52.87221 Y30.01119
G01 X-52.99151 Y30.14287
G01 X-53.09796 Y30.33001
G01 X-56.63867 Y30.33001
G01 X-56.70156 Y30.21147
G01 X-56.80728 Y30.09290
G01 X-56.94998 Y29.98719
G01 X-57.10278 Y29.91917
G01 X-57.25602 Y29.88602
G01 X-57.43362 Y29.88440
G01 X-57.59719 Y29.91917
G01 X-57.75000 Y29.98719
G01 X-57.88528 Y30.08549
G01 X-57.99061 Y30.20164
G01 X-58.08457 Y30.36440
G01 X-58.13250 Y30.51368
G01 X-58.15000 Y30.68000
G01 X-58.13250 Y30.84634
G01 X-58.08457 Y30.99562
G01 X-57.99061 Y31.15838
G01 X-57.88528 Y31.27454
G01 X-57.75000 Y31.37284
G01 X-57.59719 Y31.44086
G01 X-57.43362 Y31.47563
G01 X-57.25602 Y31.47400
G01 X-57.10278 Y31.44086
G01 X-56.94998 Y31.37284
G01 X-56.80728 Y31.26712
G01 X-56.70156 Y31.14855
G01 X-56.63867 Y31.03001
G01 X-53.09796 Y31.03001
G01 X-52.99809 Y31.20903
G01 X-52.86408 Y31.35544
G01 X-52.71999 Y31.45942
G01 X-52.55788 Y31.53222
G01 X-52.35362 Y31.57563
G01 X-52.17592 Y31.57507
G01 X-51.99187 Y31.53595
G01 X-51.81999 Y31.45942
G01 X-51.66777 Y31.34883
G01 X-51.54188 Y31.20903
G01 X-51.44780 Y31.04606
G01 X-51.38966 Y30.86712
G01 X-51.36998 Y30.68000
G04 P0 ( dwell for no time -- G64 should not smooth over this point )
G00 Z5.00000 ( retract )

G00 X-51.36998 Y33.22000 ( rapid move to begin. )
G01 F90.00000
( Mill infeed pass 1/1 )
G01 Z-0.10000
G04 P0 ( dwell for no time -- G64 should not smooth over this point )
G01 F180.00000
G01 X-51.36998 Y33.22000
G01 X-51.38966 Y33.03290
G01 X-51.44780 Y32.85396
G01 X-51.54188 Y32.69099
G01 X-51.66037 Y32.55858
G01 X-51.82931 Y32.43583
G01 X-51.99187 Y32.36407
G01 X-52.18636 Y32.32440
G01 X-52.36406 Y32.32495
G01 X-52.53800 Y32.36135
G01 X-52.71999 Y32.44060
G01 X-52.87221 Y32.55119
G01 X-52.99151 Y32.68287
G01 X-53.09796 Y32.87001
G01 X-56.63867 Y32.87001
G01 X-56.70156 Y32.75147
G01 X-56.80728 Y32.63290
G01 X-56.94998 Y32.52719
G01 X-57.10278 Y32.45917
G01 X-57.25602 Y32.42602
G01 X-57.43362 Y32.42440
G01 X-57.59719 Y32.45917
G01 X-57.75000 Y32.52719
G01 X-57.88528 Y32.62549
G01 X-57.99061 Y32.74164
G01 X-58.08457 Y32.90440
G01 X-58.13250 Y33.05368
G01 X-58.15000 Y33.22000
G01 X-58.13250 Y33.38634
G01 X-58.08457 Y33.53562
G01 X-57.99061 Y33.69838
G01 X-57.88528 Y33.81454
G01 X-57.75000 Y33.91284
G01 X-57.59719 Y33.98086
G01 X-57.43362 Y34.01563
G01 X-57.25602 Y34.01400
G01 X-57.10278 Y33.98086
G01 X-56.94998 Y33.91284
G01 X-56.80728 Y33.80712
G01 X-56.70156 Y33.68855
G01 X-56.63867 Y33.57001
G01 X-53.09796 Y33.57001
G01 X-52.99809 Y33.74903
G01 X-52.86408 Y33.89544
G01 X-52.71999 Y33.99942
G01 X-52.55788 Y34.07222
G01 X-52.35362 Y34.11563
G01 X-52.17592 Y34.11507
G01 X-51.99187 Y34.07595
G01 X-51.81999 Y33.99942
G01 X-51.66777 Y33.88883
G01 X-51.54188 Y33.74903
G01 X-51.44780 Y33.58606
G01 X-51.38966 Y33.40712
G01 X-51.36998 Y33.22000
G04 P0 ( dwell for no time -- G64 should not smooth over this point )
G00 Z5.00000 ( retract )

G00 X-51.36998 Y35.76000 ( rapid move to begin. )
G01 F90.00000
( Mill infeed pass 1/1 )
G01 Z-0.10000
G04 P0 ( dwell for no time -- G64 should not smooth over this point )
G01 F180.00000
G01 X-51.36998 Y35.76000
G01 X-51.38966 Y35.57290
G01 X-51.44780 Y35.39396
G01 X-51.54188 Y35.23099
G01 X-51.66037 Y35.09858
G01 X-51.82931 Y34.97583
G01 X-51.99187 Y34.90407
G01 X-52.18636 Y34.86440
G01 X-52.36406 Y34.86495
G01 X-52.53800 Y34.90135
G01 X-52.71999 Y34.98060
G01 X-52.87221 Y35.09119
G01 X-52.99151 Y35.22287
G01 X-53.09796 Y35.41001
G01 X-56.63867 Y35.41001
G01 X-56.70156 Y35.29147
G01 X-56.80728 Y35.17290
G01 X-56.94998 Y35.06719
G01 X-57.10278 Y34.99917
G01 X-57.25602 Y34.96602
G01 X-57.43362 Y34.96440
G01 X-57.59719 Y34.99917
G01 X-57.75000 Y35.06719
G01 X-57.88528 Y35.16549
G01 X-57.99061 Y35.28164
G01 X-58.08457 Y35.44440
G01 X-58.13250 Y35.59368
G01 X-58.15000 Y35.76000
G01 X-58.13250 Y35.92634
G01 X-58.08457 Y36.07562
G01 X-57.99061 Y36.23838
G01 X-57.88528 Y36.35454
G01 X-57.75000 Y36.45284
G01 X-57.59719 Y36.52086
G01 X-57.43362 Y36.55563
G01 X-57.25602 Y36.55400
G01 X-57.10278 Y36.52086
G01 X-56.94998 Y36.45284
G01 X-56.80728 Y36.34712
G01 X-56.70156 Y36.22855
G01 X-56.63867 Y36.11001
G01 X-53.09796 Y36.11001
G01 X-52.99809 Y36.28903
G01 X-52.86408 Y36.43544
G01 X-52.71999 Y36.53942
G01 X-52.55788 Y36.61222
G01 X-52.35362 Y36.65563
G01 X-52.17592 Y36.65507
G01 X-51.99187 Y36.61595
G01 X-51.81999 Y36.53942
G01 X-51.66777 Y36.42883
G01 X-51.54188 Y36.28903
G01 X-51.44780 Y36.12606
G01 X-51.38966 Y35.94712
G01 X-51.36998 Y35.76000
G04 P0 ( dwell for no time -- G64 should not smooth over this point )
G00 Z5.00000 ( retract )

G00 X-51.36998 Y38.30000 ( rapid move to begin. )
G01 F90.00000
( Mill infeed pass 1/1 )
G01 Z-0.10000
G04 P0 ( dwell for no time -- G64 should not smooth over this point )
G01 F180.00000
G01 X-51.36998 Y38.30000
G01 X-51.38966 Y38.11290
G01 X-51.44404 Y37.94371
G01 X-51.54846 Y37.76287
G01 X-51.66777 Y37.63119
G01 X-51.81999 Y37.52060
G01 X-51.99187 Y37.44407
G01 X-52.16558 Y37.40658
G01 X-52.37439 Y37.40658
G01 X-52.54810 Y37.44407
G01 X-52.71999 Y37.52060
G01 X-52.87221 Y37.63119
G01 X-52.99151 Y37.76287
G01 X-53.09593 Y37.94371
G01 X-53.15031 Y38.11290
G01 X-53.17000 Y38.30000
G01 X-53.15031 Y38.48712
G01 X-53.09217 Y38.66606
G01 X-52.99809 Y38.82903
G01 X-52.87221 Y38.96883
G01 X-52.71999 Y39.07942
G01 X-52.61999 Y39.12456
G01 X-52.61999 Y40.01547
G01 X-52.71999 Y40.06060
G01 X-52.87221 Y40.17119
G01 X-52.99809 Y40.31099
G01 X-53.08742 Y40.46461
G01 X-53.15196 Y40.66324
G01 X-53.17000 Y40.84000
G01 X-53.15196 Y41.01678
G01 X-53.09217 Y41.20606
G01 X-52.99151 Y41.37716
G01 X-52.87221 Y41.50883
G01 X-52.72877 Y41.61373
G01 X-52.54810 Y41.69595
G01 X-52.36406 Y41.73507
G01 X-52.17592 Y41.73507
G01 X-51.99187 Y41.69595
G01 X-51.82931 Y41.62420
G01 X-51.66777 Y41.50883
G01 X-51.54846 Y41.37716
G01 X-51.44404 Y41.19631
G01 X-51.38966 Y41.02712
G01 X-51.36998 Y40.84000
G01 X-51.38966 Y40.65290
G01 X-51.44780 Y40.47396
G01 X-51.54188 Y40.31099
G01 X-51.66777 Y40.17119
G01 X-51.81999 Y40.06060
G01 X-51.91999 Y40.01547
G01 X-51.91999 Y39.12456
G01 X-51.81999 Y39.07942
G01 X-51.67589 Y38.97544
G01 X-51.54188 Y38.82903
G01 X-51.44780 Y38.66606
G01 X-51.39235 Y38.49726
G01 X-51.36998 Y38.30000
G04 P0 ( dwell for no time -- G64 should not smooth over this point )
G00 Z5.00000 ( retract )

G00 X-51.36998 Y43.38000 ( rapid move to begin. )
G01 F90.00000
( Mill infeed pass 1/1 )
G01 Z-0.10000
G04 P0 ( dwell for no time -- G64 should not smooth over this point )
G01 F180.00000
G01 X-51.36998 Y43.38000
G01 X-51.38966 Y43.19290
G01 X-51.44780 Y43.01396
G01 X-51.54188 Y42.85099
G01 X-51.67589 Y42.70459
G01 X-51.81999 Y42.60060
G01 X-52.00198 Y42.52135
G01 X-52.18636 Y42.48440
G01 X-52.36406 Y42.48495
G01 X-52.53800 Y42.52135
G01 X-52.71999 Y42.60060
G01 X-52.86408 Y42.70459
G01 X-53.00381 Y42.85978
G01 X-53.09217 Y43.01396
G01 X-53.15196 Y43.20324
G01 X-53.17000 Y43.38000
G01 X-53.15196 Y43.55678
G01 X-53.09776 Y43.71282
G01 X-53.68496 Y44.30001
G01 X-56.08978 Y44.30050
G01 X-56.22567 Y44.33245
G01 X-56.36194 Y44.44396
G01 X-56.42999 Y44.65000
G01 X-56.42999 Y48.10905
G01 X-56.48320 Y48.16439
G01 X-56.53877 Y48.26147
G01 X-56.57975 Y48.45304
G01 X-56.53938 Y48.65690
G01 X-56.41835 Y48.82797
G01 X-56.32539 Y48.89553
G01 X-56.13916 Y48.95629
G01 X-55.93220 Y48.93747
G01 X-55.74040 Y48.82673
G01 X-55.62547 Y48.66810
G01 X-55.58996 Y48.55883
G01 X-55.59362 Y48.34595
G01 X-55.62796 Y48.24733
G01 X-55.72999 Y48.10905
G01 X-55.72999 Y44.99981
G01 X-53.45900 Y44.98988
G01 X-53.29250 Y44.89750
G01 X-52.60584 Y44.21086
G01 X-52.36406 Y44.27507
G01 X-52.16558 Y44.27344
G01 X-51.98209 Y44.23222
G01 X-51.81999 Y44.15942
G01 X-51.67589 Y44.05544
G01 X-51.54188 Y43.90903
G01 X-51.44780 Y43.74606
G01 X-51.38966 Y43.56712
G01 X-51.36998 Y43.38000
G04 P0 ( dwell for no time -- G64 should not smooth over this point )
G00 Z5.00000 ( retract )

G00 X-51.36998 Y45.92000 ( rapid move to begin. )
G01 F90.00000
( Mill infeed pass 1/1 )
G01 Z-0.10000
G04 P0 ( dwell for no time -- G64 should not smooth over this point )
G01 F180.00000
G01 X-51.36998 Y45.92000
G01 X-51.38966 Y45.73290
G01 X-51.44404 Y45.56371
G01 X-51.54846 Y45.38287
G01 X-51.66777 Y45.25119
G01 X-51.81999 Y45.14060
G01 X-51.99187 Y45.06407
G01 X-52.17592 Y45.02495
G01 X-52.36406 Y45.02495
G01 X-52.54810 Y45.06407
G01 X-52.71999 Y45.14060
G01 X-52.86408 Y45.24459
G01 X-53.00381 Y45.39978
G01 X-53.09217 Y45.55396
G01 X-53.15031 Y45.73290
G01 X-53.17000 Y45.92000
G01 X-53.15196 Y46.09678
G01 X-53.08742 Y46.29541
G01 X-52.99809 Y46.44903
G01 X-52.87221 Y46.58883
G01 X-52.71999 Y46.69942
G01 X-52.61999 Y46.74456
G01 X-52.61999 Y49.37905
G01 X-52.67320 Y49.43439
G01 X-52.72877 Y49.53147
G01 X-52.76975 Y49.73698
G01 X-52.72938 Y49.92690
G01 X-52.61854 Y50.08606
G01 X-52.41437 Y50.20826
G01 X-52.31704 Y50.22769
G01 X-52.10891 Y50.20315
G01 X-51.93040 Y50.09673
G01 X-51.80675 Y49.91349
G01 X-51.77216 Y49.70922
G01 X-51.81120 Y49.53147
G01 X-51.86678 Y49.43439
G01 X-51.91999 Y49.37905
G01 X-51.91999 Y46.74456
G01 X-51.81999 Y46.69942
G01 X-51.67589 Y46.59544
G01 X-51.54188 Y46.44903
G01 X-51.44780 Y46.28606
G01 X-51.39235 Y46.11726
G01 X-51.36998 Y45.92000
G04 P0 ( dwell for no time -- G64 should not smooth over this point )
G00 Z5.00000 ( retract )

G00 X-61.38276 Y52.98316 ( rapid move to begin. )
G01 F90.00000
( Mill infeed pass 1/1 )
G01 Z-0.10000
G04 P0 ( dwell for no time -- G64 should not smooth over this point )
