( pcb2gcode 2.4.0 )
( Software-independent Gcode )
( This file uses a mill head of 0.80000mm to drill the 8 hole sizes. )
( Hole sizes: [0.4mm] [0.7mm] [0.8mm] [0.95mm] [1mm] [1.1mm] [1.3mm] [1.52mm] )

G94       (Millimeters per minute feed rate.)
G21       (Units == Millimeters.)
G90       (Absolute coordinates.)
S10000    (RPM spindle speed.)

G01 F180.00000 (Feedrate)
G00 Z5.00000 (Retract)
T1
M5        (Spindle stop.)
G04 P1.00000
(MSG, Change tool bit to drill size 0.80000mm)
M6        (Tool change.)
M0        (Temporary machine stop.)
M3        (Spindle on clockwise.)
G04 P1.00000
G00 Z5.00000

G0 X-53.59400 Y49.53000
G1 Z-1.80000 F60.00000
G1 Z5.00000 F60.00000

G0 X-52.32400 Y48.26000
G1 Z-1.80000 F60.00000
G1 Z5.00000 F60.00000

G0 X-29.46400 Y48.26000
G1 Z-1.80000 F60.00000
G1 Z5.00000 F60.00000

G0 X-26.92400 Y49.53000
G1 Z-1.80000 F60.00000
G1 Z5.00000 F60.00000

G0 X-5.33400 Y12.70000
G1 Z-1.80000 F60.00000
G1 Z5.00000 F60.00000

G0 X-5.33400 Y2.54000
G1 Z-1.80000 F60.00000
G1 Z5.00000 F60.00000

G0 X-61.21400 Y35.56000
G1 Z-1.80000 F60.00000
G1 Z5.00000 F60.00000

G0 X-61.21400 Y33.02000
G1 Z-1.80000 F60.00000
G1 Z5.00000 F60.00000

G0 X-61.21400 Y30.48000
G1 Z-1.80000 F60.00000
G1 Z5.00000 F60.00000

G0 X-57.40400 Y30.48000
G1 Z-1.80000 F60.00000
G1 Z5.00000 F60.00000

G0 X-57.40400 Y33.02000
G1 Z-1.80000 F60.00000
G1 Z5.00000 F60.00000

G0 X-57.40400 Y35.56000
G1 Z-1.80000 F60.00000
G1 Z5.00000 F60.00000

G0 X-61.13400 Y17.78000
G1 Z-1.80000 F60.00000
G1 Z5.00000 F60.00000

G0 X-56.13400 Y17.78000
G1 Z-1.80000 F60.00000
G1 Z5.00000 F60.00000

G0 X-52.32400 Y27.94000
G1 Z-1.80000 F60.00000
G1 Z5.00000 F60.00000

G0 X-52.32400 Y30.48000
G1 Z-1.80000 F60.00000
G1 Z5.00000 F60.00000

G0 X-52.32400 Y33.02000
G1 Z-1.80000 F60.00000
G1 Z5.00000 F60.00000

G0 X-52.32400 Y35.56000
G1 Z-1.80000 F60.00000
G1 Z5.00000 F60.00000

G0 X-52.32400 Y38.10000
G1 Z-1.80000 F60.00000
G1 Z5.00000 F60.00000

G0 X-52.32400 Y40.64000
G1 Z-1.80000 F60.00000
G1 Z5.00000 F60.00000

G0 X-52.32400 Y43.18000
G1 Z-1.80000 F60.00000
G1 Z5.00000 F60.00000

G0 X-52.32400 Y45.72000
G1 Z-1.80000 F60.00000
G1 Z5.00000 F60.00000

G0 X-47.24400 Y52.07000
G1 Z-1.80000 F60.00000
G1 Z5.00000 F60.00000

G0 X-47.24400 Y57.07000
G1 Z-1.80000 F60.00000
G1 Z5.00000 F60.00000

G0 X-37.08400 Y58.34000
G1 Z-1.80000 F60.00000
G1 Z5.00000 F60.00000

G0 X-37.08400 Y53.34000
G1 Z-1.80000 F60.00000
G1 Z5.00000 F60.00000

G0 X-39.62400 Y45.72000
G1 Z-1.80000 F60.00000
G1 Z5.00000 F60.00000

G0 X-39.62400 Y43.18000
G1 Z-1.80000 F60.00000
G1 Z5.00000 F60.00000

G0 X-39.62400 Y40.64000
G1 Z-1.80000 F60.00000
G1 Z5.00000 F60.00000

G0 X-39.62400 Y38.10000
G1 Z-1.80000 F60.00000
G1 Z5.00000 F60.00000

G0 X-39.62400 Y35.56000
G1 Z-1.80000 F60.00000
G1 Z5.00000 F60.00000

G0 X-39.62400 Y33.02000
G1 Z-1.80000 F60.00000
G1 Z5.00000 F60.00000

G0 X-39.62400 Y30.48000
G1 Z-1.80000 F60.00000
G1 Z5.00000 F60.00000

G0 X-39.62400 Y27.94000
G1 Z-1.80000 F60.00000
G1 Z5.00000 F60.00000

G0 X-42.16400 Y21.59000
G1 Z-1.80000 F60.00000
G1 Z5.00000 F60.00000

G0 X-42.16400 Y16.51000
G1 Z-1.80000 F60.00000
G1 Z5.00000 F60.00000

G0 X-32.00400 Y21.59000
G1 Z-1.80000 F60.00000
G1 Z5.00000 F60.00000

G0 X-32.00400 Y16.51000
G1 Z-1.80000 F60.00000
G1 Z5.00000 F60.00000

G0 X-33.19900 Y40.64000
G1 Z0.90000 F60.00000
G1 F180.00000
G2 X-33.19900 Y40.64000 Z-0.00000 I-0.07500 J0.00000
G2 X-33.19900 Y40.64000 Z-0.90000 I-0.07500 J0.00000
G2 X-33.19900 Y40.64000 Z-1.80000 I-0.07500 J0.00000
G2 X-33.19900 Y40.64000 I-0.07500 J0.00000
G1 Z5.00000 F60.00000

G0 X-33.19900 Y38.14000
G1 Z0.90000 F60.00000
G1 F180.00000
G2 X-33.19900 Y38.14000 Z-0.00000 I-0.07500 J0.00000
G2 X-33.19900 Y38.14000 Z-0.90000 I-0.07500 J0.00000
G2 X-33.19900 Y38.14000 Z-1.80000 I-0.07500 J0.00000
G2 X-33.19900 Y38.14000 I-0.07500 J0.00000
G1 Z5.00000 F60.00000

G0 X-33.19900 Y35.64000
G1 Z0.90000 F60.00000
G1 F180.00000
G2 X-33.19900 Y35.64000 Z-0.00000 I-0.07500 J0.00000
G2 X-33.19900 Y35.64000 Z-0.90000 I-0.07500 J0.00000
G2 X-33.19900 Y35.64000 Z-1.80000 I-0.07500 J0.00000
G2 X-33.19900 Y35.64000 I-0.07500 J0.00000
G1 Z5.00000 F60.00000

G0 X-33.19900 Y33.14000
G1 Z0.90000 F60.00000
G1 F180.00000
G2 X-33.19900 Y33.14000 Z-0.00000 I-0.07500 J0.00000
G2 X-33.19900 Y33.14000 Z-0.90000 I-0.07500 J0.00000
G2 X-33.19900 Y33.14000 Z-1.80000 I-0.07500 J0.00000
G2 X-33.19900 Y33.14000 I-0.07500 J0.00000
G1 Z5.00000 F60.00000

G0 X-24.28400 Y44.45000
G1 Z0.90000 F60.00000
G1 F180.00000
G2 X-24.28400 Y44.45000 Z-0.00000 I-0.10000 J0.00000
G2 X-24.28400 Y44.45000 Z-0.90000 I-0.10000 J0.00000
G2 X-24.28400 Y44.45000 Z-1.80000 I-0.10000 J0.00000
G2 X-24.28400 Y44.45000 I-0.10000 J0.00000
G1 Z5.00000 F60.00000

G0 X-24.28400 Y41.91000
G1 Z0.90000 F60.00000
G1 F180.00000
G2 X-24.28400 Y41.91000 Z-0.00000 I-0.10000 J0.00000
G2 X-24.28400 Y41.91000 Z-0.90000 I-0.10000 J0.00000
G2 X-24.28400 Y41.91000 Z-1.80000 I-0.10000 J0.00000
G2 X-24.28400 Y41.91000 I-0.10000 J0.00000
G1 Z5.00000 F60.00000

G0 X-24.28400 Y39.37000
G1 Z0.90000 F60.00000
G1 F180.00000
G2 X-24.28400 Y39.37000 Z-0.00000 I-0.10000 J0.00000
G2 X-24.28400 Y39.37000 Z-0.90000 I-0.10000 J0.00000
G2 X-24.28400 Y39.37000 Z-1.80000 I-0.10000 J0.00000
G2 X-24.28400 Y39.37000 I-0.10000 J0.00000
G1 Z5.00000 F60.00000

G0 X-24.28400 Y36.83000
G1 Z0.90000 F60.00000
G1 F180.00000
G2 X-24.28400 Y36.83000 Z-0.00000 I-0.10000 J0.00000
G2 X-24.28400 Y36.83000 Z-0.90000 I-0.10000 J0.00000
G2 X-24.28400 Y36.83000 Z-1.80000 I-0.10000 J0.00000
G2 X-24.28400 Y36.83000 I-0.10000 J0.00000
G1 Z5.00000 F60.00000

G0 X-24.28400 Y34.29000
G1 Z0.90000 F60.00000
G1 F180.00000
G2 X-24.28400 Y34.29000 Z-0.00000 I-0.10000 J0.00000
G2 X-24.28400 Y34.29000 Z-0.90000 I-0.10000 J0.00000
G2 X-24.28400 Y34.29000 Z-1.80000 I-0.10000 J0.00000
G2 X-24.28400 Y34.29000 I-0.10000 J0.00000
G1 Z5.00000 F60.00000

G0 X-24.28400 Y31.75000
G1 Z0.90000 F60.00000
G1 F180.00000
G2 X-24.28400 Y31.75000 Z-0.00000 I-0.10000 J0.00000
G2 X-24.28400 Y31.75000 Z-0.90000 I-0.10000 J0.00000
G2 X-24.28400 Y31.75000 Z-1.80000 I-0.10000 J0.00000
G2 X-24.28400 Y31.75000 I-0.10000 J0.00000
G1 Z5.00000 F60.00000

G0 X-24.28400 Y29.21000
G1 Z0.90000 F60.00000
G1 F180.00000
G2 X-24.28400 Y29.21000 Z-0.00000 I-0.10000 J0.00000
G2 X-24.28400 Y29.21000 Z-0.90000 I-0.10000 J0.00000
G2 X-24.28400 Y29.21000 Z-1.80000 I-0.10000 J0.00000
G2 X-24.28400 Y29.21000 I-0.10000 J0.00000
G1 Z5.00000 F60.00000

G0 X-24.28400 Y26.67000
G1 Z0.90000 F60.00000
G1 F180.00000
G2 X-24.28400 Y26.67000 Z-0.00000 I-0.10000 J0.00000
G2 X-24.28400 Y26.67000 Z-0.90000 I-0.10000 J0.00000
G2 X-24.28400 Y26.67000 Z-1.80000 I-0.10000 J0.00000
G2 X-24.28400 Y26.67000 I-0.10000 J0.00000
G1 Z5.00000 F60.00000

G0 X-24.28400 Y24.13000
G1 Z0.90000 F60.00000
G1 F180.00000
G2 X-24.28400 Y24.13000 Z-0.00000 I-0.10000 J0.00000
G2 X-24.28400 Y24.13000 Z-0.90000 I-0.10000 J0.00000
G2 X-24.28400 Y24.13000 Z-1.80000 I-0.10000 J0.00000
G2 X-24.28400 Y24.13000 I-0.10000 J0.00000
G1 Z5.00000 F60.00000

G0 X-24.28400 Y21.59000
G1 Z0.90000 F60.00000
G1 F180.00000
G2 X-24.28400 Y21.59000 Z-0.00000 I-0.10000 J0.00000
G2 X-24.28400 Y21.59000 Z-0.90000 I-0.10000 J0.00000
G2 X-24.28400 Y21.59000 Z-1.80000 I-0.10000 J0.00000
G2 X-24.28400 Y21.59000 I-0.10000 J0.00000
G1 Z5.00000 F60.00000

G0 X-24.28400 Y19.05000
G1 Z0.90000 F60.00000
G1 F180.00000
G2 X-24.28400 Y19.05000 Z-0.00000 I-0.10000 J0.00000
G2 X-24.28400 Y19.05000 Z-0.90000 I-0.10000 J0.00000
G2 X-24.28400 Y19.05000 Z-1.80000 I-0.10000 J0.00000
G2 X-24.28400 Y19.05000 I-0.10000 J0.00000
G1 Z5.00000 F60.00000

G0 X-24.28400 Y16.51000
G1 Z0.90000 F60.00000
G1 F180.00000
G2 X-24.28400 Y16.51000 Z-0.00000 I-0.10000 J0.00000
G2 X-24.28400 Y16.51000 Z-0.90000 I-0.10000 J0.00000
G2 X-24.28400 Y16.51000 Z-1.80000 I-0.10000 J0.00000
G2 X-24.28400 Y16.51000 I-0.10000 J0.00000
G1 Z5.00000 F60.00000

G0 X-24.28400 Y13.97000
G1 Z0.90000 F60.00000
G1 F180.00000
G2 X-24.28400 Y13.97000 Z-0.00000 I-0.10000 J0.00000
G2 X-24.28400 Y13.97000 Z-0.90000 I-0.10000 J0.00000
G2 X-24.28400 Y13.97000 Z-1.80000 I-0.10000 J0.00000
G2 X-24.28400 Y13.97000 I-0.10000 J0.00000
G1 Z5.00000 F60.00000

G0 X-24.28400 Y11.43000
G1 Z0.90000 F60.00000
G1 F180.00000
G2 X-24.28400 Y11.43000 Z-0.00000 I-0.10000 J0.00000
G2 X-24.28400 Y11.43000 Z-0.90000 I-0.10000 J0.00000
G2 X-24.28400 Y11.43000 Z-1.80000 I-0.10000 J0.00000
G2 X-24.28400 Y11.43000 I-0.10000 J0.00000
G1 Z5.00000 F60.00000

G0 X-24.28400 Y8.89000
G1 Z0.90000 F60.00000
G1 F180.00000
G2 X-24.28400 Y8.89000 Z-0.00000 I-0.10000 J0.00000
G2 X-24.28400 Y8.89000 Z-0.90000 I-0.10000 J0.00000
G2 X-24.28400 Y8.89000 Z-1.80000 I-0.10000 J0.00000
G2 X-24.28400 Y8.89000 I-0.10000 J0.00000
G1 Z5.00000 F60.00000

G0 X-9.04400 Y8.89000
G1 Z0.90000 F60.00000
G1 F180.00000
G2 X-9.04400 Y8.89000 Z-0.00000 I-0.10000 J0.00000
G2 X-9.04400 Y8.89000 Z-0.90000 I-0.10000 J0.00000
G2 X-9.04400 Y8.89000 Z-1.80000 I-0.10000 J0.00000
G2 X-9.04400 Y8.89000 I-0.10000 J0.00000
G1 Z5.00000 F60.00000

G0 X-9.04400 Y11.43000
G1 Z0.90000 F60.00000
G1 F180.00000
G2 X-9.04400 Y11.43000 Z-0.00000 I-0.10000 J0.00000
G2 X-9.04400 Y11.43000 Z-0.90000 I-0.10000 J0.00000
G2 X-9.04400 Y11.43000 Z-1.80000 I-0.10000 J0.00000
G2 X-9.04400 Y11.43000 I-0.10000 J0.00000
G1 Z5.00000 F60.00000

G0 X-9.04400 Y13.97000
G1 Z0.90000 F60.00000
G1 F180.00000
G2 X-9.04400 Y13.97000 Z-0.00000 I-0.10000 J0.00000
G2 X-9.04400 Y13.97000 Z-0.90000 I-0.10000 J0.00000
G2 X-9.04400 Y13.97000 Z-1.80000 I-0.10000 J0.00000
G2 X-9.04400 Y13.97000 I-0.10000 J0.00000
G1 Z5.00000 F60.00000

G0 X-9.04400 Y16.51000
G1 Z0.90000 F60.00000
G1 F180.00000
G2 X-9.04400 Y16.51000 Z-0.00000 I-0.10000 J0.00000
G2 X-9.04400 Y16.51000 Z-0.90000 I-0.10000 J0.00000
G2 X-9.04400 Y16.51000 Z-1.80000 I-0.10000 J0.00000
G2 X-9.04400 Y16.51000 I-0.10000 J0.00000
G1 Z5.00000 F60.00000

G0 X-9.04400 Y19.05000
G1 Z0.90000 F60.00000
G1 F180.00000
G2 X-9.04400 Y19.05000 Z-0.00000 I-0.10000 J0.00000
G2 X-9.04400 Y19.05000 Z-0.90000 I-0.10000 J0.00000
G2 X-9.04400 Y19.05000 Z-1.80000 I-0.10000 J0.00000
G2 X-9.04400 Y19.05000 I-0.10000 J0.00000
G1 Z5.00000 F60.00000

G0 X-9.04400 Y21.59000
G1 Z0.90000 F60.00000
G1 F180.00000
G2 X-9.04400 Y21.59000 Z-0.00000 I-0.10000 J0.00000
G2 X-9.04400 Y21.59000 Z-0.90000 I-0.10000 J0.00000
G2 X-9.04400 Y21.59000 Z-1.80000 I-0.10000 J0.00000
G2 X-9.04400 Y21.59000 I-0.10000 J0.00000
G1 Z5.00000 F60.00000

G0 X-9.04400 Y24.13000
G1 Z0.90000 F60.00000
G1 F180.00000
G2 X-9.04400 Y24.13000 Z-0.00000 I-0.10000 J0.00000
G2 X-9.04400 Y24.13000 Z-0.90000 I-0.10000 J0.00000
G2 X-9.04400 Y24.13000 Z-1.80000 I-0.10000 J0.00000
G2 X-9.04400 Y24.13000 I-0.10000 J0.00000
G1 Z5.00000 F60.00000

G0 X-9.04400 Y26.67000
G1 Z0.90000 F60.00000
G1 F180.00000
G2 X-9.04400 Y26.67000 Z-0.00000 I-0.10000 J0.00000
G2 X-9.04400 Y26.67000 Z-0.90000 I-0.10000 J0.00000
G2 X-9.04400 Y26.67000 Z-1.80000 I-0.10000 J0.00000
G2 X-9.04400 Y26.67000 I-0.10000 J0.00000
G1 Z5.00000 F60.00000

G0 X-9.04400 Y29.21000
G1 Z0.90000 F60.00000
G1 F180.00000
G2 X-9.04400 Y29.21000 Z-0.00000 I-0.10000 J0.00000
G2 X-9.04400 Y29.21000 Z-0.90000 I-0.10000 J0.00000
G2 X-9.04400 Y29.21000 Z-1.80000 I-0.10000 J0.00000
G2 X-9.04400 Y29.21000 I-0.10000 J0.00000
G1 Z5.00000 F60.00000

G0 X-9.04400 Y31.75000
G1 Z0.90000 F60.00000
G1 F180.00000
G2 X-9.04400 Y31.75000 Z-0.00000 I-0.10000 J0.00000
G2 X-9.04400 Y31.75000 Z-0.90000 I-0.10000 J0.00000
G2 X-9.04400 Y31.75000 Z-1.80000 I-0.10000 J0.00000
G2 X-9.04400 Y31.75000 I-0.10000 J0.00000
G1 Z5.00000 F60.00000

G0 X-9.04400 Y34.29000
G1 Z0.90000 F60.00000
G1 F180.00000
G2 X-9.04400 Y34.29000 Z-0.00000 I-0.10000 J0.00000
G2 X-9.04400 Y34.29000 Z-0.90000 I-0.10000 J0.00000
G2 X-9.04400 Y34.29000 Z-1.80000 I-0.10000 J0.00000
G2 X-9.04400 Y34.29000 I-0.10000 J0.00000
G1 Z5.00000 F60.00000

G0 X-9.04400 Y36.83000
G1 Z0.90000 F60.00000
G1 F180.00000
G2 X-9.04400 Y36.83000 Z-0.00000 I-0.10000 J0.00000
G2 X-9.04400 Y36.83000 Z-0.90000 I-0.10000 J0.00000
G2 X-9.04400 Y36.83000 Z-1.80000 I-0.10000 J0.00000
G2 X-9.04400 Y36.83000 I-0.10000 J0.00000
G1 Z5.00000 F60.00000

G0 X-9.04400 Y39.37000
G1 Z0.90000 F60.00000
G1 F180.00000
G2 X-9.04400 Y39.37000 Z-0.00000 I-0.10000 J0.00000
G2 X-9.04400 Y39.37000 Z-0.90000 I-0.10000 J0.00000
G2 X-9.04400 Y39.37000 Z-1.80000 I-0.10000 J0.00000
G2 X-9.04400 Y39.37000 I-0.10000 J0.00000
G1 Z5.00000 F60.00000

G0 X-9.04400 Y41.91000
G1 Z0.90000 F60.00000
G1 F180.00000
G2 X-9.04400 Y41.91000 Z-0.00000 I-0.10000 J0.00000
G2 X-9.04400 Y41.91000 Z-0.90000 I-0.10000 J0.00000
G2 X-9.04400 Y41.91000 Z-1.80000 I-0.10000 J0.00000
G2 X-9.04400 Y41.91000 I-0.10000 J0.00000
G1 Z5.00000 F60.00000

G0 X-9.04400 Y44.45000
G1 Z0.90000 F60.00000
G1 F180.00000
G2 X-9.04400 Y44.45000 Z-0.00000 I-0.10000 J0.00000
G2 X-9.04400 Y44.45000 Z-0.90000 I-0.10000 J0.00000
G2 X-9.04400 Y44.45000 Z-1.80000 I-0.10000 J0.00000
G2 X-9.04400 Y44.45000 I-0.10000 J0.00000
G1 Z5.00000 F60.00000

G0 X-45.82400 Y62.23000
G1 Z0.90000 F60.00000
G1 F180.00000
G2 X-45.82400 Y62.23000 Z-0.00000 I-0.15000 J0.00000
G2 X-45.82400 Y62.23000 Z-0.90000 I-0.15000 J0.00000
G2 X-45.82400 Y62.23000 Z-1.80000 I-0.15000 J0.00000
G2 X-45.82400 Y62.23000 I-0.15000 J0.00000
G1 Z5.00000 F60.00000

G0 X-43.28400 Y62.23000
G1 Z0.90000 F60.00000
G1 F180.00000
G2 X-43.28400 Y62.23000 Z-0.00000 I-0.15000 J0.00000
G2 X-43.28400 Y62.23000 Z-0.90000 I-0.15000 J0.00000
G2 X-43.28400 Y62.23000 Z-1.80000 I-0.15000 J0.00000
G2 X-43.28400 Y62.23000 I-0.15000 J0.00000
G1 Z5.00000 F60.00000

G0 X-40.74400 Y62.23000
G1 Z0.90000 F60.00000
G1 F180.00000
G2 X-40.74400 Y62.23000 Z-0.00000 I-0.15000 J0.00000
G2 X-40.74400 Y62.23000 Z-0.90000 I-0.15000 J0.00000
G2 X-40.74400 Y62.23000 Z-1.80000 I-0.15000 J0.00000
G2 X-40.74400 Y62.23000 I-0.15000 J0.00000
G1 Z5.00000 F60.00000

G0 X-30.28400 Y63.50000
G1 Z0.90000 F60.00000
G1 F180.00000
G2 X-30.28400 Y63.50000 Z-0.00000 I-0.25000 J0.00000
G2 X-30.28400 Y63.50000 Z-0.90000 I-0.25000 J0.00000
G2 X-30.28400 Y63.50000 Z-1.80000 I-0.25000 J0.00000
G2 X-30.28400 Y63.50000 I-0.25000 J0.00000
G1 Z5.00000 F60.00000

G0 X-30.28400 Y58.50000
G1 Z0.90000 F60.00000
G1 F180.00000
G2 X-30.28400 Y58.50000 Z-0.00000 I-0.25000 J0.00000
G2 X-30.28400 Y58.50000 Z-0.90000 I-0.25000 J0.00000
G2 X-30.28400 Y58.50000 Z-1.80000 I-0.25000 J0.00000
G2 X-30.28400 Y58.50000 I-0.25000 J0.00000
G1 Z5.00000 F60.00000

G0 X-17.78400 Y63.50000
G1 Z0.90000 F60.00000
G1 F180.00000
G2 X-17.78400 Y63.50000 Z-0.00000 I-0.25000 J0.00000
G2 X-17.78400 Y63.50000 Z-0.90000 I-0.25000 J0.00000
G2 X-17.78400 Y63.50000 Z-1.80000 I-0.25000 J0.00000
G2 X-17.78400 Y63.50000 I-0.25000 J0.00000
G1 Z5.00000 F60.00000

G0 X-17.78400 Y58.50000
G1 Z0.90000 F60.00000
G1 F180.00000
G2 X-17.78400 Y58.50000 Z-0.00000 I-0.25000 J0.00000
G2 X-17.78400 Y58.50000 Z-0.90000 I-0.25000 J0.00000
G2 X-17.78400 Y58.50000 Z-1.80000 I-0.25000 J0.00000
G2 X-17.78400 Y58.50000 I-0.25000 J0.00000
G1 Z5.00000 F60.00000

G0 X-13.77400 Y58.50000
G1 Z0.90000 F60.00000
G1 F180.00000
G2 X-13.77400 Y58.50000 Z-0.00000 I-0.25000 J0.00000
G2 X-13.77400 Y58.50000 Z-0.90000 I-0.25000 J0.00000
G2 X-13.77400 Y58.50000 Z-1.80000 I-0.25000 J0.00000
G2 X-13.77400 Y58.50000 I-0.25000 J0.00000
G1 Z5.00000 F60.00000

G0 X-13.77400 Y63.50000
G1 Z0.90000 F60.00000
G1 F180.00000
G2 X-13.77400 Y63.50000 Z-0.00000 I-0.25000 J0.00000
G2 X-13.77400 Y63.50000 Z-0.90000 I-0.25000 J0.00000
G2 X-13.77400 Y63.50000 Z-1.80000 I-0.25000 J0.00000
G2 X-13.77400 Y63.50000 I-0.25000 J0.00000
G1 Z5.00000 F60.00000

G0 X-1.27400 Y63.50000
G1 Z0.90000 F60.00000
G1 F180.00000
G2 X-1.27400 Y63.50000 Z-0.00000 I-0.25000 J0.00000
G2 X-1.27400 Y63.50000 Z-0.90000 I-0.25000 J0.00000
G2 X-1.27400 Y63.50000 Z-1.80000 I-0.25000 J0.00000
G2 X-1.27400 Y63.50000 I-0.25000 J0.00000
G1 Z5.00000 F60.00000

G0 X-1.27400 Y58.50000
G1 Z0.90000 F60.00000
G1 F180.00000
G2 X-1.27400 Y58.50000 Z-0.00000 I-0.25000 J0.00000
G2 X-1.27400 Y58.50000 Z-0.90000 I-0.25000 J0.00000
G2 X-1.27400 Y58.50000 Z-1.80000 I-0.25000 J0.00000
G2 X-1.27400 Y58.50000 I-0.25000 J0.00000
G1 Z5.00000 F60.00000

G0 X-59.58400 Y58.42000
G1 Z0.90000 F60.00000
G1 F180.00000
G2 X-59.58400 Y58.42000 Z-0.00000 I-0.36000 J0.00000
G2 X-59.58400 Y58.42000 Z-0.90000 I-0.36000 J0.00000
G2 X-59.58400 Y58.42000 Z-1.80000 I-0.36000 J0.00000
G2 X-59.58400 Y58.42000 I-0.36000 J0.00000
G1 Z5.00000 F60.00000

G0 X-59.58400 Y53.34000
G1 Z0.90000 F60.00000
G1 F180.00000
G2 X-59.58400 Y53.34000 Z-0.00000 I-0.36000 J0.00000
G2 X-59.58400 Y53.34000 Z-0.90000 I-0.36000 J0.00000
G2 X-59.58400 Y53.34000 Z-1.80000 I-0.36000 J0.00000
G2 X-59.58400 Y53.34000 I-0.36000 J0.00000
G1 Z5.00000 F60.00000

G0 X-37.99400 Y6.35000
G1 Z0.90000 F60.00000
G1 F180.00000
G2 X-37.99400 Y6.35000 Z-0.00000 I-0.36000 J0.00000
G2 X-37.99400 Y6.35000 Z-0.90000 I-0.36000 J0.00000
G2 X-37.99400 Y6.35000 Z-1.80000 I-0.36000 J0.00000
G2 X-37.99400 Y6.35000 I-0.36000 J0.00000
G1 Z5.00000 F60.00000

G0 X-43.07400 Y6.35000
G1 Z0.90000 F60.00000
G1 F180.00000
G2 X-43.07400 Y6.35000 Z-0.00000 I-0.36000 J0.00000
G2 X-43.07400 Y6.35000 Z-0.90000 I-0.36000 J0.00000
G2 X-43.07400 Y6.35000 Z-1.80000 I-0.36000 J0.00000
G2 X-43.07400 Y6.35000 I-0.36000 J0.00000
G1 Z5.00000 F60.00000

G0 X-53.23400 Y6.35000
G1 Z0.90000 F60.00000
G1 F180.00000
G2 X-53.23400 Y6.35000 Z-0.00000 I-0.36000 J0.00000
G2 X-53.23400 Y6.35000 Z-0.90000 I-0.36000 J0.00000
G2 X-53.23400 Y6.35000 Z-1.80000 I-0.36000 J0.00000
G2 X-53.23400 Y6.35000 I-0.36000 J0.00000
G1 Z5.00000 F60.00000

G0 X-58.31400 Y6.35000
G1 Z0.90000 F60.00000
G1 F180.00000
G2 X-58.31400 Y6.35000 Z-0.00000 I-0.36000 J0.00000
G2 X-58.31400 Y6.35000 Z-0.90000 I-0.36000 J0.00000
G2 X-58.31400 Y6.35000 Z-1.80000 I-0.36000 J0.00000
G2 X-58.31400 Y6.35000 I-0.36000 J0.00000
G1 Z5.00000 F60.00000

G00 Z5.000000 ( All done -- retract )

M5      (Spindle off.)
G04 P1.000000
M9      (Coolant off.)
M2      (Program end.)

