( pcb2gcode 2.4.0 )
( Software-independent Gcode )
( This file uses a mill head of 0.80000mm to drill the 7 hole sizes. )
( Hole sizes: [0.4mm] [0.7mm] [0.8mm] [0.95mm] [1mm] [1.1mm] [1.52mm] )

G94       (Millimeters per minute feed rate.)
G21       (Units == Millimeters.)
G90       (Absolute coordinates.)
S10000    (RPM spindle speed.)

G01 F180.00000 (Feedrate)
G00 Z5.00000 (Retract)
T1
M5        (Spindle stop.)
G04 P1.00000
(MSG, Change tool bit to drill size 0.80000mm)
M6        (Tool change.)
M0        (Temporary machine stop.)
M3        (Spindle on clockwise.)
G04 P1.00000
G00 Z5.00000

G0 X-56.08000 Y48.46000
G1 Z-1.60000 F60.00000
G1 Z5.00000 F60.00000

G0 X-52.27000 Y49.73000
G1 Z-1.60000 F60.00000
G1 Z5.00000 F60.00000

G0 X-16.71000 Y53.54000
G1 Z-1.60000 F60.00000
G1 Z5.00000 F60.00000

G0 X-12.90000 Y51.00000
G1 Z-1.60000 F60.00000
G1 Z5.00000 F60.00000

G0 X-6.55000 Y12.90000
G1 Z-1.60000 F60.00000
G1 Z5.00000 F60.00000

G0 X-2.74000 Y1.47000
G1 Z-1.60000 F60.00000
G1 Z5.00000 F60.00000

G0 X-61.16000 Y35.76000
G1 Z-1.60000 F60.00000
G1 Z5.00000 F60.00000

G0 X-61.16000 Y33.22000
G1 Z-1.60000 F60.00000
G1 Z5.00000 F60.00000

G0 X-61.16000 Y30.68000
G1 Z-1.60000 F60.00000
G1 Z5.00000 F60.00000

G0 X-57.35000 Y30.68000
G1 Z-1.60000 F60.00000
G1 Z5.00000 F60.00000

G0 X-57.35000 Y33.22000
G1 Z-1.60000 F60.00000
G1 Z5.00000 F60.00000

G0 X-57.35000 Y35.76000
G1 Z-1.60000 F60.00000
G1 Z5.00000 F60.00000

G0 X-61.08000 Y17.98000
G1 Z-1.60000 F60.00000
G1 Z5.00000 F60.00000

G0 X-56.08000 Y17.98000
G1 Z-1.60000 F60.00000
G1 Z5.00000 F60.00000

G0 X-52.27000 Y28.14000
G1 Z-1.60000 F60.00000
G1 Z5.00000 F60.00000

G0 X-52.27000 Y30.68000
G1 Z-1.60000 F60.00000
G1 Z5.00000 F60.00000

G0 X-52.27000 Y33.22000
G1 Z-1.60000 F60.00000
G1 Z5.00000 F60.00000

G0 X-52.27000 Y35.76000
G1 Z-1.60000 F60.00000
G1 Z5.00000 F60.00000

G0 X-52.27000 Y38.30000
G1 Z-1.60000 F60.00000
G1 Z5.00000 F60.00000

G0 X-52.27000 Y40.84000
G1 Z-1.60000 F60.00000
G1 Z5.00000 F60.00000

G0 X-52.27000 Y43.38000
G1 Z-1.60000 F60.00000
G1 Z5.00000 F60.00000

G0 X-52.27000 Y45.92000
G1 Z-1.60000 F60.00000
G1 Z5.00000 F60.00000

G0 X-47.19000 Y52.27000
G1 Z-1.60000 F60.00000
G1 Z5.00000 F60.00000

G0 X-47.19000 Y57.27000
G1 Z-1.60000 F60.00000
G1 Z5.00000 F60.00000

G0 X-39.57000 Y45.92000
G1 Z-1.60000 F60.00000
G1 Z5.00000 F60.00000

G0 X-39.57000 Y43.38000
G1 Z-1.60000 F60.00000
G1 Z5.00000 F60.00000

G0 X-39.57000 Y40.84000
G1 Z-1.60000 F60.00000
G1 Z5.00000 F60.00000

G0 X-39.57000 Y38.30000
G1 Z-1.60000 F60.00000
G1 Z5.00000 F60.00000

G0 X-39.57000 Y35.76000
G1 Z-1.60000 F60.00000
G1 Z5.00000 F60.00000

G0 X-39.57000 Y33.22000
G1 Z-1.60000 F60.00000
G1 Z5.00000 F60.00000

G0 X-39.57000 Y30.68000
G1 Z-1.60000 F60.00000
G1 Z5.00000 F60.00000

G0 X-39.57000 Y28.14000
G1 Z-1.60000 F60.00000
G1 Z5.00000 F60.00000

G0 X-42.11000 Y21.79000
G1 Z-1.60000 F60.00000
G1 Z5.00000 F60.00000

G0 X-42.11000 Y16.71000
G1 Z-1.60000 F60.00000
G1 Z5.00000 F60.00000

G0 X-31.95000 Y16.71000
G1 Z-1.60000 F60.00000
G1 Z5.00000 F60.00000

G0 X-31.95000 Y21.79000
G1 Z-1.60000 F60.00000
G1 Z5.00000 F60.00000

G0 X-31.95000 Y53.54000
G1 Z-1.60000 F60.00000
G1 Z5.00000 F60.00000

G0 X-31.95000 Y58.54000
G1 Z-1.60000 F60.00000
G1 Z5.00000 F60.00000

G0 X-33.14500 Y40.84000
G1 Z0.80000 F60.00000
G1 F180.00000
G2 X-33.14500 Y40.84000 Z-0.00000 I-0.07500 J0.00000
G2 X-33.14500 Y40.84000 Z-0.80000 I-0.07500 J0.00000
G2 X-33.14500 Y40.84000 Z-1.60000 I-0.07500 J0.00000
G2 X-33.14500 Y40.84000 I-0.07500 J0.00000
G1 Z5.00000 F60.00000

G0 X-33.14500 Y38.34000
G1 Z0.80000 F60.00000
G1 F180.00000
G2 X-33.14500 Y38.34000 Z-0.00000 I-0.07500 J0.00000
G2 X-33.14500 Y38.34000 Z-0.80000 I-0.07500 J0.00000
G2 X-33.14500 Y38.34000 Z-1.60000 I-0.07500 J0.00000
G2 X-33.14500 Y38.34000 I-0.07500 J0.00000
G1 Z5.00000 F60.00000

G0 X-33.14500 Y35.84000
G1 Z0.80000 F60.00000
G1 F180.00000
G2 X-33.14500 Y35.84000 Z-0.00000 I-0.07500 J0.00000
G2 X-33.14500 Y35.84000 Z-0.80000 I-0.07500 J0.00000
G2 X-33.14500 Y35.84000 Z-1.60000 I-0.07500 J0.00000
G2 X-33.14500 Y35.84000 I-0.07500 J0.00000
G1 Z5.00000 F60.00000

G0 X-33.14500 Y33.34000
G1 Z0.80000 F60.00000
G1 F180.00000
G2 X-33.14500 Y33.34000 Z-0.00000 I-0.07500 J0.00000
G2 X-33.14500 Y33.34000 Z-0.80000 I-0.07500 J0.00000
G2 X-33.14500 Y33.34000 Z-1.60000 I-0.07500 J0.00000
G2 X-33.14500 Y33.34000 I-0.07500 J0.00000
G1 Z5.00000 F60.00000

G0 X-24.23000 Y44.65000
G1 Z0.80000 F60.00000
G1 F180.00000
G2 X-24.23000 Y44.65000 Z-0.00000 I-0.10000 J0.00000
G2 X-24.23000 Y44.65000 Z-0.80000 I-0.10000 J0.00000
G2 X-24.23000 Y44.65000 Z-1.60000 I-0.10000 J0.00000
G2 X-24.23000 Y44.65000 I-0.10000 J0.00000
G1 Z5.00000 F60.00000

G0 X-24.23000 Y42.11000
G1 Z0.80000 F60.00000
G1 F180.00000
G2 X-24.23000 Y42.11000 Z-0.00000 I-0.10000 J0.00000
G2 X-24.23000 Y42.11000 Z-0.80000 I-0.10000 J0.00000
G2 X-24.23000 Y42.11000 Z-1.60000 I-0.10000 J0.00000
G2 X-24.23000 Y42.11000 I-0.10000 J0.00000
G1 Z5.00000 F60.00000

G0 X-24.23000 Y39.57000
G1 Z0.80000 F60.00000
G1 F180.00000
G2 X-24.23000 Y39.57000 Z-0.00000 I-0.10000 J0.00000
G2 X-24.23000 Y39.57000 Z-0.80000 I-0.10000 J0.00000
G2 X-24.23000 Y39.57000 Z-1.60000 I-0.10000 J0.00000
G2 X-24.23000 Y39.57000 I-0.10000 J0.00000
G1 Z5.00000 F60.00000

G0 X-24.23000 Y37.03000
G1 Z0.80000 F60.00000
G1 F180.00000
G2 X-24.23000 Y37.03000 Z-0.00000 I-0.10000 J0.00000
G2 X-24.23000 Y37.03000 Z-0.80000 I-0.10000 J0.00000
G2 X-24.23000 Y37.03000 Z-1.60000 I-0.10000 J0.00000
G2 X-24.23000 Y37.03000 I-0.10000 J0.00000
G1 Z5.00000 F60.00000

G0 X-24.23000 Y34.49000
G1 Z0.80000 F60.00000
G1 F180.00000
G2 X-24.23000 Y34.49000 Z-0.00000 I-0.10000 J0.00000
G2 X-24.23000 Y34.49000 Z-0.80000 I-0.10000 J0.00000
G2 X-24.23000 Y34.49000 Z-1.60000 I-0.10000 J0.00000
G2 X-24.23000 Y34.49000 I-0.10000 J0.00000
G1 Z5.00000 F60.00000

G0 X-24.23000 Y31.95000
G1 Z0.80000 F60.00000
G1 F180.00000
G2 X-24.23000 Y31.95000 Z-0.00000 I-0.10000 J0.00000
G2 X-24.23000 Y31.95000 Z-0.80000 I-0.10000 J0.00000
G2 X-24.23000 Y31.95000 Z-1.60000 I-0.10000 J0.00000
G2 X-24.23000 Y31.95000 I-0.10000 J0.00000
G1 Z5.00000 F60.00000

G0 X-24.23000 Y29.41000
G1 Z0.80000 F60.00000
G1 F180.00000
G2 X-24.23000 Y29.41000 Z-0.00000 I-0.10000 J0.00000
G2 X-24.23000 Y29.41000 Z-0.80000 I-0.10000 J0.00000
G2 X-24.23000 Y29.41000 Z-1.60000 I-0.10000 J0.00000
G2 X-24.23000 Y29.41000 I-0.10000 J0.00000
G1 Z5.00000 F60.00000

G0 X-24.23000 Y26.87000
G1 Z0.80000 F60.00000
G1 F180.00000
G2 X-24.23000 Y26.87000 Z-0.00000 I-0.10000 J0.00000
G2 X-24.23000 Y26.87000 Z-0.80000 I-0.10000 J0.00000
G2 X-24.23000 Y26.87000 Z-1.60000 I-0.10000 J0.00000
G2 X-24.23000 Y26.87000 I-0.10000 J0.00000
G1 Z5.00000 F60.00000

G0 X-24.23000 Y24.33000
G1 Z0.80000 F60.00000
G1 F180.00000
G2 X-24.23000 Y24.33000 Z-0.00000 I-0.10000 J0.00000
G2 X-24.23000 Y24.33000 Z-0.80000 I-0.10000 J0.00000
G2 X-24.23000 Y24.33000 Z-1.60000 I-0.10000 J0.00000
G2 X-24.23000 Y24.33000 I-0.10000 J0.00000
G1 Z5.00000 F60.00000

G0 X-24.23000 Y21.79000
G1 Z0.80000 F60.00000
G1 F180.00000
G2 X-24.23000 Y21.79000 Z-0.00000 I-0.10000 J0.00000
G2 X-24.23000 Y21.79000 Z-0.80000 I-0.10000 J0.00000
G2 X-24.23000 Y21.79000 Z-1.60000 I-0.10000 J0.00000
G2 X-24.23000 Y21.79000 I-0.10000 J0.00000
G1 Z5.00000 F60.00000

G0 X-24.23000 Y19.25000
G1 Z0.80000 F60.00000
G1 F180.00000
G2 X-24.23000 Y19.25000 Z-0.00000 I-0.10000 J0.00000
G2 X-24.23000 Y19.25000 Z-0.80000 I-0.10000 J0.00000
G2 X-24.23000 Y19.25000 Z-1.60000 I-0.10000 J0.00000
G2 X-24.23000 Y19.25000 I-0.10000 J0.00000
G1 Z5.00000 F60.00000

G0 X-24.23000 Y16.71000
G1 Z0.80000 F60.00000
G1 F180.00000
G2 X-24.23000 Y16.71000 Z-0.00000 I-0.10000 J0.00000
G2 X-24.23000 Y16.71000 Z-0.80000 I-0.10000 J0.00000
G2 X-24.23000 Y16.71000 Z-1.60000 I-0.10000 J0.00000
G2 X-24.23000 Y16.71000 I-0.10000 J0.00000
G1 Z5.00000 F60.00000

G0 X-24.23000 Y14.17000
G1 Z0.80000 F60.00000
G1 F180.00000
G2 X-24.23000 Y14.17000 Z-0.00000 I-0.10000 J0.00000
G2 X-24.23000 Y14.17000 Z-0.80000 I-0.10000 J0.00000
G2 X-24.23000 Y14.17000 Z-1.60000 I-0.10000 J0.00000
G2 X-24.23000 Y14.17000 I-0.10000 J0.00000
G1 Z5.00000 F60.00000

G0 X-24.23000 Y11.63000
G1 Z0.80000 F60.00000
G1 F180.00000
G2 X-24.23000 Y11.63000 Z-0.00000 I-0.10000 J0.00000
G2 X-24.23000 Y11.63000 Z-0.80000 I-0.10000 J0.00000
G2 X-24.23000 Y11.63000 Z-1.60000 I-0.10000 J0.00000
G2 X-24.23000 Y11.63000 I-0.10000 J0.00000
G1 Z5.00000 F60.00000

G0 X-24.23000 Y9.09000
G1 Z0.80000 F60.00000
G1 F180.00000
G2 X-24.23000 Y9.09000 Z-0.00000 I-0.10000 J0.00000
G2 X-24.23000 Y9.09000 Z-0.80000 I-0.10000 J0.00000
G2 X-24.23000 Y9.09000 Z-1.60000 I-0.10000 J0.00000
G2 X-24.23000 Y9.09000 I-0.10000 J0.00000
G1 Z5.00000 F60.00000

G0 X-8.99000 Y9.09000
G1 Z0.80000 F60.00000
G1 F180.00000
G2 X-8.99000 Y9.09000 Z-0.00000 I-0.10000 J0.00000
G2 X-8.99000 Y9.09000 Z-0.80000 I-0.10000 J0.00000
G2 X-8.99000 Y9.09000 Z-1.60000 I-0.10000 J0.00000
G2 X-8.99000 Y9.09000 I-0.10000 J0.00000
G1 Z5.00000 F60.00000

G0 X-8.99000 Y11.63000
G1 Z0.80000 F60.00000
G1 F180.00000
G2 X-8.99000 Y11.63000 Z-0.00000 I-0.10000 J0.00000
G2 X-8.99000 Y11.63000 Z-0.80000 I-0.10000 J0.00000
G2 X-8.99000 Y11.63000 Z-1.60000 I-0.10000 J0.00000
G2 X-8.99000 Y11.63000 I-0.10000 J0.00000
G1 Z5.00000 F60.00000

G0 X-8.99000 Y14.17000
G1 Z0.80000 F60.00000
G1 F180.00000
G2 X-8.99000 Y14.17000 Z-0.00000 I-0.10000 J0.00000
G2 X-8.99000 Y14.17000 Z-0.80000 I-0.10000 J0.00000
G2 X-8.99000 Y14.17000 Z-1.60000 I-0.10000 J0.00000
G2 X-8.99000 Y14.17000 I-0.10000 J0.00000
G1 Z5.00000 F60.00000

G0 X-8.99000 Y16.71000
G1 Z0.80000 F60.00000
G1 F180.00000
G2 X-8.99000 Y16.71000 Z-0.00000 I-0.10000 J0.00000
G2 X-8.99000 Y16.71000 Z-0.80000 I-0.10000 J0.00000
G2 X-8.99000 Y16.71000 Z-1.60000 I-0.10000 J0.00000
G2 X-8.99000 Y16.71000 I-0.10000 J0.00000
G1 Z5.00000 F60.00000

G0 X-8.99000 Y19.25000
G1 Z0.80000 F60.00000
G1 F180.00000
G2 X-8.99000 Y19.25000 Z-0.00000 I-0.10000 J0.00000
G2 X-8.99000 Y19.25000 Z-0.80000 I-0.10000 J0.00000
G2 X-8.99000 Y19.25000 Z-1.60000 I-0.10000 J0.00000
G2 X-8.99000 Y19.25000 I-0.10000 J0.00000
G1 Z5.00000 F60.00000

G0 X-8.99000 Y21.79000
G1 Z0.80000 F60.00000
G1 F180.00000
G2 X-8.99000 Y21.79000 Z-0.00000 I-0.10000 J0.00000
G2 X-8.99000 Y21.79000 Z-0.80000 I-0.10000 J0.00000
G2 X-8.99000 Y21.79000 Z-1.60000 I-0.10000 J0.00000
G2 X-8.99000 Y21.79000 I-0.10000 J0.00000
G1 Z5.00000 F60.00000

G0 X-8.99000 Y24.33000
G1 Z0.80000 F60.00000
G1 F180.00000
G2 X-8.99000 Y24.33000 Z-0.00000 I-0.10000 J0.00000
G2 X-8.99000 Y24.33000 Z-0.80000 I-0.10000 J0.00000
G2 X-8.99000 Y24.33000 Z-1.60000 I-0.10000 J0.00000
G2 X-8.99000 Y24.33000 I-0.10000 J0.00000
G1 Z5.00000 F60.00000

G0 X-8.99000 Y26.87000
G1 Z0.80000 F60.00000
G1 F180.00000
G2 X-8.99000 Y26.87000 Z-0.00000 I-0.10000 J0.00000
G2 X-8.99000 Y26.87000 Z-0.80000 I-0.10000 J0.00000
G2 X-8.99000 Y26.87000 Z-1.60000 I-0.10000 J0.00000
G2 X-8.99000 Y26.87000 I-0.10000 J0.00000
G1 Z5.00000 F60.00000

G0 X-8.99000 Y29.41000
G1 Z0.80000 F60.00000
G1 F180.00000
G2 X-8.99000 Y29.41000 Z-0.00000 I-0.10000 J0.00000
G2 X-8.99000 Y29.41000 Z-0.80000 I-0.10000 J0.00000
G2 X-8.99000 Y29.41000 Z-1.60000 I-0.10000 J0.00000
G2 X-8.99000 Y29.41000 I-0.10000 J0.00000
G1 Z5.00000 F60.00000

G0 X-8.99000 Y31.95000
G1 Z0.80000 F60.00000
G1 F180.00000
G2 X-8.99000 Y31.95000 Z-0.00000 I-0.10000 J0.00000
G2 X-8.99000 Y31.95000 Z-0.80000 I-0.10000 J0.00000
G2 X-8.99000 Y31.95000 Z-1.60000 I-0.10000 J0.00000
G2 X-8.99000 Y31.95000 I-0.10000 J0.00000
G1 Z5.00000 F60.00000

G0 X-8.99000 Y34.49000
G1 Z0.80000 F60.00000
G1 F180.00000
G2 X-8.99000 Y34.49000 Z-0.00000 I-0.10000 J0.00000
G2 X-8.99000 Y34.49000 Z-0.80000 I-0.10000 J0.00000
G2 X-8.99000 Y34.49000 Z-1.60000 I-0.10000 J0.00000
G2 X-8.99000 Y34.49000 I-0.10000 J0.00000
G1 Z5.00000 F60.00000

G0 X-8.99000 Y37.03000
G1 Z0.80000 F60.00000
G1 F180.00000
G2 X-8.99000 Y37.03000 Z-0.00000 I-0.10000 J0.00000
G2 X-8.99000 Y37.03000 Z-0.80000 I-0.10000 J0.00000
G2 X-8.99000 Y37.03000 Z-1.60000 I-0.10000 J0.00000
G2 X-8.99000 Y37.03000 I-0.10000 J0.00000
G1 Z5.00000 F60.00000

G0 X-8.99000 Y39.57000
G1 Z0.80000 F60.00000
G1 F180.00000
G2 X-8.99000 Y39.57000 Z-0.00000 I-0.10000 J0.00000
G2 X-8.99000 Y39.57000 Z-0.80000 I-0.10000 J0.00000
G2 X-8.99000 Y39.57000 Z-1.60000 I-0.10000 J0.00000
G2 X-8.99000 Y39.57000 I-0.10000 J0.00000
G1 Z5.00000 F60.00000

G0 X-8.99000 Y42.11000
G1 Z0.80000 F60.00000
G1 F180.00000
G2 X-8.99000 Y42.11000 Z-0.00000 I-0.10000 J0.00000
G2 X-8.99000 Y42.11000 Z-0.80000 I-0.10000 J0.00000
G2 X-8.99000 Y42.11000 Z-1.60000 I-0.10000 J0.00000
G2 X-8.99000 Y42.11000 I-0.10000 J0.00000
G1 Z5.00000 F60.00000

G0 X-8.99000 Y44.65000
G1 Z0.80000 F60.00000
G1 F180.00000
G2 X-8.99000 Y44.65000 Z-0.00000 I-0.10000 J0.00000
G2 X-8.99000 Y44.65000 Z-0.80000 I-0.10000 J0.00000
G2 X-8.99000 Y44.65000 Z-1.60000 I-0.10000 J0.00000
G2 X-8.99000 Y44.65000 I-0.10000 J0.00000
G1 Z5.00000 F60.00000

G0 X-45.77000 Y62.43000
G1 Z0.80000 F60.00000
G1 F180.00000
G2 X-45.77000 Y62.43000 Z-0.00000 I-0.15000 J0.00000
G2 X-45.77000 Y62.43000 Z-0.80000 I-0.15000 J0.00000
G2 X-45.77000 Y62.43000 Z-1.60000 I-0.15000 J0.00000
G2 X-45.77000 Y62.43000 I-0.15000 J0.00000
G1 Z5.00000 F60.00000

G0 X-43.23000 Y62.43000
G1 Z0.80000 F60.00000
G1 F180.00000
G2 X-43.23000 Y62.43000 Z-0.00000 I-0.15000 J0.00000
G2 X-43.23000 Y62.43000 Z-0.80000 I-0.15000 J0.00000
G2 X-43.23000 Y62.43000 Z-1.60000 I-0.15000 J0.00000
G2 X-43.23000 Y62.43000 I-0.15000 J0.00000
G1 Z5.00000 F60.00000

G0 X-40.69000 Y62.43000
G1 Z0.80000 F60.00000
G1 F180.00000
G2 X-40.69000 Y62.43000 Z-0.00000 I-0.15000 J0.00000
G2 X-40.69000 Y62.43000 Z-0.80000 I-0.15000 J0.00000
G2 X-40.69000 Y62.43000 Z-1.60000 I-0.15000 J0.00000
G2 X-40.69000 Y62.43000 I-0.15000 J0.00000
G1 Z5.00000 F60.00000

G0 X-23.06000 Y62.43000
G1 Z0.80000 F60.00000
G1 F180.00000
G2 X-23.06000 Y62.43000 Z-0.00000 I-0.15000 J0.00000
G2 X-23.06000 Y62.43000 Z-0.80000 I-0.15000 J0.00000
G2 X-23.06000 Y62.43000 Z-1.60000 I-0.15000 J0.00000
G2 X-23.06000 Y62.43000 I-0.15000 J0.00000
G1 Z5.00000 F60.00000

G0 X-23.06000 Y57.93000
G1 Z0.80000 F60.00000
G1 F180.00000
G2 X-23.06000 Y57.93000 Z-0.00000 I-0.15000 J0.00000
G2 X-23.06000 Y57.93000 Z-0.80000 I-0.15000 J0.00000
G2 X-23.06000 Y57.93000 Z-1.60000 I-0.15000 J0.00000
G2 X-23.06000 Y57.93000 I-0.15000 J0.00000
G1 Z5.00000 F60.00000

G0 X-16.56000 Y62.43000
G1 Z0.80000 F60.00000
G1 F180.00000
G2 X-16.56000 Y62.43000 Z-0.00000 I-0.15000 J0.00000
G2 X-16.56000 Y62.43000 Z-0.80000 I-0.15000 J0.00000
G2 X-16.56000 Y62.43000 Z-1.60000 I-0.15000 J0.00000
G2 X-16.56000 Y62.43000 I-0.15000 J0.00000
G1 Z5.00000 F60.00000

G0 X-16.56000 Y57.93000
G1 Z0.80000 F60.00000
G1 F180.00000
G2 X-16.56000 Y57.93000 Z-0.00000 I-0.15000 J0.00000
G2 X-16.56000 Y57.93000 Z-0.80000 I-0.15000 J0.00000
G2 X-16.56000 Y57.93000 Z-1.60000 I-0.15000 J0.00000
G2 X-16.56000 Y57.93000 I-0.15000 J0.00000
G1 Z5.00000 F60.00000

G0 X-9.09000 Y62.43000
G1 Z0.80000 F60.00000
G1 F180.00000
G2 X-9.09000 Y62.43000 Z-0.00000 I-0.15000 J0.00000
G2 X-9.09000 Y62.43000 Z-0.80000 I-0.15000 J0.00000
G2 X-9.09000 Y62.43000 Z-1.60000 I-0.15000 J0.00000
G2 X-9.09000 Y62.43000 I-0.15000 J0.00000
G1 Z5.00000 F60.00000

G0 X-9.09000 Y57.93000
G1 Z0.80000 F60.00000
G1 F180.00000
G2 X-9.09000 Y57.93000 Z-0.00000 I-0.15000 J0.00000
G2 X-9.09000 Y57.93000 Z-0.80000 I-0.15000 J0.00000
G2 X-9.09000 Y57.93000 Z-1.60000 I-0.15000 J0.00000
G2 X-9.09000 Y57.93000 I-0.15000 J0.00000
G1 Z5.00000 F60.00000

G0 X-2.59000 Y62.43000
G1 Z0.80000 F60.00000
G1 F180.00000
G2 X-2.59000 Y62.43000 Z-0.00000 I-0.15000 J0.00000
G2 X-2.59000 Y62.43000 Z-0.80000 I-0.15000 J0.00000
G2 X-2.59000 Y62.43000 Z-1.60000 I-0.15000 J0.00000
G2 X-2.59000 Y62.43000 I-0.15000 J0.00000
G1 Z5.00000 F60.00000

G0 X-2.59000 Y57.93000
G1 Z0.80000 F60.00000
G1 F180.00000
G2 X-2.59000 Y57.93000 Z-0.00000 I-0.15000 J0.00000
G2 X-2.59000 Y57.93000 Z-0.80000 I-0.15000 J0.00000
G2 X-2.59000 Y57.93000 Z-1.60000 I-0.15000 J0.00000
G2 X-2.59000 Y57.93000 I-0.15000 J0.00000
G1 Z5.00000 F60.00000

G0 X-59.53000 Y58.62000
G1 Z0.80000 F60.00000
G1 F180.00000
G2 X-59.53000 Y58.62000 Z-0.00000 I-0.36000 J0.00000
G2 X-59.53000 Y58.62000 Z-0.80000 I-0.36000 J0.00000
G2 X-59.53000 Y58.62000 Z-1.60000 I-0.36000 J0.00000
G2 X-59.53000 Y58.62000 I-0.36000 J0.00000
G1 Z5.00000 F60.00000

G0 X-59.53000 Y53.54000
G1 Z0.80000 F60.00000
G1 F180.00000
G2 X-59.53000 Y53.54000 Z-0.00000 I-0.36000 J0.00000
G2 X-59.53000 Y53.54000 Z-0.80000 I-0.36000 J0.00000
G2 X-59.53000 Y53.54000 Z-1.60000 I-0.36000 J0.00000
G2 X-59.53000 Y53.54000 I-0.36000 J0.00000
G1 Z5.00000 F60.00000

G0 X-37.94000 Y6.55000
G1 Z0.80000 F60.00000
G1 F180.00000
G2 X-37.94000 Y6.55000 Z-0.00000 I-0.36000 J0.00000
G2 X-37.94000 Y6.55000 Z-0.80000 I-0.36000 J0.00000
G2 X-37.94000 Y6.55000 Z-1.60000 I-0.36000 J0.00000
G2 X-37.94000 Y6.55000 I-0.36000 J0.00000
G1 Z5.00000 F60.00000

G0 X-43.02000 Y6.55000
G1 Z0.80000 F60.00000
G1 F180.00000
G2 X-43.02000 Y6.55000 Z-0.00000 I-0.36000 J0.00000
G2 X-43.02000 Y6.55000 Z-0.80000 I-0.36000 J0.00000
G2 X-43.02000 Y6.55000 Z-1.60000 I-0.36000 J0.00000
G2 X-43.02000 Y6.55000 I-0.36000 J0.00000
G1 Z5.00000 F60.00000

G0 X-53.18000 Y6.55000
G1 Z0.80000 F60.00000
G1 F180.00000
G2 X-53.18000 Y6.55000 Z-0.00000 I-0.36000 J0.00000
G2 X-53.18000 Y6.55000 Z-0.80000 I-0.36000 J0.00000
G2 X-53.18000 Y6.55000 Z-1.60000 I-0.36000 J0.00000
G2 X-53.18000 Y6.55000 I-0.36000 J0.00000
G1 Z5.00000 F60.00000

G0 X-58.26000 Y6.55000
G1 Z0.80000 F60.00000
G1 F180.00000
G2 X-58.26000 Y6.55000 Z-0.00000 I-0.36000 J0.00000
G2 X-58.26000 Y6.55000 Z-0.80000 I-0.36000 J0.00000
G2 X-58.26000 Y6.55000 Z-1.60000 I-0.36000 J0.00000
G2 X-58.26000 Y6.55000 I-0.36000 J0.00000
G1 Z5.00000 F60.00000

G00 Z5.000000 ( All done -- retract )

M5      (Spindle off.)
G04 P1.000000
M9      (Coolant off.)
M2      (Program end.)

